; generated by Slic3r 1.3.0 on 2024-07-17 at 17:59:02

; external perimeters extrusion width = 0.33mm (0.86mm^3/s)
; perimeters extrusion width = 0.40mm (1.41mm^3/s)
; infill extrusion width = 0.38mm (1.99mm^3/s)
; solid infill extrusion width = 0.40mm (1.41mm^3/s)
; top infill extrusion width = 0.40mm (1.41mm^3/s)

M107
M190 S50 ; set bed temperature and wait for it to be reached
M104 S245 ; set temperature
G28 ; 
G1 Z5 F5000 ; 

; Filament gcode

M109 S245 ; set temperature and wait for it to be reached
G21 ; set units to millimeters
G90 ; use absolute coordinates
M82 ; use absolute distances for extrusion
G92 E0
G1 Z0.200 F2400.000
G1 E-2.00000 F2400.00000
G92 E0
G1 X117.710 Y139.616 F2400.000
G1 E2.00000 F2400.00000
G1 F900
G1 X118.496 Y138.985 E2.02961
G1 X119.476 Y138.261 E2.06543
G1 X120.167 Y137.792 E2.08996
G1 X121.109 Y137.201 E2.12263
G1 X121.832 Y136.784 E2.14717
G1 X123.065 Y136.139 E2.18807
G1 X124.073 Y135.671 E2.22074
G1 X124.843 Y135.348 E2.24526
G1 X125.622 Y135.049 E2.26980
G1 X126.941 Y134.605 E2.31070
G1 X128.011 Y134.301 E2.34337
G1 X128.821 Y134.102 E2.36791
G1 X129.638 Y133.928 E2.39244
G1 X131.010 Y133.696 E2.43334
G1 X131.838 Y133.592 E2.45787
G1 X132.669 Y133.513 E2.48240
G1 X133.502 Y133.461 E2.50692
G1 X134.405 Y133.433 E2.53346
G1 X182.760 Y132.548 E3.95475
G1 X183.998 Y132.576 E3.99113
G1 X184.551 Y132.611 E4.00742
G1 X186.267 Y132.791 E4.05812
G1 X187.423 Y132.974 E4.09253
G1 X189.111 Y133.333 E4.14323
G1 X190.772 Y133.798 E4.19394
G1 X192.401 Y134.366 E4.24463
G1 X192.917 Y134.570 E4.26093
G1 X193.991 Y135.035 E4.29534
G1 X195.536 Y135.803 E4.34604
G1 X196.022 Y136.070 E4.36233
G1 X197.498 Y136.963 E4.41303
G1 X198.467 Y137.621 E4.44744
G1 X199.576 Y138.459 E4.48831
G1 X200.471 Y139.257 E4.52354
G1 X203.649 Y142.500 E4.65698
G1 X204.318 Y143.268 E4.68690
G1 X204.929 Y144.083 E4.71685
G1 X205.587 Y145.052 E4.75126
G1 X206.467 Y146.505 E4.80118
G1 X206.747 Y147.014 E4.81826
G1 X207.279 Y148.057 E4.85267
G1 X207.980 Y149.633 E4.90337
G1 X208.184 Y150.149 E4.91966
G1 X208.752 Y151.778 E4.97036
G1 X209.079 Y152.903 E5.00479
G1 X209.472 Y154.582 E5.05547
G1 X209.576 Y155.127 E5.07177
G1 X209.829 Y156.833 E5.12247
G1 X209.939 Y157.999 E5.15688
G1 X210.011 Y159.723 E5.20758
G1 X209.948 Y161.083 E5.24759
G1 X209.391 Y165.591 E5.38107
G1 X209.217 Y166.562 E5.41006
G1 X208.752 Y168.222 E5.46073
G1 X208.184 Y169.851 E5.51144
G1 X207.515 Y171.442 E5.56215
G1 X206.747 Y172.987 E5.61285
G1 X205.884 Y174.480 E5.66353
G1 X204.929 Y175.917 E5.71423
G1 X203.885 Y177.290 E5.76493
G1 X202.758 Y178.596 E5.81563
G1 X202.378 Y179.000 E5.83193
G1 X201.146 Y180.208 E5.88263
G1 X199.840 Y181.335 E5.93333
G1 X199.576 Y181.541 E5.94316
G1 X198.791 Y182.084 E5.97122
G1 X194.923 Y184.464 E6.10468
G1 X193.804 Y185.046 E6.14177
G1 X192.401 Y185.634 E6.18646
G1 X190.772 Y186.202 E6.23716
G1 X189.111 Y186.667 E6.28786
G1 X187.968 Y186.922 E6.32227
G1 X186.293 Y187.205 E6.37218
G1 X185.717 Y187.279 E6.38926
G1 X183.998 Y187.424 E6.43996
G1 X182.385 Y187.463 E6.48736
G1 X134.211 Y186.564 E7.90333
G1 X133.218 Y186.524 E7.93255
G1 X132.385 Y186.463 E7.95708
G1 X131.555 Y186.376 E7.98161
G1 X130.178 Y186.172 E8.02251
G1 X129.088 Y185.958 E8.05517
G1 X128.275 Y185.767 E8.07970
G1 X127.469 Y185.551 E8.10424
G1 X126.670 Y185.310 E8.12877
G1 X125.879 Y185.044 E8.15330
G1 X125.096 Y184.752 E8.17783
G1 X124.324 Y184.437 E8.20235
G1 X123.154 Y183.903 E8.24015
G1 X122.314 Y183.478 E8.26779
G1 X121.583 Y183.076 E8.29232
G1 X120.865 Y182.651 E8.31684
G1 X120.160 Y182.204 E8.34137
G1 X119.470 Y181.735 E8.36590
G1 X118.795 Y181.244 E8.39043
G1 X118.135 Y180.732 E8.41496
G1 X117.492 Y180.200 E8.43949
G1 X116.866 Y179.648 E8.46401
G1 X116.258 Y179.077 E8.48854
G1 X115.668 Y178.486 E8.51307
G1 X114.911 Y177.672 E8.54574
G1 X114.366 Y177.040 E8.57027
G1 X113.841 Y176.391 E8.59480
G1 X113.336 Y175.726 E8.61933
G1 X112.853 Y175.046 E8.64386
G1 X112.151 Y173.968 E8.68166
G1 X111.670 Y173.160 E8.70929
G1 X111.268 Y172.429 E8.73382
G1 X110.889 Y171.685 E8.75835
G1 X110.534 Y170.930 E8.78287
G1 X110.203 Y170.164 E8.80740
G1 X109.895 Y169.387 E8.83193
G1 X109.613 Y168.602 E8.85646
G1 X109.275 Y167.543 E8.88913
G1 X109.051 Y166.739 E8.91366
G1 X108.852 Y165.929 E8.93819
G1 X108.678 Y165.112 E8.96272
G1 X108.530 Y164.291 E8.98724
G1 X108.354 Y163.017 E9.02504
G1 X108.263 Y162.081 E9.05268
G1 X108.211 Y161.248 E9.07720
G1 X108.185 Y160.413 E9.10174
G1 X108.185 Y159.579 E9.12627
G1 X108.211 Y158.745 E9.15079
G1 X108.264 Y157.912 E9.17532
G1 X108.343 Y157.081 E9.19985
G1 X108.447 Y156.253 E9.22437
G1 X108.578 Y155.428 E9.24891
G1 X108.734 Y154.609 E9.27343
G1 X108.917 Y153.794 E9.29796
G1 X109.124 Y152.985 E9.32249
G1 X109.357 Y152.184 E9.34702
G1 X109.706 Y151.129 E9.37968
G1 X109.998 Y150.346 E9.40422
G1 X110.313 Y149.574 E9.42874
G1 X110.653 Y148.811 E9.45327
G1 X111.016 Y148.060 E9.47780
G1 X111.403 Y147.320 E9.50233
G1 X111.812 Y146.593 E9.52686
G1 X112.245 Y145.879 E9.55139
G1 X113.015 Y144.720 E9.59229
G1 X113.506 Y144.045 E9.61682
G1 X114.018 Y143.385 E9.64135
G1 X114.550 Y142.742 E9.66588
G1 X115.102 Y142.116 E9.69040
G1 X115.673 Y141.508 E9.71493
G1 X116.264 Y140.918 E9.73946
G1 X116.872 Y140.347 E9.76399
G1 X117.676 Y139.645 E9.79534
G1 X117.934 Y139.889 F2400.000
G1 F900
G1 X118.932 Y139.096 E9.83281
G1 X119.682 Y138.548 E9.86012
G1 X120.364 Y138.085 E9.88432
G1 X121.287 Y137.506 E9.91634
G1 X122.000 Y137.094 E9.94055
G1 X123.224 Y136.455 E9.98113
G1 X124.212 Y135.996 E10.01314
G1 X124.971 Y135.677 E10.03734
G1 X125.740 Y135.382 E10.06155
G1 X127.049 Y134.942 E10.10213
G1 X128.097 Y134.643 E10.13414
G1 X128.897 Y134.447 E10.15835
G1 X129.702 Y134.276 E10.18256
G1 X131.064 Y134.046 E10.22313
G1 X131.881 Y133.943 E10.24734
G1 X132.701 Y133.865 E10.27154
G1 X133.522 Y133.814 E10.29573
G1 X134.411 Y133.787 E10.32187
G1 X182.766 Y132.902 E11.74316
G1 X183.987 Y132.929 E11.77902
G1 X184.518 Y132.963 E11.79466
G1 X186.212 Y133.140 E11.84471
G1 X187.368 Y133.323 E11.87912
G1 X189.034 Y133.678 E11.92917
G1 X190.674 Y134.137 E11.97922
G1 X192.281 Y134.698 E12.02926
G1 X192.776 Y134.894 E12.04491
G1 X193.851 Y135.359 E12.07932
G1 X195.376 Y136.117 E12.12936
G1 X195.842 Y136.374 E12.14501
G1 X197.300 Y137.255 E12.19505
G1 X198.268 Y137.913 E12.22946
G1 X199.359 Y138.739 E12.26968
G1 X200.219 Y139.504 E12.30350
G1 X203.396 Y142.748 E12.43694
G1 X204.039 Y143.484 E12.46566
G1 X204.637 Y144.282 E12.49496
G1 X205.295 Y145.250 E12.52937
G1 X206.162 Y146.685 E12.57863
G1 X206.433 Y147.174 E12.59506
G1 X206.964 Y148.217 E12.62947
G1 X207.656 Y149.774 E12.67952
G1 X207.852 Y150.269 E12.69516
G1 X208.413 Y151.877 E12.74521
G1 X208.740 Y153.001 E12.77963
G1 X209.127 Y154.659 E12.82966
G1 X209.227 Y155.182 E12.84531
G1 X209.477 Y156.867 E12.89536
G1 X209.587 Y158.033 E12.92977
G1 X209.657 Y159.734 E12.97981
G1 X209.598 Y161.039 E13.01822
G1 X209.040 Y165.547 E13.15171
G1 X208.872 Y166.484 E13.17969
G1 X208.413 Y168.123 E13.22971
G1 X207.852 Y169.732 E13.27976
G1 X207.191 Y171.301 E13.32982
G1 X206.432 Y172.826 E13.37987
G1 X205.580 Y174.300 E13.42990
G1 X204.637 Y175.718 E13.47994
G1 X203.606 Y177.074 E13.52999
G1 X202.493 Y178.362 E13.58004
G1 X202.128 Y178.750 E13.59568
G1 X200.912 Y179.943 E13.64573
G1 X199.624 Y181.056 E13.69578
G1 X199.359 Y181.261 E13.70561
G1 X198.606 Y181.783 E13.73255
G1 X194.738 Y184.163 E13.86600
G1 X193.663 Y184.722 E13.90161
G1 X192.281 Y185.302 E13.94565
G1 X190.673 Y185.863 E13.99570
G1 X189.034 Y186.322 E14.04574
G1 X187.891 Y186.577 E14.08015
G1 X186.238 Y186.856 E14.12941
G1 X185.683 Y186.927 E14.14584
G1 X183.986 Y187.071 E14.19589
G1 X182.392 Y187.110 E14.24277
G1 X134.218 Y186.210 E15.65874
G1 X133.242 Y186.172 E15.68745
G1 X132.420 Y186.111 E15.71165
G1 X131.601 Y186.025 E15.73585
G1 X130.786 Y185.913 E15.76005
G1 X129.973 Y185.776 E15.78425
G1 X128.726 Y185.513 E15.82172
G1 X127.825 Y185.284 E15.84905
G1 X127.035 Y185.054 E15.87323
G1 X126.251 Y184.799 E15.89744
G1 X125.477 Y184.520 E15.92163
G1 X124.711 Y184.217 E15.94584
G1 X123.955 Y183.889 E15.97005
G1 X122.972 Y183.420 E16.00205
G1 X122.242 Y183.039 E16.02626
G1 X121.525 Y182.634 E16.05046
G1 X120.820 Y182.208 E16.07467
G1 X120.129 Y181.759 E16.09887
G1 X119.453 Y181.289 E16.12306
G1 X118.792 Y180.798 E16.14728
G1 X118.147 Y180.287 E16.17148
G1 X117.180 Y179.455 E16.20895
G1 X116.501 Y178.820 E16.23625
G1 X115.919 Y178.238 E16.26046
G1 X115.355 Y177.637 E16.28466
G1 X114.811 Y177.020 E16.30886
G1 X114.286 Y176.385 E16.33307
G1 X113.782 Y175.734 E16.35727
G1 X113.298 Y175.068 E16.38147
G1 X112.835 Y174.386 E16.40567
G1 X112.394 Y173.691 E16.42987
G1 X111.844 Y172.750 E16.46190
G1 X111.455 Y172.024 E16.48610
G1 X111.089 Y171.287 E16.51030
G1 X110.746 Y170.538 E16.53449
G1 X110.427 Y169.779 E16.55870
G1 X110.121 Y168.978 E16.58389
G1 X109.692 Y167.701 E16.62348
G1 X109.462 Y166.910 E16.64769
G1 X109.258 Y166.112 E16.67189
G1 X109.078 Y165.309 E16.69608
G1 X108.924 Y164.500 E16.72029
G1 X108.796 Y163.686 E16.74449
G1 X108.693 Y162.869 E16.76869
G1 X108.615 Y162.049 E16.79290
G1 X108.564 Y161.228 E16.81709
G1 X108.535 Y160.138 E16.84911
G1 X108.544 Y159.315 E16.87331
G1 X108.578 Y158.492 E16.89752
G1 X108.639 Y157.670 E16.92172
G1 X108.798 Y156.299 E16.96230
G1 X108.927 Y155.485 E16.98651
G1 X109.081 Y154.677 E17.01070
G1 X109.261 Y153.873 E17.03491
G1 X109.466 Y153.075 E17.05911
G1 X109.696 Y152.285 E17.08331
G1 X109.951 Y151.501 E17.10752
G1 X110.325 Y150.478 E17.13953
G1 X110.636 Y149.716 E17.16373
G1 X110.972 Y148.963 E17.18794
G1 X111.330 Y148.222 E17.21214
G1 X111.711 Y147.492 E17.23634
G1 X112.116 Y146.775 E17.26055
G1 X112.542 Y146.070 E17.28475
G1 X112.991 Y145.380 E17.30895
G1 X113.461 Y144.703 E17.33315
G1 X113.952 Y144.042 E17.35735
G1 X114.463 Y143.397 E17.38155
G1 X115.366 Y142.352 E17.42213
G1 X115.930 Y141.751 E17.44633
G1 X116.512 Y141.169 E17.47054
G1 X117.113 Y140.605 E17.49474
G1 X117.899 Y139.918 E17.52544
G1 X118.158 Y140.163 F2400.000
G1 F900
G1 X118.926 Y139.546 E17.55440
G1 X119.889 Y138.835 E17.58957
G1 X120.561 Y138.379 E17.61344
G1 X121.465 Y137.811 E17.64481
G1 X122.169 Y137.405 E17.66869
G1 X123.383 Y136.771 E17.70894
G1 X124.351 Y136.321 E17.74030
G1 X125.099 Y136.007 E17.76417
G1 X125.858 Y135.715 E17.78806
G1 X127.156 Y135.278 E17.82831
G1 X128.183 Y134.986 E17.85967
G1 X128.972 Y134.792 E17.88356
G1 X129.767 Y134.623 E17.90744
G1 X131.117 Y134.395 E17.94768
G1 X131.923 Y134.293 E17.97156
G1 X132.732 Y134.217 E17.99544
G1 X133.543 Y134.167 E18.01931
G1 X134.418 Y134.140 E18.04504
G1 X182.773 Y133.255 E19.46632
G1 X183.975 Y133.283 E19.50167
G1 X184.484 Y133.315 E19.51666
G1 X186.156 Y133.489 E19.56605
G1 X187.313 Y133.672 E19.60046
G1 X188.956 Y134.023 E19.64986
G1 X190.575 Y134.477 E19.69926
G1 X192.162 Y135.031 E19.74865
G1 X192.636 Y135.219 E19.76364
G1 X193.711 Y135.684 E19.79805
G1 X195.215 Y136.432 E19.84744
G1 X195.662 Y136.678 E19.86244
G1 X197.101 Y137.547 E19.91183
G1 X198.069 Y138.206 E19.94624
G1 X199.143 Y139.018 E19.98580
G1 X199.966 Y139.752 E20.01821
G1 X203.144 Y142.995 E20.15165
G1 X203.760 Y143.701 E20.17918
G1 X204.344 Y144.481 E20.20782
G1 X205.003 Y145.449 E20.24223
G1 X205.858 Y146.865 E20.29084
G1 X206.118 Y147.335 E20.30662
G1 X206.649 Y148.378 E20.34103
G1 X207.331 Y149.914 E20.39042
G1 X207.519 Y150.388 E20.40542
G1 X208.073 Y151.975 E20.45481
G1 X208.400 Y153.100 E20.48923
G1 X208.782 Y154.736 E20.53861
G1 X208.878 Y155.237 E20.55361
G1 X209.125 Y156.900 E20.60300
G1 X209.235 Y158.066 E20.63742
G1 X209.304 Y159.745 E20.68680
G1 X209.247 Y160.996 E20.72361
G1 X208.690 Y165.504 E20.85710
G1 X208.527 Y166.407 E20.88407
G1 X208.073 Y168.025 E20.93344
G1 X207.519 Y169.612 E20.98284
G1 X206.866 Y171.161 E21.03224
G1 X206.117 Y172.666 E21.08164
G1 X205.276 Y174.120 E21.13102
G1 X204.344 Y175.519 E21.18041
G1 X203.327 Y176.857 E21.22981
G1 X202.227 Y178.128 E21.27921
G1 X201.878 Y178.500 E21.29420
G1 X200.678 Y179.677 E21.34359
G1 X199.407 Y180.777 E21.39299
G1 X199.143 Y180.982 E21.40282
G1 X198.421 Y181.482 E21.42864
G1 X194.553 Y183.862 E21.56209
G1 X193.523 Y184.398 E21.59621
G1 X192.162 Y184.969 E21.63960
G1 X190.575 Y185.523 E21.68899
G1 X189.451 Y185.850 E21.72340
G1 X187.814 Y186.232 E21.77279
G1 X186.183 Y186.507 E21.82140
G1 X185.650 Y186.575 E21.83718
G1 X183.975 Y186.717 E21.88658
G1 X182.398 Y186.757 E21.93293
G1 X134.225 Y185.857 E23.34890
G1 X133.266 Y185.819 E23.37710
G1 X132.456 Y185.760 E23.40097
G1 X131.648 Y185.675 E23.42485
G1 X130.843 Y185.565 E23.44872
G1 X130.042 Y185.429 E23.47260
G1 X128.805 Y185.168 E23.50974
G1 X127.915 Y184.942 E23.53674
G1 X127.135 Y184.715 E23.56060
G1 X126.362 Y184.464 E23.58448
G1 X125.598 Y184.188 E23.60835
G1 X124.843 Y183.889 E23.63223
G1 X124.097 Y183.566 E23.65611
G1 X123.134 Y183.106 E23.68746
G1 X122.414 Y182.730 E23.71135
G1 X121.706 Y182.331 E23.73522
G1 X121.011 Y181.910 E23.75910
G1 X120.330 Y181.468 E23.78298
G1 X119.663 Y181.005 E23.80684
G1 X119.010 Y180.520 E23.83073
G1 X118.373 Y180.016 E23.85461
G1 X117.416 Y179.191 E23.89175
G1 X116.745 Y178.564 E23.91873
G1 X116.170 Y177.989 E23.94261
G1 X115.614 Y177.397 E23.96648
G1 X115.078 Y176.787 E23.99036
G1 X114.560 Y176.161 E24.01423
G1 X114.062 Y175.519 E24.03811
G1 X113.585 Y174.861 E24.06198
G1 X113.129 Y174.189 E24.08586
G1 X112.694 Y173.503 E24.10974
G1 X112.155 Y172.581 E24.14111
G1 X111.771 Y171.865 E24.16498
G1 X111.410 Y171.138 E24.18886
G1 X111.071 Y170.399 E24.21272
G1 X110.756 Y169.650 E24.23660
G1 X110.465 Y168.892 E24.26048
G1 X110.198 Y168.125 E24.28436
G1 X109.945 Y167.317 E24.30923
G1 X109.600 Y166.026 E24.34849
G1 X109.424 Y165.234 E24.37236
G1 X109.272 Y164.435 E24.39624
G1 X109.145 Y163.633 E24.42011
G1 X109.043 Y162.827 E24.44399
G1 X108.967 Y162.018 E24.46787
G1 X108.917 Y161.207 E24.49173
G1 X108.889 Y160.140 E24.52310
G1 X108.897 Y159.328 E24.54698
G1 X108.931 Y158.516 E24.57086
G1 X108.990 Y157.706 E24.59474
G1 X109.148 Y156.345 E24.63499
G1 X109.275 Y155.543 E24.65887
G1 X109.428 Y154.745 E24.68274
G1 X109.606 Y153.952 E24.70661
G1 X109.808 Y153.165 E24.73049
G1 X110.035 Y152.385 E24.75437
G1 X110.286 Y151.612 E24.77824
G1 X110.562 Y150.848 E24.80211
G1 X110.861 Y150.093 E24.82599
G1 X111.184 Y149.347 E24.84987
G1 X111.531 Y148.613 E24.87374
G1 X111.900 Y147.889 E24.89762
G1 X112.291 Y147.177 E24.92150
G1 X112.705 Y146.478 E24.94537
G1 X113.282 Y145.580 E24.97674
G1 X113.746 Y144.912 E25.00061
G1 X114.230 Y144.260 E25.02449
G1 X114.734 Y143.623 E25.04836
G1 X115.629 Y142.587 E25.08862
G1 X116.186 Y141.995 E25.11249
G1 X116.761 Y141.420 E25.13637
G1 X117.353 Y140.864 E25.16025
G1 X118.123 Y140.192 E25.19029
G1 X118.381 Y140.436 F2400.000
G1 F900
G1 X119.141 Y139.827 E25.21892
G1 X120.095 Y139.122 E25.25377
G1 X120.758 Y138.672 E25.27732
G1 X121.643 Y138.117 E25.30803
G1 X122.337 Y137.716 E25.33159
G1 X123.541 Y137.086 E25.37151
G1 X124.489 Y136.647 E25.40222
G1 X125.228 Y136.336 E25.42577
G1 X126.008 Y136.037 E25.45032
G1 X127.264 Y135.615 E25.48925
G1 X128.269 Y135.329 E25.51996
G1 X129.047 Y135.138 E25.54352
G1 X129.831 Y134.971 E25.56707
G1 X131.170 Y134.744 E25.60699
G1 X131.966 Y134.644 E25.63054
G1 X132.764 Y134.569 E25.65410
G1 X133.563 Y134.519 E25.67764
G1 X134.424 Y134.493 E25.70296
G1 X182.779 Y133.608 E27.12425
G1 X183.964 Y133.636 E27.15908
G1 X184.451 Y133.667 E27.17341
G1 X186.101 Y133.838 E27.22216
G1 X187.737 Y134.113 E27.27090
G1 X188.879 Y134.368 E27.30531
G1 X190.477 Y134.816 E27.35406
G1 X192.042 Y135.363 E27.40279
G1 X192.496 Y135.543 E27.41713
G1 X193.570 Y136.008 E27.45154
G1 X195.055 Y136.747 E27.50028
G1 X195.482 Y136.982 E27.51462
G1 X196.902 Y137.840 E27.56337
G1 X197.871 Y138.498 E27.59777
G1 X198.926 Y139.297 E27.63668
G1 X199.714 Y139.999 E27.66769
G1 X202.892 Y143.242 E27.80113
G1 X203.480 Y143.917 E27.82745
G1 X204.052 Y144.679 E27.85545
G1 X204.710 Y145.648 E27.88985
G1 X205.554 Y147.045 E27.93781
G1 X205.803 Y147.495 E27.95294
G1 X206.334 Y148.538 E27.98734
G1 X207.007 Y150.054 E28.03609
G1 X207.187 Y150.508 E28.05043
G1 X207.734 Y152.074 E28.09917
G1 X208.061 Y153.198 E28.13359
G1 X208.437 Y154.813 E28.18232
