; generated by Slic3r 1.3.0 on 2024-07-18 at 12:02:27

; external perimeters extrusion width = 0.33mm (1.15mm^3/s)
; perimeters extrusion width = 0.40mm (1.41mm^3/s)
; infill extrusion width = 0.38mm (1.99mm^3/s)
; solid infill extrusion width = 0.40mm (1.41mm^3/s)
; top infill extrusion width = 0.40mm (1.41mm^3/s)

M107
M190 S50 ; set bed temperature and wait for it to be reached
M104 S245 ; set temperature
G28 ; 
G1 Z5 F5000 ; 

; Filament gcode

M109 S245 ; set temperature and wait for it to be reached
G21 ; set units to millimeters
G90 ; use absolute coordinates
M82 ; use absolute distances for extrusion
G92 E0
G1 Z-0.050 F3600.000
G1 E-3.00000 F2400.00000
G92 E0
G1 X32.992 Y27.241 F3600.000
G1 E3.00000 F2400.00000
G1 F1200
G1 X-4.465 Y47.783 E4.25542
G1 X-6.094 Y48.594 E4.30891
G1 X-7.771 Y49.302 E4.36239
G1 X-9.489 Y49.902 E4.41588
G1 X-11.241 Y50.394 E4.46937
G1 X-13.021 Y50.775 E4.52285
G1 X-14.821 Y51.043 E4.57634
G1 X-16.634 Y51.198 E4.62982
G1 X-18.454 Y51.238 E4.68331
G1 X-20.272 Y51.164 E4.73680
G1 X-22.083 Y50.976 E4.79028
G1 X-23.877 Y50.675 E4.84376
G1 X-25.650 Y50.262 E4.89725
G1 X-27.393 Y49.738 E4.95074
G1 X-29.099 Y49.106 E5.00422
G1 X-30.282 Y48.594 E5.04207
G1 X-31.911 Y47.783 E5.09556
G1 X-33.486 Y46.871 E5.14904
G1 X-35.000 Y45.862 E5.20253
G1 X-36.449 Y44.759 E5.25602
G1 X-37.825 Y43.568 E5.30950
G1 X-39.032 Y42.384 E5.35920
G1 X-39.488 Y41.905 E5.37863
G1 X-40.340 Y40.939 E5.41648
G1 X-41.468 Y39.512 E5.46996
G1 X-42.433 Y38.122 E5.51966
G1 X-42.790 Y37.566 E5.53909
G1 X-43.446 Y36.458 E5.57694
G1 X-44.287 Y34.844 E5.63043
G1 X-45.025 Y33.180 E5.68391
G1 X-45.614 Y31.595 E5.73361
G1 X-45.822 Y30.967 E5.75304
G1 X-46.314 Y29.215 E5.80652
G1 X-46.594 Y27.958 E5.84437
G1 X-46.896 Y26.163 E5.89786
G1 X-46.962 Y25.635 E5.91350
G1 X-47.117 Y23.822 E5.96699
G1 X-48.270 Y-20.058 E7.25696
G1 X-48.228 Y-21.864 E7.31006
G1 X-48.070 Y-23.709 E7.36447
G1 X-47.797 Y-25.540 E7.41888
G1 X-47.438 Y-27.222 E7.46941
G1 X-47.277 Y-27.866 E7.48893
G1 X-46.745 Y-29.639 E7.54334
G1 X-46.298 Y-30.881 E7.58211
G1 X-45.578 Y-32.586 E7.63651
G1 X-44.752 Y-34.244 E7.69092
G1 X-43.891 Y-35.732 E7.74146
G1 X-43.539 Y-36.295 E7.76098
G1 X-42.797 Y-37.386 E7.79975
G1 X-41.676 Y-38.859 E7.85415
G1 X-40.464 Y-40.259 E7.90856
G1 X-40.100 Y-40.647 E7.92421
G1 X-38.779 Y-41.944 E7.97862
G1 X-37.379 Y-43.156 E8.03302
G1 X-36.337 Y-43.965 E8.07180
G1 X-35.906 Y-44.278 E8.08744
G1 X-34.365 Y-45.304 E8.14185
G1 X-32.763 Y-46.232 E8.19626
G1 X-31.588 Y-46.831 E8.23503
G1 X-31.106 Y-47.058 E8.25067
G1 X-29.400 Y-47.778 E8.30508
G1 X-28.159 Y-48.225 E8.34385
G1 X-26.386 Y-48.757 E8.39826
G1 X-25.742 Y-48.919 E8.41778
G1 X-24.060 Y-49.277 E8.46831
G1 X-22.229 Y-49.550 E8.52272
G1 X-20.915 Y-49.675 E8.56149
G1 X11.381 Y-51.210 E9.51169
G1 X12.763 Y-51.238 E9.55230
G1 X14.010 Y-51.182 E9.58899
G1 X15.251 Y-51.048 E9.62568
G1 X16.482 Y-50.836 E9.66236
G1 X17.181 Y-50.680 E9.68341
G1 X18.384 Y-50.348 E9.72010
G1 X19.564 Y-49.941 E9.75679
G1 X20.059 Y-49.745 E9.77243
G1 X21.262 Y-49.201 E9.81122
G1 X22.303 Y-48.652 E9.84580
G1 X22.919 Y-48.287 E9.86685
G1 X23.368 Y-48.002 E9.88249
G1 X24.391 Y-47.287 E9.91918
G1 X25.368 Y-46.508 E9.95587
G1 X25.905 Y-46.035 E9.97691
G1 X26.799 Y-45.164 E10.01360
G1 X27.164 Y-44.776 E10.02924
G1 X27.977 Y-43.829 E10.06593
G1 X28.416 Y-43.263 E10.08698
G1 X29.091 Y-42.299 E10.12156
G1 X29.781 Y-41.174 E10.16035
G1 X44.712 Y-12.633 E11.10693
G1 X45.351 Y-11.380 E11.14829
G1 X46.102 Y-9.687 E11.20270
G1 X46.298 Y-9.192 E11.21834
G1 X46.745 Y-7.951 E11.25711
G1 X47.277 Y-6.178 E11.31152
G1 X47.409 Y-5.662 E11.32717
G1 X47.797 Y-3.852 E11.38157
G1 X48.070 Y-2.021 E11.43598
G1 X48.194 Y-0.707 E11.47475
G1 X48.265 Y1.011 E11.52529
G1 X48.269 Y1.675 E11.54481
G1 X48.228 Y2.994 E11.58358
G1 X48.070 Y4.838 E11.63799
G1 X47.797 Y6.670 E11.69239
G1 X47.697 Y7.192 E11.70804
G1 X47.277 Y8.996 E11.76245
G1 X46.745 Y10.769 E11.81686
G1 X46.102 Y12.505 E11.87127
G1 X45.578 Y13.716 E11.91004
G1 X44.752 Y15.373 E11.96444
G1 X43.824 Y16.975 E12.01885
G1 X42.797 Y18.516 E12.07327
G1 X41.757 Y19.884 E12.12379
G1 X41.336 Y20.399 E12.14331
G1 X40.100 Y21.776 E12.19772
G1 X39.167 Y22.709 E12.23649
G1 X37.789 Y23.946 E12.29090
G1 X36.337 Y25.094 E12.34531
G1 X34.815 Y26.148 E12.39972
G1 X34.365 Y26.434 E12.41536
G1 X33.031 Y27.219 E12.46086
G1 X32.822 Y26.931 F3600.000
G1 F1200
G1 X-4.625 Y47.468 E13.71597
G1 X-6.234 Y48.270 E13.76880
G1 X-7.890 Y48.969 E13.82164
G1 X-9.587 Y49.563 E13.87447
G1 X-11.318 Y50.049 E13.92731
G1 X-13.076 Y50.426 E13.98013
G1 X-14.854 Y50.691 E14.03297
G1 X-16.645 Y50.844 E14.08581
G1 X-18.443 Y50.885 E14.13864
G1 X-20.239 Y50.812 E14.19147
G1 X-22.027 Y50.627 E14.24431
G1 X-23.800 Y50.330 E14.29714
G1 X-25.551 Y49.922 E14.34997
G1 X-27.273 Y49.405 E14.40281
G1 X-28.959 Y48.781 E14.45564
G1 X-30.141 Y48.270 E14.49349
G1 X-31.750 Y47.468 E14.54632
G1 X-33.306 Y46.567 E14.59915
G1 X-34.802 Y45.569 E14.65199
G1 X-36.232 Y44.480 E14.70482
G1 X-37.591 Y43.303 E14.75765
G1 X-37.963 Y42.954 E14.77265
G1 X-39.223 Y41.672 E14.82548
G1 X-40.075 Y40.706 E14.86333
G1 X-41.189 Y39.295 E14.91616
G1 X-42.213 Y37.817 E14.96899
G1 X-43.076 Y36.389 E15.01804
G1 X-43.387 Y35.831 E15.03682
G1 X-44.189 Y34.222 E15.08965
G1 X-44.889 Y32.565 E15.14249
G1 X-45.325 Y31.354 E15.18033
G1 X-45.842 Y29.632 E15.23317
G1 X-46.221 Y28.007 E15.28221
G1 X-46.345 Y27.380 E15.30099
G1 X-46.611 Y25.602 E15.35382
G1 X-46.732 Y24.320 E15.39167
G1 X-46.804 Y22.523 E15.44451
G1 X-47.917 Y-20.068 E16.69658
G1 X-47.874 Y-21.853 E16.74907
G1 X-47.718 Y-23.676 E16.80283
G1 X-47.448 Y-25.485 E16.85659
G1 X-47.352 Y-25.986 E16.87158
G1 X-46.938 Y-27.768 E16.92534
G1 X-46.412 Y-29.520 E16.97909
G1 X-45.965 Y-30.761 E17.01786
G1 X-45.253 Y-32.446 E17.07162
G1 X-44.437 Y-34.083 E17.12538
G1 X-43.587 Y-35.552 E17.17525
G1 X-43.247 Y-36.096 E17.19412
G1 X-42.505 Y-37.188 E17.23289
G1 X-41.397 Y-38.643 E17.28665
G1 X-40.199 Y-40.025 E17.34041
G1 X-39.850 Y-40.397 E17.35540
G1 X-38.545 Y-41.679 E17.40915
G1 X-37.162 Y-42.877 E17.46291
G1 X-36.120 Y-43.686 E17.50168
G1 X-35.707 Y-43.985 E17.51667
G1 X-34.185 Y-45.000 E17.57043
G1 X-32.603 Y-45.918 E17.62419
G1 X-31.427 Y-46.517 E17.66296
G1 X-30.966 Y-46.734 E17.67795
G1 X-29.281 Y-47.445 E17.73170
G1 X-28.039 Y-47.892 E17.77047
G1 X-26.287 Y-48.418 E17.82423
G1 X-25.665 Y-48.574 E17.84310
G1 X-24.005 Y-48.928 E17.89298
G1 X-22.196 Y-49.199 E17.94673
G1 X-20.882 Y-49.323 E17.98550
G1 X11.398 Y-50.857 E18.93521
G1 X12.752 Y-50.885 E18.97501
G1 X13.977 Y-50.830 E19.01105
G1 X15.196 Y-50.699 E19.04708
G1 X16.404 Y-50.491 E19.08311
G1 X17.104 Y-50.335 E19.10417
G1 X18.285 Y-50.008 E19.14020
G1 X19.444 Y-49.608 E19.17623
G1 X19.919 Y-49.420 E19.19123
G1 X21.101 Y-48.886 E19.22936
G1 X22.123 Y-48.348 E19.26329
G1 X22.739 Y-47.983 E19.28434
G1 X23.170 Y-47.710 E19.29933
G1 X24.175 Y-47.007 E19.33536
G1 X25.134 Y-46.243 E19.37140
G1 X25.671 Y-45.770 E19.39245
G1 X26.549 Y-44.914 E19.42848
G1 X26.899 Y-44.542 E19.44347
G1 X27.697 Y-43.612 E19.47951
G1 X28.136 Y-43.046 E19.50055
G1 X28.798 Y-42.100 E19.53448
G1 X29.477 Y-40.994 E19.57262
G1 X44.399 Y-12.470 E20.51866
G1 X45.036 Y-11.219 E20.55991
G1 X45.777 Y-9.547 E20.61366
G1 X45.965 Y-9.072 E20.62866
G1 X46.412 Y-7.831 E20.66743
G1 X46.938 Y-6.079 E20.72118
G1 X47.065 Y-5.585 E20.73617
G1 X47.448 Y-3.796 E20.78993
G1 X47.718 Y-1.987 E20.84369
G1 X47.874 Y-0.165 E20.89744
G1 X47.916 Y1.664 E20.95120
G1 X47.874 Y2.983 E20.98997
G1 X47.731 Y4.674 E21.03985
G1 X47.654 Y5.311 E21.05872
G1 X47.448 Y6.614 E21.09749
G1 X47.065 Y8.403 E21.15125
G1 X46.606 Y10.037 E21.20112
G1 X46.412 Y10.649 E21.21999
G1 X45.777 Y12.365 E21.27375
G1 X45.253 Y13.575 E21.31252
G1 X44.437 Y15.212 E21.36627
G1 X43.520 Y16.795 E21.42003
G1 X42.505 Y18.317 E21.47379
G1 X41.477 Y19.668 E21.52367
G1 X41.071 Y20.165 E21.54254
G1 X39.850 Y21.526 E21.59629
G1 X38.917 Y22.459 E21.63506
G1 X37.555 Y23.681 E21.68882
G1 X36.120 Y24.815 E21.74258
G1 X34.616 Y25.856 E21.79633
G1 X34.185 Y26.129 E21.81132
G1 X32.861 Y26.909 E21.85649
G1 X32.652 Y26.621 F3600.000
G1 F1200
G1 X-4.785 Y47.153 E23.11128
G1 X-6.374 Y47.945 E23.16346
G1 X-8.010 Y48.637 E23.21564
G1 X-9.686 Y49.224 E23.26782
G1 X-11.395 Y49.704 E23.32000
G1 X-13.131 Y50.077 E23.37218
G1 X-14.887 Y50.339 E23.42436
G1 X-16.656 Y50.491 E23.47655
G1 X-18.432 Y50.531 E23.52873
G1 X-20.206 Y50.460 E23.58091
G1 X-21.972 Y50.278 E23.63309
G1 X-23.723 Y49.985 E23.68527
G1 X-25.453 Y49.583 E23.73745
G1 X-27.153 Y49.073 E23.78963
G1 X-28.819 Y48.457 E23.84181
G1 X-30.001 Y47.945 E23.87966
G1 X-31.590 Y47.153 E23.93184
G1 X-33.126 Y46.262 E23.98402
G1 X-34.603 Y45.277 E24.03621
G1 X-36.015 Y44.201 E24.08839
G1 X-37.357 Y43.038 E24.14057
G1 X-37.713 Y42.704 E24.15491
G1 X-38.958 Y41.438 E24.20709
G1 X-39.809 Y40.472 E24.24494
G1 X-40.910 Y39.078 E24.29712
G1 X-41.920 Y37.618 E24.34930
G1 X-42.772 Y36.209 E24.39769
G1 X-43.072 Y35.670 E24.41582
G1 X-43.865 Y34.081 E24.46800
G1 X-44.376 Y32.899 E24.50584
G1 X-44.992 Y31.234 E24.55803
G1 X-45.502 Y29.533 E24.61021
G1 X-45.877 Y27.930 E24.65860
G1 X-45.996 Y27.325 E24.67673
G1 X-46.259 Y25.568 E24.72891
G1 X-46.380 Y24.286 E24.76676
G1 X-46.451 Y22.512 E24.81894
G1 X-47.564 Y-20.077 E26.07096
G1 X-47.521 Y-21.842 E26.12285
G1 X-47.366 Y-23.643 E26.17596
G1 X-47.099 Y-25.430 E26.22906
G1 X-46.748 Y-27.068 E26.27829
G1 X-46.598 Y-27.669 E26.29650
G1 X-46.079 Y-29.400 E26.34961
G1 X-45.633 Y-30.641 E26.38838
G1 X-44.929 Y-32.306 E26.44148
G1 X-44.122 Y-33.923 E26.49459
G1 X-43.283 Y-35.372 E26.54381
G1 X-42.954 Y-35.898 E26.56203
G1 X-42.213 Y-36.989 E26.60080
G1 X-41.117 Y-38.426 E26.65390
G1 X-39.934 Y-39.792 E26.70701
G1 X-39.600 Y-40.147 E26.72135
G1 X-38.311 Y-41.414 E26.77445
G1 X-37.322 Y-42.287 E26.81322
G1 X-35.903 Y-43.406 E26.86633
G1 X-35.509 Y-43.693 E26.88067
G1 X-34.005 Y-44.696 E26.93377
G1 X-32.442 Y-45.603 E26.98687
G1 X-31.267 Y-46.202 E27.02564
G1 X-30.825 Y-46.409 E27.03998
G1 X-29.161 Y-47.113 E27.09309
G1 X-27.920 Y-47.560 E27.13186
G1 X-26.189 Y-48.079 E27.18496
G1 X-25.587 Y-48.229 E27.20318
G1 X-23.949 Y-48.579 E27.25240
G1 X-22.162 Y-48.847 E27.30551
G1 X-20.849 Y-48.971 E27.34428
G1 X11.415 Y-50.504 E28.29350
G1 X12.741 Y-50.531 E28.33248
G1 X13.944 Y-50.478 E28.36787
G1 X15.141 Y-50.350 E28.40325
G1 X16.327 Y-50.146 E28.43863
G1 X17.026 Y-49.990 E28.45968
G1 X17.568 Y-49.849 E28.47612
G1 X18.651 Y-49.518 E28.50940
G1 X19.778 Y-49.096 E28.54478
G1 X20.941 Y-48.571 E28.58226
G1 X21.943 Y-48.044 E28.61554
G1 X22.559 Y-47.679 E28.63659
G1 X22.971 Y-47.418 E28.65093
G1 X23.958 Y-46.728 E28.68631
G1 X24.900 Y-45.978 E28.72169
G1 X25.437 Y-45.505 E28.74274
G1 X26.299 Y-44.664 E28.77812
G1 X26.633 Y-44.309 E28.79246
G1 X27.418 Y-43.395 E28.82784
G1 X27.857 Y-42.829 E28.84889
G1 X28.506 Y-41.902 E28.88216
G1 X29.172 Y-40.814 E28.91965
G1 X44.085 Y-12.306 E29.86514
G1 X44.721 Y-11.059 E29.90629
G1 X45.453 Y-9.406 E29.95939
G1 X45.633 Y-8.953 E29.97373
G1 X46.079 Y-7.711 E30.01250
G1 X46.598 Y-5.981 E30.06560
G1 X47.007 Y-4.220 E30.11871
G1 X47.285 Y-2.568 E30.16794
G1 X47.366 Y-1.954 E30.18615
G1 X47.491 Y-0.641 E30.22492
G1 X47.558 Y1.033 E30.27415
G1 X47.563 Y1.653 E30.29236
G1 X47.521 Y2.971 E30.33113
G1 X47.366 Y4.772 E30.38424
G1 X47.305 Y5.256 E30.39858
G1 X47.007 Y7.038 E30.45168
G1 X46.598 Y8.798 E30.50478
G1 X46.079 Y10.529 E30.55789
G1 X45.453 Y12.224 E30.61099
G1 X44.929 Y13.435 E30.64977
G1 X44.122 Y15.052 E30.70287
G1 X43.216 Y16.615 E30.75597
G1 X42.213 Y18.118 E30.80908
G1 X41.117 Y19.555 E30.86218
G1 X40.806 Y19.931 E30.87652
G1 X39.600 Y21.277 E30.92962
G1 X38.667 Y22.209 E30.96839
G1 X37.322 Y23.416 E31.02150
G1 X35.903 Y24.536 E31.07460
G1 X34.417 Y25.564 E31.12771
G1 X32.691 Y26.599 E31.18687
G1 X32.482 Y26.311 F3600.000
G1 F1200
G1 X-4.946 Y46.838 E32.44134
G1 X-6.515 Y47.621 E32.49287
G1 X-8.130 Y48.304 E32.54440
G1 X-9.784 Y48.884 E32.59593
G1 X-11.472 Y49.359 E32.64746
G1 X-13.186 Y49.727 E32.69898
G1 X-14.921 Y49.987 E32.75051
G1 X-16.668 Y50.138 E32.80204
G1 X-18.420 Y50.178 E32.85357
G1 X-20.173 Y50.109 E32.90510
G1 X-21.917 Y49.929 E32.95663
G1 X-23.646 Y49.640 E33.00816
G1 X-25.354 Y49.244 E33.05968
G1 X-27.034 Y48.740 E33.11122
G1 X-28.678 Y48.133 E33.16274
G1 X-29.860 Y47.621 E33.20059
G1 X-31.429 Y46.838 E33.25212
G1 X-32.946 Y45.958 E33.30365
G1 X-34.404 Y44.985 E33.35518
G1 X-35.799 Y43.922 E33.40671
G1 X-37.124 Y42.773 E33.45824
G1 X-37.463 Y42.454 E33.47192
G1 X-38.693 Y41.204 E33.52345
G1 X-39.544 Y40.238 E33.56130
G1 X-40.630 Y38.862 E33.61283
G1 X-41.628 Y37.420 E33.66436
G1 X-42.468 Y36.029 E33.71210
G1 X-42.758 Y35.510 E33.72957
G1 X-43.541 Y33.941 E33.78110
G1 X-44.052 Y32.759 E33.81895
G1 X-44.660 Y31.114 E33.87048
G1 X-45.163 Y29.435 E33.92201
G1 X-45.532 Y27.852 E33.96975
G1 X-45.647 Y27.269 E33.98722
G1 X-45.907 Y25.535 E34.03875
G1 X-46.028 Y24.253 E34.07660
G1 X-46.098 Y22.501 E34.12813
G1 X-47.210 Y-20.086 E35.38009
G1 X-47.168 Y-21.831 E35.43139
G1 X-47.015 Y-23.609 E35.48384
G1 X-46.750 Y-25.374 E35.53630
G1 X-46.403 Y-26.991 E35.58487
G1 X-46.259 Y-27.570 E35.60243
G1 X-45.747 Y-29.280 E35.65488
G1 X-45.300 Y-30.522 E35.69366
G1 X-44.605 Y-32.165 E35.74611
G1 X-43.807 Y-33.762 E35.79856
G1 X-42.979 Y-35.192 E35.84713
G1 X-42.662 Y-35.699 E35.86469
G1 X-41.920 Y-36.790 E35.90346
G1 X-40.838 Y-38.209 E35.95592
G1 X-39.669 Y-39.558 E36.00837
G1 X-39.350 Y-39.897 E36.02206
G1 X-38.078 Y-41.149 E36.07451
G1 X-36.729 Y-42.318 E36.12696
G1 X-35.687 Y-43.127 E36.16573
G1 X-35.310 Y-43.401 E36.17942
G1 X-33.826 Y-44.392 E36.23187
G1 X-32.690 Y-45.063 E36.27064
G1 X-31.106 Y-45.887 E36.32309
G1 X-30.685 Y-46.085 E36.33678
G1 X-29.041 Y-46.780 E36.38923
G1 X-27.800 Y-47.227 E36.42800
G1 X-26.090 Y-47.739 E36.48045
G1 X-25.510 Y-47.884 E36.49801
G1 X-23.894 Y-48.230 E36.54659
G1 X-22.129 Y-48.495 E36.59904
G1 X-20.816 Y-48.619 E36.63781
G1 X11.431 Y-50.151 E37.58654
G1 X12.730 Y-50.178 E37.62471
G1 X13.910 Y-50.126 E37.65944
G1 X15.086 Y-50.001 E37.69417
G1 X16.250 Y-49.801 E37.72890
G1 X16.949 Y-49.645 E37.74995
G1 X18.088 Y-49.330 E37.78468
G1 X18.531 Y-49.186 E37.79836
G1 X19.638 Y-48.772 E37.83309
G1 X20.780 Y-48.256 E37.86992
G1 X21.763 Y-47.739 E37.90255
G1 X22.379 Y-47.375 E37.92360
G1 X22.773 Y-47.125 E37.93728
G1 X23.742 Y-46.449 E37.97201
G1 X24.666 Y-45.713 E38.00674
G1 X25.204 Y-45.240 E38.02779
G1 X26.049 Y-44.414 E38.06252
G1 X26.368 Y-44.075 E38.07621
G1 X27.139 Y-43.179 E38.11094
G1 X27.578 Y-42.613 E38.13198
G1 X28.214 Y-41.703 E38.16461
G1 X28.868 Y-40.634 E38.20144
G1 X43.772 Y-12.142 E39.14639
G1 X44.406 Y-10.898 E39.18742
G1 X45.129 Y-9.266 E39.23987
G1 X45.300 Y-8.833 E39.25356
G1 X45.747 Y-7.592 E39.29233
G1 X46.259 Y-5.882 E39.34478
G1 X46.375 Y-5.431 E39.35847
G1 X46.750 Y-3.686 E39.41092
G1 X47.015 Y-1.921 E39.46337
G1 X47.168 Y-0.143 E39.51583
G1 X47.209 Y1.642 E39.56828
G1 X47.168 Y2.960 E39.60705
G1 X47.027 Y4.607 E39.65562
G1 X46.956 Y5.201 E39.67318
G1 X46.750 Y6.504 E39.71195
G1 X46.375 Y8.249 E39.76441
G1 X45.928 Y9.840 E39.81298
G1 X45.747 Y10.410 E39.83054
G1 X45.129 Y12.084 E39.88300
G1 X44.605 Y13.295 E39.92177
G1 X43.807 Y14.891 E39.97422
G1 X42.911 Y16.435 E40.02667
G1 X41.920 Y17.920 E40.07913
G1 X40.919 Y19.234 E40.12770
G1 X40.541 Y19.698 E40.14526
G1 X39.350 Y21.027 E40.19771
G1 X38.417 Y21.960 E40.23648
G1 X37.088 Y23.151 E40.28893
G1 X35.687 Y24.256 E40.34139
G1 X34.219 Y25.272 E40.39384
G1 X32.521 Y26.289 E40.45201
G1 X32.312 Y26.001 F3600.000
G1 F1200
G1 X-5.106 Y46.523 E41.70617
G1 X-6.655 Y47.297 E41.75704
G1 X-8.249 Y47.971 E41.80792
G1 X-9.883 Y48.545 E41.85880
G1 X-11.549 Y49.014 E41.90967
G1 X-13.242 Y49.378 E41.96055
G1 X-14.954 Y49.635 E42.01143
G1 X-16.679 Y49.785 E42.06230
G1 X-18.409 Y49.825 E42.11318
G1 X-20.139 Y49.757 E42.16406
G1 X-21.861 Y49.580 E42.21493
G1 X-23.569 Y49.295 E42.26581
G1 X-25.255 Y48.904 E42.31668
G1 X-26.914 Y48.408 E42.36756
G1 X-28.538 Y47.808 E42.41844
G1 X-29.720 Y47.297 E42.45629
G1 X-31.269 Y46.523 E42.50716
G1 X-32.766 Y45.654 E42.55804
G1 X-34.206 Y44.692 E42.60892
G1 X-35.582 Y43.642 E42.65979
G1 X-36.890 Y42.508 E42.71067
