; generated by Slic3r 1.3.0 on 2024-07-19 at 14:16:39

; external perimeters extrusion width = 0.33mm (1.15mm^3/s)
; perimeters extrusion width = 0.40mm (2.12mm^3/s)
; infill extrusion width = 0.38mm (1.99mm^3/s)
; solid infill extrusion width = 0.40mm (1.77mm^3/s)
; top infill extrusion width = 0.40mm (1.77mm^3/s)

M107
M190 S60 ; set bed temperature and wait for it to be reached
M104 S235 ; set temperature
G28 ; 
G1 Z5 F5000 ; 

; Filament gcode

M109 S235 ; set temperature and wait for it to be reached
G21 ; set units to millimeters
G90 ; use absolute coordinates
M82 ; use absolute distances for extrusion
G92 E0
G1 Z0.200 F2100.000
G1 X140.013 Y140.992 F2100.000
G1 F900
G1 X140.992 Y140.013 E0.04071
G1 X142.285 Y138.859 E0.09163
G1 X143.929 Y137.584 E0.15276
G1 X145.074 Y136.805 E0.19347
G1 X146.560 Y135.914 E0.24439
G1 X148.099 Y135.117 E0.29532
G1 X149.550 Y134.478 E0.34192
G1 X150.008 Y134.291 E0.35645
G1 X151.642 Y133.715 E0.40737
G1 X152.972 Y133.328 E0.44808
G1 X154.661 Y132.940 E0.49900
G1 X156.716 Y132.614 E0.56014
G1 X158.095 Y132.484 E0.60086
G1 X159.826 Y132.418 E0.65178
G1 X161.559 Y132.462 E0.70269
G1 X163.284 Y132.614 E0.75361
G1 X165.339 Y132.940 E0.81474
G1 X166.691 Y133.242 E0.85546
G1 X168.358 Y133.715 E0.90638
G1 X170.315 Y134.419 E0.96750
G1 X171.587 Y134.970 E1.00822
G1 X173.135 Y135.746 E1.05914
G1 X174.926 Y136.805 E1.12027
G1 X176.072 Y137.584 E1.16098
G1 X177.447 Y138.637 E1.21190
G1 X179.008 Y140.013 E1.27303
G1 X179.987 Y140.993 E1.31374
G1 X181.141 Y142.285 E1.36466
G1 X182.416 Y143.929 E1.42579
G1 X183.195 Y145.074 E1.46651
G1 X184.087 Y146.561 E1.51745
G1 X184.883 Y148.099 E1.56835
G1 X185.465 Y149.417 E1.61068
G1 X185.709 Y150.008 E1.62948
G1 X186.285 Y151.642 E1.68040
G1 X186.758 Y153.309 E1.73133
G1 X187.060 Y154.661 E1.77204
G1 X187.386 Y156.716 E1.83317
G1 X187.538 Y158.442 E1.88409
G1 X187.582 Y159.827 E1.92482
G1 X187.538 Y161.559 E1.97572
G1 X187.388 Y163.259 E2.02589
G1 X187.060 Y165.339 E2.08777
G1 X186.758 Y166.692 E2.12851
G1 X186.285 Y168.358 E2.17941
G1 X185.581 Y170.315 E2.24053
G1 X185.031 Y171.586 E2.28125
G1 X184.254 Y173.135 E2.33216
G1 X183.195 Y174.926 E2.39330
G1 X182.416 Y176.072 E2.43402
G1 X181.363 Y177.447 E2.48494
G1 X179.987 Y179.008 E2.54606
G1 X179.007 Y179.987 E2.58677
G1 X177.715 Y181.141 E2.63771
G1 X176.071 Y182.416 E2.69882
G1 X174.925 Y183.195 E2.73954
G1 X173.439 Y184.087 E2.79049
G1 X171.901 Y184.883 E2.84139
G1 X170.450 Y185.522 E2.88798
G1 X169.992 Y185.709 E2.90251
G1 X168.358 Y186.285 E2.95343
G1 X167.028 Y186.672 E2.99414
G1 X165.339 Y187.060 E3.04506
G1 X163.284 Y187.386 E3.10620
G1 X161.905 Y187.516 E3.14691
G1 X160.174 Y187.582 E3.19783
G1 X158.095 Y187.516 E3.25896
G1 X156.716 Y187.386 E3.29967
G1 X155.002 Y187.126 E3.35059
G1 X152.972 Y186.672 E3.41172
G1 X151.642 Y186.285 E3.45243
G1 X150.008 Y185.709 E3.50335
G1 X148.099 Y184.883 E3.56449
G1 X146.560 Y184.086 E3.61541
G1 X145.368 Y183.381 E3.65612
G1 X143.928 Y182.416 E3.70704
G1 X142.669 Y181.453 E3.75364
G1 X142.285 Y181.141 E3.76817
G1 X140.992 Y179.987 E3.81910
G1 X140.013 Y179.007 E3.85982
G1 X138.859 Y177.715 E3.91073
G1 X137.584 Y176.071 E3.97186
G1 X136.805 Y174.926 E4.01257
G1 X135.914 Y173.440 E4.06349
G1 X135.117 Y171.901 E4.11441
G1 X134.429 Y170.339 E4.16458
G1 X133.715 Y168.358 E4.22646
G1 X133.328 Y167.028 E4.26717
G1 X132.940 Y165.339 E4.31810
G1 X132.614 Y163.284 E4.37923
G1 X132.462 Y161.558 E4.43015
G1 X132.418 Y160.173 E4.47087
G1 X132.484 Y158.095 E4.53199
G1 X132.614 Y156.715 E4.57271
G1 X132.874 Y155.002 E4.62362
G1 X133.328 Y152.972 E4.68475
G1 X133.822 Y151.311 E4.73567
G1 X134.291 Y150.008 E4.77639
G1 X135.117 Y148.099 E4.83752
G1 X135.746 Y146.865 E4.87823
G1 X136.619 Y145.368 E4.92915
G1 X137.788 Y143.647 E4.99028
G1 X138.859 Y142.285 E5.04120
G1 X139.982 Y141.025 E5.09080
G1 X140.263 Y141.242 F2100.000
G1 F900
G1 X141.242 Y140.263 E5.13151
G1 X142.519 Y139.124 E5.18178
G1 X143.864 Y138.067 E5.23205
G1 X144.419 Y137.678 E5.25198
G1 X145.548 Y136.923 E5.29188
G1 X147.025 Y136.061 E5.34215
G1 X148.260 Y135.432 E5.38286
G1 X149.825 Y134.744 E5.43313
G1 X151.741 Y134.054 E5.49295
G1 X153.386 Y133.587 E5.54322
G1 X154.738 Y133.284 E5.58393
G1 X156.749 Y132.966 E5.64376
G1 X158.128 Y132.836 E5.68448
G1 X159.838 Y132.772 E5.73475
G1 X161.547 Y132.815 E5.78501
G1 X163.251 Y132.966 E5.83528
G1 X165.262 Y133.284 E5.89511
G1 X166.614 Y133.587 E5.93582
G1 X168.259 Y134.054 E5.98609
G1 X170.175 Y134.744 E6.04591
G1 X171.446 Y135.294 E6.08663
G1 X172.975 Y136.061 E6.13689
G1 X174.727 Y137.098 E6.19672
G1 X175.873 Y137.876 E6.23743
G1 X177.231 Y138.917 E6.28770
G1 X178.758 Y140.263 E6.34752
G1 X179.737 Y141.242 E6.38824
G1 X180.876 Y142.519 E6.43850
G1 X182.124 Y144.127 E6.49833
G1 X182.903 Y145.273 E6.53905
G1 X183.782 Y146.741 E6.58933
G1 X184.568 Y148.260 E6.63958
G1 X185.140 Y149.557 E6.68126
G1 X185.376 Y150.128 E6.69941
G1 X185.946 Y151.741 E6.74968
G1 X186.413 Y153.386 E6.79995
G1 X186.716 Y154.738 E6.84066
G1 X187.034 Y156.749 E6.90049
G1 X187.185 Y158.453 E6.95075
G1 X187.228 Y159.838 E6.99148
G1 X187.185 Y161.547 E7.04174
G1 X187.036 Y163.226 E7.09125
G1 X186.716 Y165.262 E7.15183
G1 X186.413 Y166.615 E7.19256
G1 X185.946 Y168.259 E7.24281
G1 X185.256 Y170.175 E7.30264
G1 X184.706 Y171.446 E7.34335
G1 X183.939 Y172.975 E7.39361
G1 X182.902 Y174.727 E7.45344
G1 X182.123 Y175.873 E7.49417
G1 X181.083 Y177.231 E7.54443
G1 X179.737 Y178.758 E7.60425
G1 X178.758 Y179.737 E7.64496
G1 X177.481 Y180.876 E7.69524
G1 X175.873 Y182.124 E7.75505
G1 X174.727 Y182.903 E7.79577
G1 X173.259 Y183.782 E7.84606
G1 X171.740 Y184.568 E7.89631
G1 X170.310 Y185.198 E7.94225
G1 X169.872 Y185.376 E7.95613
G1 X168.259 Y185.946 E8.00640
G1 X166.929 Y186.332 E8.04711
G1 X165.262 Y186.716 E8.09738
G1 X163.251 Y187.034 E8.15721
G1 X161.547 Y187.185 E8.20748
G1 X160.163 Y187.228 E8.24819
G1 X158.128 Y187.164 E8.30802
G1 X156.426 Y186.993 E8.35829
G1 X155.058 Y186.777 E8.39899
G1 X153.071 Y186.332 E8.45882
G1 X151.741 Y185.946 E8.49953
G1 X150.128 Y185.376 E8.54980
G1 X148.260 Y184.568 E8.60963
G1 X147.025 Y183.939 E8.65034
G1 X145.548 Y183.077 E8.70061
G1 X144.127 Y182.124 E8.75088
G1 X143.103 Y181.342 E8.78875
G1 X142.519 Y180.876 E8.81071
G1 X141.242 Y179.737 E8.86098
G1 X140.263 Y178.757 E8.90170
G1 X139.124 Y177.481 E8.95195
G1 X137.876 Y175.873 E9.01178
G1 X137.097 Y174.727 E9.05250
G1 X136.218 Y173.260 E9.10276
G1 X135.432 Y171.740 E9.15303
G1 X134.754 Y170.198 E9.20255
G1 X134.054 Y168.259 E9.26313
G1 X133.668 Y166.929 E9.30384
G1 X133.284 Y165.262 E9.35411
G1 X132.966 Y163.251 E9.41393
G1 X132.815 Y161.547 E9.46420
G1 X132.772 Y160.162 E9.50493
G1 X132.836 Y158.128 E9.56474
G1 X132.966 Y156.748 E9.60546
G1 X133.223 Y155.058 E9.65572
G1 X133.668 Y153.071 E9.71554
G1 X134.054 Y151.741 E9.75625
G1 X134.624 Y150.128 E9.80653
G1 X135.432 Y148.260 E9.86635
G1 X136.061 Y147.025 E9.90707
G1 X136.923 Y145.548 E9.95733
G1 X138.067 Y143.864 E10.01716
G1 X139.124 Y142.519 E10.06743
G1 X140.232 Y141.275 E10.11637
G1 X140.513 Y141.492 F2100.000
G1 F900
G1 X141.492 Y140.513 E10.15708
G1 X142.752 Y139.389 E10.20670
G1 X144.326 Y138.169 E10.26522
G1 X145.472 Y137.390 E10.30593
G1 X146.920 Y136.522 E10.35555
G1 X148.420 Y135.747 E10.40517
G1 X149.831 Y135.126 E10.45046
G1 X150.248 Y134.956 E10.46369
G1 X151.839 Y134.393 E10.51331
G1 X153.170 Y134.007 E10.55402
G1 X154.815 Y133.629 E10.60364
G1 X156.782 Y133.318 E10.66216
G1 X158.162 Y133.187 E10.70288
G1 X159.849 Y133.125 E10.75249
G1 X161.536 Y133.168 E10.80211
G1 X163.218 Y133.318 E10.85172
G1 X165.185 Y133.629 E10.91024
G1 X166.537 Y133.932 E10.95096
G1 X168.161 Y134.394 E11.00058
G1 X170.034 Y135.068 E11.05909
G1 X171.306 Y135.618 E11.09981
G1 X172.814 Y136.376 E11.14942
G1 X174.528 Y137.390 E11.20794
G1 X175.674 Y138.169 E11.24866
G1 X177.014 Y139.196 E11.29827
G1 X178.508 Y140.513 E11.35679
G1 X179.487 Y141.492 E11.39751
G1 X180.611 Y142.752 E11.44712
G1 X181.831 Y144.326 E11.50564
G1 X182.610 Y145.472 E11.54636
G1 X183.478 Y146.921 E11.59599
G1 X184.253 Y148.420 E11.64559
G1 X184.816 Y149.697 E11.68661
G1 X185.044 Y150.248 E11.70411
G1 X185.607 Y151.839 E11.75373
G1 X186.068 Y153.463 E11.80335
G1 X186.371 Y154.815 E11.84406
G1 X186.682 Y156.782 E11.90258
G1 X186.832 Y158.464 E11.95220
G1 X186.875 Y159.849 E11.99292
G1 X186.832 Y161.536 E12.04253
G1 X186.685 Y163.193 E12.09140
G1 X186.371 Y165.185 E12.15066
G1 X186.068 Y166.537 E12.19139
G1 X185.607 Y168.161 E12.24099
G1 X184.932 Y170.034 E12.29951
G1 X184.382 Y171.306 E12.34022
G1 X183.624 Y172.814 E12.38984
G1 X182.610 Y174.528 E12.44836
G1 X181.831 Y175.675 E12.48909
G1 X180.804 Y177.014 E12.53870
G1 X179.487 Y178.508 E12.59721
G1 X178.508 Y179.487 E12.63792
G1 X177.247 Y180.611 E12.68755
G1 X175.674 Y181.832 E12.74606
G1 X174.528 Y182.610 E12.78678
G1 X173.079 Y183.478 E12.83641
G1 X171.580 Y184.253 E12.88601
G1 X171.074 Y184.482 E12.90233
G1 X169.752 Y185.044 E12.94453
G1 X168.161 Y185.607 E12.99415
G1 X166.830 Y185.993 E13.03486
G1 X165.185 Y186.371 E13.08447
G1 X163.218 Y186.682 E13.14300
G1 X161.536 Y186.832 E13.19261
G1 X160.152 Y186.875 E13.23332
G1 X158.161 Y186.813 E13.29185
G1 X156.481 Y186.644 E13.34146
G1 X155.113 Y186.427 E13.38217
G1 X153.170 Y185.993 E13.44070
G1 X151.551 Y185.513 E13.49031
G1 X150.248 Y185.044 E13.53102
G1 X148.420 Y184.253 E13.58955
G1 X147.186 Y183.624 E13.63025
G1 X145.728 Y182.773 E13.67987
G1 X144.326 Y181.831 E13.72949
G1 X143.319 Y181.063 E13.76671
G1 X142.752 Y180.611 E13.78801
G1 X141.492 Y179.487 E13.83763
G1 X140.512 Y178.507 E13.87835
G1 X139.389 Y177.248 E13.92796
G1 X138.169 Y175.674 E13.98648
G1 X137.390 Y174.528 E14.02720
G1 X136.522 Y173.080 E14.07681
G1 X135.747 Y171.580 E14.12643
G1 X135.078 Y170.058 E14.17529
G1 X134.393 Y168.161 E14.23456
G1 X134.007 Y166.830 E14.27527
G1 X133.629 Y165.185 E14.32490
G1 X133.318 Y163.218 E14.38341
G1 X133.168 Y161.536 E14.43303
G1 X133.125 Y160.151 E14.47375
G1 X133.187 Y158.161 E14.53226
G1 X133.318 Y156.782 E14.57298
G1 X133.573 Y155.113 E14.62259
G1 X134.007 Y153.170 E14.68111
G1 X134.393 Y151.839 E14.72182
G1 X134.956 Y150.247 E14.77145
G1 X135.747 Y148.420 E14.82996
G1 X136.376 Y147.186 E14.87068
G1 X137.227 Y145.728 E14.92029
G1 X138.347 Y144.081 E14.97881
G1 X139.389 Y142.752 E15.02843
G1 X140.482 Y141.525 E15.07673
G1 X140.763 Y141.742 F2100.000
G1 F900
G1 X141.742 Y140.763 E15.11743
G1 X142.986 Y139.654 E15.16640
G1 X144.297 Y138.626 E15.21536
G1 X144.816 Y138.262 E15.23399
G1 X145.908 Y137.532 E15.27259
G1 X147.346 Y136.691 E15.32155
G1 X148.581 Y136.062 E15.36227
G1 X150.106 Y135.392 E15.41122
G1 X151.938 Y134.733 E15.46844
G1 X153.540 Y134.276 E15.51741
G1 X154.892 Y133.974 E15.55812
G1 X156.815 Y133.670 E15.61534
G1 X158.195 Y133.539 E15.65606
G1 X159.860 Y133.478 E15.70502
G1 X161.525 Y133.522 E15.75398
G1 X163.105 Y133.662 E15.80059
G1 X163.463 Y133.705 E15.81120
G1 X165.108 Y133.974 E15.86016
G1 X166.460 Y134.277 E15.90088
G1 X168.062 Y134.733 E15.94984
G1 X169.894 Y135.392 E16.00706
G1 X171.165 Y135.943 E16.04777
G1 X172.654 Y136.691 E16.09673
G1 X174.330 Y137.682 E16.15395
G1 X175.476 Y138.461 E16.19466
G1 X176.797 Y139.475 E16.24362
G1 X178.258 Y140.763 E16.30084
G1 X179.237 Y141.742 E16.34155
G1 X180.346 Y142.986 E16.39052
G1 X181.539 Y144.525 E16.44773
G1 X182.318 Y145.670 E16.48845
G1 X183.174 Y147.101 E16.53743
G1 X183.938 Y148.581 E16.58638
G1 X184.492 Y149.838 E16.62675
G1 X184.711 Y150.367 E16.64359
G1 X185.267 Y151.938 E16.69256
G1 X185.724 Y153.540 E16.74152
G1 X186.026 Y154.892 E16.78224
G1 X186.330 Y156.815 E16.83945
G1 X186.478 Y158.475 E16.88842
G1 X186.522 Y159.860 E16.92914
G1 X186.478 Y161.525 E16.97809
G1 X186.333 Y163.159 E17.02631
G1 X186.026 Y165.108 E17.08427
G1 X185.723 Y166.460 E17.12500
G1 X185.267 Y168.062 E17.17395
G1 X184.608 Y169.894 E17.23117
G1 X184.057 Y171.165 E17.27188
G1 X183.309 Y172.654 E17.32084
G1 X182.318 Y174.330 E17.37806
G1 X181.539 Y175.476 E17.41878
G1 X180.525 Y176.798 E17.46774
G1 X179.237 Y178.258 E17.52495
G1 X178.258 Y179.237 E17.56567
G1 X177.014 Y180.346 E17.61464
G1 X175.475 Y181.539 E17.67185
G1 X174.329 Y182.318 E17.71257
G1 X172.899 Y183.174 E17.76155
G1 X171.419 Y183.938 E17.81049
G1 X170.934 Y184.158 E17.82616
G1 X169.633 Y184.711 E17.86771
G1 X168.062 Y185.267 E17.91667
G1 X166.732 Y185.654 E17.95738
G1 X165.108 Y186.026 E18.00635
G1 X163.185 Y186.330 E18.06356
G1 X161.525 Y186.478 E18.11253
G1 X160.140 Y186.522 E18.15324
G1 X158.194 Y186.461 E18.21046
G1 X156.537 Y186.295 E18.25942
G1 X155.168 Y186.078 E18.30013
G1 X153.268 Y185.654 E18.35735
G1 X151.938 Y185.267 E18.39806
G1 X150.367 Y184.711 E18.44703
G1 X148.580 Y183.938 E18.50424
G1 X147.100 Y183.174 E18.55321
G1 X145.908 Y182.468 E18.59392
G1 X144.524 Y181.539 E18.64289
G1 X143.536 Y180.784 E18.67945
G1 X142.986 Y180.346 E18.70010
G1 X141.742 Y179.237 E18.74907
G1 X140.762 Y178.258 E18.78979
G1 X139.654 Y177.014 E18.83874
G1 X138.461 Y175.475 E18.89596
G1 X137.682 Y174.330 E18.93668
G1 X136.826 Y172.900 E18.98564
G1 X136.062 Y171.420 E19.03460
G1 X135.403 Y169.917 E19.08281
G1 X134.733 Y168.062 E19.14078
G1 X134.346 Y166.732 E19.18149
G1 X133.974 Y165.108 E19.23046
G1 X133.670 Y163.185 E19.28768
G1 X133.522 Y161.525 E19.33664
G1 X133.478 Y160.140 E19.37736
G1 X133.539 Y158.194 E19.43457
G1 X133.670 Y156.815 E19.47529
G1 X133.922 Y155.168 E19.52424
G1 X134.346 Y153.268 E19.58146
G1 X134.733 Y151.938 E19.62217
G1 X135.289 Y150.367 E19.67114
G1 X136.062 Y148.580 E19.72836
G1 X136.691 Y147.346 E19.76907
G1 X137.532 Y145.907 E19.81803
G1 X138.626 Y144.297 E19.87525
G1 X139.654 Y142.986 E19.92421
G1 X140.732 Y141.775 E19.97186
G1 X141.013 Y141.992 F2100.000
G1 F900
G1 X141.992 Y141.013 E20.01256
G1 X143.220 Y139.919 E20.06088
G1 X144.723 Y138.753 E20.11679
G1 X146.087 Y137.836 E20.16511
G1 X147.280 Y137.131 E20.20581
G1 X148.741 Y136.377 E20.25413
G1 X150.111 Y135.775 E20.29812
G1 X150.487 Y135.621 E20.31004
G1 X152.037 Y135.072 E20.35836
G1 X153.367 Y134.686 E20.39907
G1 X154.969 Y134.319 E20.44738
G1 X156.849 Y134.022 E20.50329
G1 X158.228 Y133.891 E20.54401
G1 X159.871 Y133.831 E20.59232
G1 X161.514 Y133.875 E20.64063
G1 X163.072 Y134.014 E20.68659
G1 X165.031 Y134.319 E20.74485
G1 X166.383 Y134.621 E20.78556
G1 X167.964 Y135.072 E20.83388
G1 X169.754 Y135.717 E20.88979
G1 X171.025 Y136.267 E20.93050
G1 X172.493 Y137.006 E20.97881
G1 X174.131 Y137.975 E21.03472
G1 X175.277 Y138.753 E21.07544
G1 X176.581 Y139.754 E21.12375
G1 X178.008 Y141.013 E21.17966
G1 X178.988 Y141.992 E21.22037
G1 X180.081 Y143.220 E21.26868
G1 X181.247 Y144.723 E21.32459
G1 X182.026 Y145.869 E21.36531
G1 X182.870 Y147.280 E21.41364
G1 X183.623 Y148.741 E21.46193
G1 X184.167 Y149.978 E21.50166
G1 X184.379 Y150.487 E21.51785
G1 X184.928 Y152.037 E21.56616
G1 X185.379 Y153.617 E21.61447
G1 X185.681 Y154.969 E21.65518
G1 X185.978 Y156.849 E21.71110
G1 X186.125 Y158.486 E21.75941
G1 X186.169 Y159.871 E21.80013
G1 X186.125 Y161.514 E21.84843
G1 X185.981 Y163.126 E21.89599
G1 X185.681 Y165.031 E21.95266
G1 X185.378 Y166.383 E21.99338
G1 X184.928 Y167.964 E22.04168
G1 X184.283 Y169.754 E22.09759
G1 X183.733 Y171.025 E22.13830
G1 X182.994 Y172.493 E22.18661
G1 X182.025 Y174.131 E22.24253
G1 X181.247 Y175.277 E22.28325
G1 X180.246 Y176.581 E22.33156
G1 X178.987 Y178.008 E22.38747
G1 X178.008 Y178.988 E22.42818
G1 X176.780 Y180.081 E22.47650
G1 X175.277 Y181.247 E22.53240
G1 X174.131 Y182.026 E22.57312
G1 X172.720 Y182.870 E22.62145
G1 X171.259 Y183.623 E22.66974
G1 X169.889 Y184.225 E22.71373
G1 X169.513 Y184.379 E22.72565
G1 X167.963 Y184.928 E22.77397
G1 X166.633 Y185.314 E22.81467
G1 X165.031 Y185.681 E22.86299
G1 X163.151 Y185.978 E22.91890
G1 X161.772 Y186.109 E22.95961
G1 X160.129 Y186.169 E23.00792
G1 X158.228 Y186.109 E23.06384
G1 X156.849 Y185.978 E23.10455
G1 X155.224 Y185.729 E23.15286
G1 X153.367 Y185.314 E23.20878
G1 X152.037 Y184.928 E23.24948
G1 X150.487 Y184.379 E23.29780
G1 X148.741 Y183.623 E23.35371
G1 X147.280 Y182.869 E23.40202
G1 X146.087 Y182.164 E23.44273
G1 X144.723 Y181.247 E23.49105
G1 X143.535 Y180.336 E23.53504
G1 X143.220 Y180.081 E23.54696
