; generated by Slic3r 1.3.0 on 2024-07-02 at 20:16:02

; external perimeters extrusion width = 0.33mm (1.72mm^3/s)
; perimeters extrusion width = 0.40mm (3.53mm^3/s)
; infill extrusion width = 0.38mm (3.98mm^3/s)
; solid infill extrusion width = 0.40mm (2.83mm^3/s)
; top infill extrusion width = 0.40mm (2.83mm^3/s)

M107
M190 S50 ; set bed temperature and wait for it to be reached
M104 S245 ; set temperature
G28 ; 
G1 Z5 F5000 ; 

; Filament gcode

M109 S245 ; set temperature and wait for it to be reached
G21 ; set units to millimeters
G90 ; use absolute coordinates
M82 ; use absolute distances for extrusion
G92 E0
G1 Z-0.050 F3600.000
G1 E-3.00000 F2400.00000
G92 E0
G1 X29.386 Y-19.476 F3600.000
G1 E3.00000 F2400.00000
G1 F1500
G1 X30.587 Y-18.863 E3.03963
G1 X31.914 Y-18.087 E3.08481
G1 X33.190 Y-17.228 E3.13000
G1 X34.409 Y-16.291 E3.17518
G1 X35.566 Y-15.280 E3.22036
G1 X36.658 Y-14.198 E3.26554
G1 X37.680 Y-13.049 E3.31072
G1 X38.628 Y-11.838 E3.35590
G1 X39.498 Y-10.571 E3.40108
G1 X40.286 Y-9.251 E3.44626
G1 X40.990 Y-7.884 E3.49144
G1 X41.607 Y-6.476 E3.53662
G1 X42.134 Y-5.032 E3.58180
G1 X42.570 Y-3.557 E3.62698
G1 X42.912 Y-2.058 E3.67217
G1 X43.159 Y-0.541 E3.71735
G1 X43.311 Y0.989 E3.76253
G1 X43.366 Y2.525 E3.80771
G1 X43.324 Y4.062 E3.85289
G1 X43.186 Y5.593 E3.89807
G1 X42.953 Y7.113 E3.94325
G1 X42.624 Y8.615 E3.98843
G1 X42.202 Y10.093 E4.03361
G1 X41.687 Y11.542 E4.07879
G1 X41.083 Y12.956 E4.12397
G1 X40.391 Y14.328 E4.16915
G1 X39.498 Y15.840 E4.22074
G1 X38.628 Y17.107 E4.26593
G1 X37.680 Y18.318 E4.31111
G1 X36.658 Y19.466 E4.35629
G1 X35.566 Y20.549 E4.40147
G1 X34.409 Y21.560 E4.44665
G1 X33.190 Y22.497 E4.49183
G1 X32.099 Y23.239 E4.53060
G1 X30.779 Y24.027 E4.57578
G1 X29.223 Y24.821 E4.62711
G1 X-8.442 Y41.230 E5.83447
G1 X-9.164 Y41.512 E5.85727
G1 X-9.958 Y41.785 E5.88193
G1 X-10.965 Y42.086 E5.91282
G1 X-11.717 Y42.275 E5.93561
G1 X-13.024 Y42.535 E5.97477
G1 X-14.379 Y42.715 E6.01493
G1 X-15.566 Y42.802 E6.04990
G1 X-16.232 Y42.821 E6.06949
G1 X-17.564 Y42.796 E6.10866
G1 X-18.893 Y42.688 E6.14782
G1 X-20.212 Y42.496 E6.18699
G1 X-21.622 Y42.196 E6.22936
G1 X-22.905 Y41.834 E6.26853
G1 X-24.162 Y41.393 E6.30770
G1 X-24.780 Y41.143 E6.32728
G1 X-25.797 Y40.678 E6.36014
G1 X-26.485 Y40.329 E6.38283
G1 X-27.069 Y40.006 E6.40242
G1 X-28.203 Y39.306 E6.44159
G1 X-29.291 Y38.537 E6.48075
G1 X-30.329 Y37.701 E6.51992
G1 X-31.390 Y36.725 E6.56229
G1 X-32.310 Y35.760 E6.60146
G1 X-32.747 Y35.257 E6.62105
G1 X-33.443 Y34.382 E6.65390
G1 X-33.897 Y33.758 E6.67659
G1 X-34.270 Y33.205 E6.69618
G1 X-34.963 Y32.067 E6.73535
G1 X-35.631 Y30.789 E6.77772
G1 X-36.170 Y29.570 E6.81689
G1 X-36.410 Y28.949 E6.83647
G1 X-36.801 Y27.789 E6.87243
G1 X-37.174 Y26.396 E6.91481
G1 X-37.434 Y25.089 E6.95397
G1 X-37.599 Y23.876 E6.98994
G1 X-37.662 Y23.193 E7.01009
G1 X-41.056 Y-17.448 E8.20860
G1 X-41.103 Y-18.798 E8.24831
G1 X-41.066 Y-20.187 E8.28913
G1 X-40.945 Y-21.543 E8.32916
G1 X-40.691 Y-23.157 E8.37717
G1 X-40.436 Y-24.300 E8.41158
G1 X-40.055 Y-25.636 E8.45240
G1 X-39.591 Y-26.945 E8.49322
G1 X-39.056 Y-28.198 E8.53325
G1 X-38.877 Y-28.569 E8.54537
G1 X-38.706 Y-28.867 E8.55547
G1 X-36.254 Y-32.690 E8.68895
G1 X-35.935 Y-33.112 E8.70449
G1 X-35.186 Y-33.963 E8.73780
G1 X-34.049 Y-35.099 E8.78503
G1 X-33.171 Y-35.874 E8.81944
G1 X-32.078 Y-36.730 E8.86026
G1 X-30.933 Y-37.517 E8.90108
G1 X-29.741 Y-38.230 E8.94190
G1 X-28.506 Y-38.866 E8.98272
G1 X-27.234 Y-39.424 E9.02353
G1 X-25.930 Y-39.901 E9.06435
G1 X-24.598 Y-40.295 E9.10517
G1 X-23.897 Y-40.459 E9.12633
G1 X-23.494 Y-40.524 E9.13832
G1 X-18.977 Y-40.989 E9.27175
G1 X-18.513 Y-41.005 E9.28541
G1 X-17.496 Y-40.966 E9.31531
G1 X-16.114 Y-40.829 E9.35613
G1 X-14.958 Y-40.646 E9.39053
G1 X-13.601 Y-40.349 E9.43135
G1 X-12.057 Y-39.901 E9.47858
G1 X-10.753 Y-39.424 E9.51940
G1 X-9.507 Y-38.879 E9.55936
G1 X29.345 Y-19.496 E10.83536
G1 X29.228 Y-19.159 F3600.000
G1 F1500
G1 X30.427 Y-18.548 E10.87491
G1 X31.734 Y-17.782 E10.91944
G1 X32.991 Y-16.936 E10.96396
G1 X34.192 Y-16.012 E11.00849
G1 X35.333 Y-15.015 E11.05302
G1 X36.408 Y-13.948 E11.09755
G1 X37.415 Y-12.815 E11.14208
G1 X38.349 Y-11.622 E11.18661
G1 X39.205 Y-10.372 E11.23114
G1 X39.982 Y-9.071 E11.27566
G1 X40.675 Y-7.724 E11.32019
G1 X41.283 Y-6.335 E11.36472
G1 X41.802 Y-4.912 E11.40925
G1 X42.230 Y-3.459 E11.45378
G1 X42.567 Y-1.981 E11.49831
G1 X42.810 Y-0.486 E11.54284
G1 X42.959 Y1.022 E11.58736
G1 X43.013 Y2.536 E11.63189
G1 X42.971 Y4.051 E11.67642
G1 X42.835 Y5.560 E11.72095
G1 X42.604 Y7.058 E11.76548
G1 X42.279 Y8.538 E11.81001
G1 X41.862 Y9.994 E11.85454
G1 X41.355 Y11.422 E11.89906
G1 X40.759 Y12.815 E11.94359
G1 X40.076 Y14.168 E11.98812
G1 X39.205 Y15.641 E12.03841
G1 X38.349 Y16.891 E12.08294
G1 X37.415 Y18.084 E12.12746
G1 X36.408 Y19.217 E12.17199
G1 X35.333 Y20.284 E12.21652
G1 X34.192 Y21.281 E12.26105
G1 X32.991 Y22.205 E12.30558
G1 X31.900 Y22.946 E12.34435
G1 X30.599 Y23.723 E12.38888
G1 X29.082 Y24.497 E12.43893
G1 X-8.099 Y40.700 E13.63082
G1 X-9.191 Y41.144 E13.66547
G1 X-9.901 Y41.396 E13.68761
G1 X-11.062 Y41.746 E13.72325
G1 X-11.792 Y41.930 E13.74538
G1 X-13.078 Y42.185 E13.78390
G1 X-14.410 Y42.363 E13.82340
G1 X-15.586 Y42.449 E13.85805
G1 X-16.241 Y42.467 E13.87731
G1 X-17.551 Y42.443 E13.91582
G1 X-18.858 Y42.336 E13.95434
G1 X-20.155 Y42.148 E13.99285
G1 X-21.532 Y41.855 E14.03424
G1 X-22.794 Y41.499 E14.07276
G1 X-24.030 Y41.065 E14.11128
G1 X-24.638 Y40.819 E14.13054
G1 X-25.645 Y40.360 E14.16307
G1 X-26.897 Y39.697 E14.20469
G1 X-28.012 Y39.009 E14.24320
G1 X-29.160 Y38.193 E14.28459
G1 X-30.176 Y37.366 E14.32311
G1 X-31.139 Y36.476 E14.36162
G1 X-32.044 Y35.528 E14.40014
G1 X-32.473 Y35.033 E14.41940
G1 X-33.162 Y34.167 E14.45193
G1 X-33.977 Y33.008 E14.49355
G1 X-34.658 Y31.889 E14.53206
G1 X-35.311 Y30.640 E14.57346
G1 X-35.853 Y29.410 E14.61296
G1 X-36.263 Y28.305 E14.64761
G1 X-36.464 Y27.681 E14.66686
G1 X-36.828 Y26.321 E14.70826
G1 X-37.084 Y25.035 E14.74677
G1 X-37.249 Y23.834 E14.78241
G1 X-37.310 Y23.164 E14.80218
G1 X-40.704 Y-17.477 E16.00069
G1 X-40.750 Y-18.809 E16.03986
G1 X-40.713 Y-20.175 E16.08002
G1 X-40.593 Y-21.510 E16.11941
G1 X-40.346 Y-23.080 E16.16611
G1 X-40.091 Y-24.223 E16.20052
G1 X-39.715 Y-25.537 E16.24069
G1 X-39.258 Y-26.825 E16.28086
G1 X-38.732 Y-28.058 E16.32024
G1 X-38.408 Y-28.676 E16.34076
G1 X-35.956 Y-32.500 E16.47424
G1 X-35.670 Y-32.879 E16.48820
G1 X-34.920 Y-33.729 E16.52151
G1 X-33.815 Y-34.834 E16.56744
G1 X-32.786 Y-35.733 E16.60760
G1 X-31.702 Y-36.566 E16.64777
G1 X-30.568 Y-37.329 E16.68794
G1 X-29.389 Y-38.020 E16.72811
G1 X-28.168 Y-38.635 E16.76827
G1 X-26.911 Y-39.172 E16.80844
G1 X-25.810 Y-39.569 E16.84285
G1 X-24.499 Y-39.956 E16.88301
G1 X-23.819 Y-40.114 E16.90352
G1 X-23.458 Y-40.173 E16.91429
G1 X-18.941 Y-40.637 E17.04772
G1 X-18.524 Y-40.652 E17.05999
G1 X-17.530 Y-40.615 E17.08923
G1 X-16.169 Y-40.480 E17.12940
G1 X-15.013 Y-40.297 E17.16381
G1 X-13.678 Y-40.005 E17.20398
G1 X-12.177 Y-39.569 E17.24990
G1 X-10.893 Y-39.100 E17.29007
G1 X-9.665 Y-38.563 E17.32946
G1 X29.188 Y-19.179 E18.60546
G1 X29.070 Y-18.843 F3600.000
G1 F1500
G1 X30.267 Y-18.234 E18.64492
G1 X31.554 Y-17.478 E18.68880
G1 X32.792 Y-16.644 E18.73267
G1 X33.975 Y-15.733 E18.77655
G1 X35.099 Y-14.750 E18.82043
G1 X36.158 Y-13.698 E18.86430
G1 X37.150 Y-12.581 E18.90818
G1 X38.069 Y-11.405 E18.95206
G1 X38.913 Y-10.173 E18.99593
G1 X39.678 Y-8.891 E19.03981
G1 X40.360 Y-7.563 E19.08369
G1 X40.958 Y-6.195 E19.12756
G1 X41.469 Y-4.792 E19.17144
G1 X41.891 Y-3.360 E19.21531
G1 X42.222 Y-1.904 E19.25919
G1 X42.461 Y-0.430 E19.30307
G1 X42.607 Y1.055 E19.34694
G1 X42.659 Y2.548 E19.39082
G1 X42.618 Y4.040 E19.43470
G1 X42.483 Y5.527 E19.47857
G1 X42.255 Y7.002 E19.52245
G1 X41.934 Y8.461 E19.56632
G1 X41.523 Y9.896 E19.61020
G1 X41.022 Y11.302 E19.65408
G1 X40.434 Y12.675 E19.69795
G1 X39.761 Y14.008 E19.74183
G1 X38.913 Y15.442 E19.79081
G1 X38.069 Y16.674 E19.83469
G1 X37.150 Y17.850 E19.87856
G1 X36.158 Y18.967 E19.92244
G1 X35.099 Y20.018 E19.96632
G1 X33.975 Y21.002 E20.01019
G1 X32.792 Y21.912 E20.05407
G1 X31.701 Y22.654 E20.09284
G1 X30.419 Y23.419 E20.13672
G1 X28.940 Y24.173 E20.18549
G1 X-8.206 Y40.361 E21.37630
G1 X-9.319 Y40.815 E21.41162
G1 X-10.008 Y41.059 E21.43311
G1 X-11.158 Y41.406 E21.46842
G1 X-11.868 Y41.584 E21.48990
G1 X-13.131 Y41.836 E21.52777
G1 X-14.441 Y42.011 E21.56662
G1 X-15.606 Y42.096 E21.60094
G1 X-16.250 Y42.114 E21.61987
G1 X-17.538 Y42.090 E21.65773
G1 X-18.822 Y41.984 E21.69560
G1 X-20.097 Y41.799 E21.73346
G1 X-21.442 Y41.513 E21.77387
G1 X-22.683 Y41.163 E21.81174
G1 X-23.898 Y40.737 E21.84960
G1 X-24.496 Y40.495 E21.86853
G1 X-25.493 Y40.041 E21.90074
G1 X-26.725 Y39.388 E21.94171
G1 X-27.821 Y38.712 E21.97957
G1 X-28.873 Y37.967 E22.01743
G1 X-29.941 Y37.102 E22.05784
G1 X-30.888 Y36.228 E22.09571
G1 X-31.777 Y35.296 E22.13357
G1 X-32.200 Y34.809 E22.15250
G1 X-32.882 Y33.951 E22.18471
G1 X-33.683 Y32.811 E22.22567
G1 X-34.353 Y31.710 E22.26353
G1 X-34.990 Y30.492 E22.30395
G1 X-35.511 Y29.313 E22.34181
G1 X-35.755 Y28.681 E22.36173
G1 X-36.127 Y27.574 E22.39605
G1 X-36.483 Y26.245 E22.43647
G1 X-36.735 Y24.982 E22.47433
G1 X-36.898 Y23.791 E22.50964
G1 X-36.958 Y23.135 E22.52903
G1 X-40.352 Y-17.507 E23.72754
G1 X-40.397 Y-18.820 E23.76617
G1 X-40.360 Y-20.164 E23.80568
G1 X-40.241 Y-21.477 E23.84441
G1 X-40.001 Y-23.003 E23.88981
G1 X-39.703 Y-24.314 E23.92933
G1 X-39.376 Y-25.439 E23.96374
G1 X-38.926 Y-26.705 E24.00325
G1 X-38.407 Y-27.917 E24.04198
G1 X-38.111 Y-28.485 E24.06083
G1 X-35.659 Y-32.309 E24.19431
G1 X-35.405 Y-32.645 E24.20668
G1 X-34.655 Y-33.495 E24.24000
G1 X-33.582 Y-34.569 E24.28462
G1 X-32.569 Y-35.454 E24.32413
G1 X-31.504 Y-36.274 E24.36365
G1 X-30.389 Y-37.025 E24.40316
G1 X-29.228 Y-37.705 E24.44268
G1 X-28.028 Y-38.310 E24.48219
G1 X-26.792 Y-38.839 E24.52171
G1 X-25.525 Y-39.290 E24.56122
G1 X-24.232 Y-39.660 E24.60073
G1 X-23.422 Y-39.821 E24.62502
G1 X-18.905 Y-40.286 E24.75846
G1 X-18.535 Y-40.299 E24.76933
G1 X-17.563 Y-40.263 E24.79792
G1 X-16.225 Y-40.131 E24.83744
G1 X-15.068 Y-39.948 E24.87185
G1 X-13.755 Y-39.660 E24.91136
G1 X-12.297 Y-39.236 E24.95598
G1 X-11.034 Y-38.775 E24.99550
G1 X-9.823 Y-38.247 E25.03432
G1 X29.030 Y-18.863 E26.31033
G1 X28.912 Y-18.527 F3600.000
G1 F1500
G1 X30.106 Y-17.919 E26.34970
G1 X31.375 Y-17.174 E26.39292
G1 X32.594 Y-16.351 E26.43615
G1 X33.759 Y-15.454 E26.47937
G1 X34.865 Y-14.484 E26.52259
G1 X35.909 Y-13.448 E26.56582
G1 X36.885 Y-12.348 E26.60904
G1 X37.790 Y-11.188 E26.65227
G1 X38.621 Y-9.975 E26.69549
G1 X39.374 Y-8.711 E26.73872
G1 X40.045 Y-7.403 E26.78194
G1 X40.634 Y-6.055 E26.82516
G1 X41.137 Y-4.672 E26.86839
G1 X41.552 Y-3.261 E26.91161
G1 X41.877 Y-1.827 E26.95484
G1 X42.112 Y-0.375 E26.99806
G1 X42.255 Y1.089 E27.04128
G1 X42.306 Y2.559 E27.08451
G1 X42.265 Y4.029 E27.12773
G1 X42.131 Y5.494 E27.17096
G1 X41.906 Y6.947 E27.21418
G1 X41.589 Y8.384 E27.25740
G1 X41.184 Y9.797 E27.30063
G1 X40.690 Y11.183 E27.34385
G1 X40.110 Y12.534 E27.38708
G1 X39.447 Y13.847 E27.43030
G1 X38.621 Y15.244 E27.47798
G1 X37.790 Y16.457 E27.52120
G1 X36.885 Y17.617 E27.56443
G1 X35.909 Y18.717 E27.60765
G1 X34.865 Y19.753 E27.65087
G1 X33.759 Y20.722 E27.69410
G1 X32.594 Y21.620 E27.73732
G1 X31.503 Y22.362 E27.77609
G1 X30.239 Y23.114 E27.81932
G1 X28.799 Y23.849 E27.86681
G1 X-8.345 Y40.036 E29.05754
G1 X-9.447 Y40.486 E29.09254
G1 X-10.116 Y40.722 E29.11337
G1 X-11.255 Y41.066 E29.14835
G1 X-11.943 Y41.239 E29.16919
G1 X-13.185 Y41.487 E29.20640
G1 X-14.473 Y41.659 E29.24460
G1 X-15.626 Y41.743 E29.27859
G1 X-16.259 Y41.761 E29.29720
G1 X-17.525 Y41.736 E29.33441
G1 X-18.787 Y41.633 E29.37162
G1 X-20.040 Y41.450 E29.40883
G1 X-21.353 Y41.171 E29.44826
G1 X-22.572 Y40.828 E29.48547
G1 X-23.767 Y40.409 E29.52268
G1 X-24.354 Y40.172 E29.54129
G1 X-25.340 Y39.722 E29.57317
G1 X-26.553 Y39.080 E29.61348
G1 X-27.630 Y38.414 E29.65069
G1 X-28.663 Y37.683 E29.68790
G1 X-29.649 Y36.888 E29.72511
G1 X-30.582 Y36.032 E29.76232
G1 X-31.511 Y35.063 E29.80176
G1 X-31.926 Y34.585 E29.82037
G1 X-32.601 Y33.736 E29.85224
G1 X-33.390 Y32.614 E29.89256
G1 X-34.048 Y31.532 E29.92977
G1 X-34.669 Y30.343 E29.96920
G1 X-35.194 Y29.154 E30.00740
G1 X-35.597 Y28.069 E30.04140
G1 X-35.790 Y27.466 E30.06000
G1 X-36.138 Y26.170 E30.09944
G1 X-36.385 Y24.929 E30.13665
G1 X-36.547 Y23.749 E30.17163
G1 X-36.605 Y23.105 E30.19064
G1 X-40.000 Y-17.536 E31.38915
G1 X-40.044 Y-18.831 E31.42724
G1 X-40.007 Y-20.153 E31.46610
G1 X-39.890 Y-21.444 E31.50417
G1 X-39.656 Y-22.926 E31.54827
G1 X-39.401 Y-24.069 E31.58268
G1 X-39.037 Y-25.340 E31.62155
G1 X-38.593 Y-26.586 E31.66041
G1 X-38.083 Y-27.777 E31.69849
G1 X-37.813 Y-28.295 E31.71565
G1 X-35.361 Y-32.118 E31.84913
G1 X-35.140 Y-32.411 E31.85992
G1 X-34.390 Y-33.262 E31.89324
G1 X-33.348 Y-34.304 E31.93656
G1 X-32.470 Y-35.078 E31.97097
G1 X-31.428 Y-35.892 E32.00983
G1 X-30.337 Y-36.640 E32.04869
G1 X-29.201 Y-37.317 E32.08755
G1 X-28.025 Y-37.922 E32.12641
G1 X-26.813 Y-38.451 E32.16528
G1 X-25.570 Y-38.903 E32.20414
G1 X-24.302 Y-39.277 E32.24300
G1 X-23.665 Y-39.424 E32.26220
G1 X-23.386 Y-39.470 E32.27053
G1 X-18.869 Y-39.934 E32.40397
G1 X-18.546 Y-39.946 E32.41346
G1 X-17.596 Y-39.911 E32.44139
G1 X-16.280 Y-39.782 E32.48026
G1 X-15.124 Y-39.599 E32.51467
G1 X-13.832 Y-39.315 E32.55353
G1 X-12.417 Y-38.903 E32.59684
G1 X-11.174 Y-38.451 E32.63571
G1 X-9.980 Y-37.931 E32.67397
G1 X28.872 Y-18.547 E33.94997
G1 X28.755 Y-18.210 F3600.000
G1 F1500
G1 X29.946 Y-17.604 E33.98926
G1 X31.195 Y-16.870 E34.03183
G1 X32.395 Y-16.059 E34.07440
G1 X33.542 Y-15.174 E34.11697
G1 X34.631 Y-14.219 E34.15954
G1 X35.659 Y-13.198 E34.20212
G1 X36.620 Y-12.114 E34.24469
G1 X37.511 Y-10.972 E34.28726
G1 X38.328 Y-9.776 E34.32983
G1 X39.069 Y-8.531 E34.37240
G1 X39.731 Y-7.242 E34.41497
G1 X40.310 Y-5.914 E34.45755
G1 X40.804 Y-4.553 E34.50012
G1 X41.212 Y-3.163 E34.54269
G1 X41.532 Y-1.750 E34.58526
G1 X41.763 Y-0.320 E34.62783
G1 X41.903 Y1.122 E34.67041
G1 X41.953 Y2.570 E34.71298
G1 X41.911 Y4.018 E34.75555
G1 X41.779 Y5.460 E34.79812
G1 X41.556 Y6.892 E34.84069
G1 X41.244 Y8.306 E34.88326
G1 X40.844 Y9.699 E34.92584
G1 X40.357 Y11.063 E34.96841
G1 X39.786 Y12.394 E35.01098
G1 X39.132 Y13.687 E35.05355
G1 X38.328 Y15.045 E35.09992
G1 X37.511 Y16.241 E35.14250
G1 X36.620 Y17.383 E35.18507
G1 X35.659 Y18.467 E35.22764
G1 X34.631 Y19.488 E35.27021
G1 X33.542 Y20.443 E35.31278
G1 X32.395 Y21.328 E35.35535
G1 X31.304 Y22.069 E35.39413
G1 X30.059 Y22.810 E35.43670
G1 X28.658 Y23.525 E35.48291
G1 X-8.483 Y39.711 E36.67357
G1 X-9.576 Y40.157 E36.70823
G1 X-10.223 Y40.386 E36.72841
G1 X-11.352 Y40.726 E36.76307
G1 X-12.018 Y40.894 E36.78325
G1 X-13.238 Y41.137 E36.81981
G1 X-14.504 Y41.307 E36.85736
G1 X-15.647 Y41.390 E36.89102
G1 X-16.269 Y41.407 E36.90931
G1 X-17.512 Y41.383 E36.94586
G1 X-18.752 Y41.281 E36.98242
G1 X-19.983 Y41.101 E37.01898
G1 X-21.263 Y40.829 E37.05743
G1 X-22.461 Y40.492 E37.09399
G1 X-23.635 Y40.081 E37.13055
G1 X-24.211 Y39.848 E37.14883
G1 X-25.188 Y39.403 E37.18038
G1 X-26.381 Y38.771 E37.22005
G1 X-27.439 Y38.117 E37.25660
G1 X-28.506 Y37.359 E37.29506
G1 X-29.471 Y36.574 E37.33162
G1 X-30.385 Y35.731 E37.36817
G1 X-31.245 Y34.831 E37.40473
G1 X-31.653 Y34.362 E37.42301
G1 X-32.321 Y33.521 E37.45456
G1 X-33.097 Y32.417 E37.49423
G1 X-33.743 Y31.354 E37.53078
G1 X-34.349 Y30.194 E37.56924
G1 X-34.853 Y29.057 E37.60580
G1 X-35.089 Y28.445 E37.62507
G1 X-35.454 Y27.359 E37.65874
G1 X-35.778 Y26.158 E37.69529
G1 X-36.036 Y24.875 E37.73375
G1 X-36.196 Y23.707 E37.76841
G1 X-36.253 Y23.076 E37.78703
G1 X-39.647 Y-17.565 E38.98554
G1 X-39.690 Y-18.843 E39.02309
G1 X-39.653 Y-20.142 E39.06130
G1 X-39.538 Y-21.410 E39.09872
G1 X-39.312 Y-22.849 E39.14152
G1 X-39.024 Y-24.117 E39.17973
G1 X-38.697 Y-25.241 E39.21414
G1 X-38.261 Y-26.466 E39.25235
G1 X-37.759 Y-27.636 E39.28977
G1 X-37.516 Y-28.104 E39.30526
G1 X-35.064 Y-31.927 E39.43874
G1 X-34.875 Y-32.178 E39.44795
G1 X-34.125 Y-33.028 E39.48127
G1 X-33.114 Y-34.039 E39.52328
G1 X-32.236 Y-34.813 E39.55769
