; generated by Slic3r 1.3.0 on 2024-05-31 at 19:23:38

; external perimeters extrusion width = 0.33mm (1.72mm^3/s)
; perimeters extrusion width = 0.40mm (2.83mm^3/s)
; infill extrusion width = 0.38mm (2.66mm^3/s)
; solid infill extrusion width = 0.40mm (2.12mm^3/s)
; top infill extrusion width = 0.40mm (2.12mm^3/s)

M190 S60 ; set bed temperature and wait for it to be reached
M104 S240 ; set temperature
G28 ; 
G1 Z5 F5000 ; 

; Filament gcode

M109 S240 ; set temperature and wait for it to be reached
G21 ; set units to millimeters
G90 ; use absolute coordinates
M82 ; use absolute distances for extrusion
G92 E0
M106 S127.5
G1 Z-0.050 F3600.000
G1 E-3.00000 F2400.00000
G92 E0
G1 X-40.596 Y-3.191 F3600.000
G1 E3.00000 F2400.00000
G1 F1500
G1 X-32.977 Y-36.917 E4.01612
G1 X-32.893 Y-37.225 E4.02550
G1 X-32.360 Y-38.866 E4.07619
G1 X-31.844 Y-39.864 E4.10922
G1 X-31.075 Y-40.634 E4.14119
G1 X-29.680 Y-41.648 E4.19188
G1 X-28.712 Y-42.141 E4.22379
G1 X-27.684 Y-42.322 E4.25447
G1 X31.128 Y-43.726 E5.98333
G1 X31.601 Y-43.709 E5.99723
G1 X32.034 Y-43.654 E6.01005
G1 X33.454 Y-43.383 E6.05255
G1 X33.877 Y-43.275 E6.06537
G1 X34.446 Y-43.061 E6.08323
G1 X35.755 Y-42.445 E6.12573
G1 X36.282 Y-42.143 E6.14359
G1 X36.635 Y-41.887 E6.15642
G1 X37.749 Y-40.965 E6.19892
G1 X38.067 Y-40.666 E6.21173
G1 X38.463 Y-40.205 E6.22960
G1 X39.313 Y-39.035 E6.27210
G1 X39.547 Y-38.667 E6.28492
G1 X39.815 Y-38.121 E6.30278
G1 X40.348 Y-36.777 E6.34529
G1 X40.482 Y-36.362 E6.35810
G1 X40.607 Y-35.767 E6.37597
G1 X40.788 Y-34.332 E6.41847
G1 X40.816 Y-33.901 E6.43117
G1 X40.855 Y-0.820 E7.40335
G1 X40.585 Y33.705 E8.41798
G1 X40.558 Y34.113 E8.43000
G1 X40.377 Y35.548 E8.47251
G1 X40.252 Y36.143 E8.49036
G1 X40.117 Y36.558 E8.50319
G1 X39.585 Y37.903 E8.54569
G1 X39.399 Y38.297 E8.55851
G1 X39.083 Y38.816 E8.57637
G1 X38.233 Y39.986 E8.61887
G1 X37.954 Y40.322 E8.63170
G1 X37.519 Y40.746 E8.64956
G1 X36.404 Y41.668 E8.69206
G1 X36.052 Y41.925 E8.70488
G1 X35.524 Y42.227 E8.72274
G1 X34.216 Y42.843 E8.76524
G1 X33.810 Y43.003 E8.77806
G1 X33.224 Y43.165 E8.79593
G1 X31.803 Y43.436 E8.83843
G1 X31.199 Y43.501 E8.85628
G1 X-31.402 Y43.727 E10.69599
G1 X-31.820 Y43.702 E10.70833
G1 X-32.408 Y43.605 E10.72584
G1 X-33.806 Y43.260 E10.76814
G1 X-34.207 Y43.136 E10.78048
G1 X-34.754 Y42.901 E10.79799
G1 X-36.029 Y42.232 E10.84030
G1 X-36.534 Y41.914 E10.85782
G1 X-36.864 Y41.656 E10.87014
G1 X-37.941 Y40.701 E10.91245
G1 X-38.355 Y40.272 E10.92996
G1 X-38.614 Y39.942 E10.94229
G1 X-39.432 Y38.757 E10.98460
G1 X-39.731 Y38.241 E11.00212
G1 X-39.903 Y37.859 E11.01444
G1 X-40.414 Y36.513 E11.05675
G1 X-40.581 Y35.941 E11.07426
G1 X-40.656 Y35.528 E11.08659
G1 X-40.830 Y34.099 E11.12890
G1 X-40.855 Y33.680 E11.14123
G1 X-40.855 Y-0.996 E12.16030
G1 X-40.830 Y-1.415 E12.17263
G1 X-40.656 Y-2.844 E12.21493
G1 X-40.604 Y-3.147 E12.22395
G1 X-40.251 Y-3.113 F3600.000
G1 F1500
G1 X-32.633 Y-36.839 E13.24007
G1 X-32.557 Y-37.116 E13.24850
G1 X-32.024 Y-38.757 E13.29919
G1 X-31.558 Y-39.657 E13.32897
G1 X-30.867 Y-40.348 E13.35769
G1 X-29.472 Y-41.362 E13.40838
G1 X-28.603 Y-41.805 E13.43705
G1 X-27.676 Y-41.969 E13.46472
G1 X31.137 Y-43.372 E15.19358
G1 X31.579 Y-43.356 E15.20657
G1 X31.968 Y-43.307 E15.21809
G1 X33.388 Y-43.036 E15.26059
G1 X33.768 Y-42.939 E15.27211
G1 X34.295 Y-42.741 E15.28866
G1 X35.604 Y-42.126 E15.33117
G1 X36.092 Y-41.845 E15.34772
G1 X36.410 Y-41.614 E15.35924
G1 X37.524 Y-40.693 E15.40174
G1 X37.809 Y-40.425 E15.41325
G1 X38.177 Y-39.997 E15.42981
G1 X39.027 Y-38.827 E15.47232
G1 X39.237 Y-38.496 E15.48383
G1 X39.487 Y-37.991 E15.50039
G1 X40.019 Y-36.646 E15.54289
G1 X40.140 Y-36.274 E15.55440
G1 X40.256 Y-35.722 E15.57097
G1 X40.438 Y-34.288 E15.61347
G1 X40.462 Y-33.900 E15.62488
G1 X40.502 Y-0.820 E16.59704
G1 X40.232 Y33.702 E17.61159
G1 X40.207 Y34.069 E17.62239
G1 X40.026 Y35.504 E17.66490
G1 X39.910 Y36.055 E17.68145
G1 X39.789 Y36.428 E17.69297
G1 X39.256 Y37.773 E17.73547
G1 X39.089 Y38.127 E17.74699
G1 X38.797 Y38.608 E17.76354
G1 X37.947 Y39.779 E17.80605
G1 X37.697 Y40.080 E17.81756
G1 X37.294 Y40.474 E17.83412
G1 X36.179 Y41.396 E17.87662
G1 X35.862 Y41.626 E17.88814
G1 X35.374 Y41.907 E17.90470
G1 X34.065 Y42.523 E17.94720
G1 X33.537 Y42.720 E17.96375
G1 X33.158 Y42.818 E17.97527
G1 X31.737 Y43.089 E18.01778
G1 X31.177 Y43.148 E18.03432
G1 X-31.402 Y43.374 E19.87339
G1 X-31.778 Y43.351 E19.88446
G1 X-32.324 Y43.262 E19.90072
G1 X-33.722 Y42.917 E19.94303
G1 X-34.081 Y42.805 E19.95411
G1 X-34.590 Y42.588 E19.97036
G1 X-35.865 Y41.919 E20.01267
G1 X-36.333 Y41.623 E20.02894
G1 X-36.629 Y41.391 E20.04001
G1 X-37.707 Y40.436 E20.08231
G1 X-38.091 Y40.038 E20.09857
G1 X-38.323 Y39.741 E20.10965
G1 X-39.141 Y38.556 E20.15195
G1 X-39.418 Y38.077 E20.16822
G1 X-39.573 Y37.734 E20.17929
G1 X-40.083 Y36.388 E20.22160
G1 X-40.237 Y35.856 E20.23786
G1 X-40.305 Y35.486 E20.24893
G1 X-40.479 Y34.057 E20.29124
G1 X-40.502 Y33.680 E20.30231
G1 X-40.502 Y-0.996 E21.32139
G1 X-40.479 Y-1.373 E21.33246
G1 X-40.259 Y-3.069 E21.38272
G1 X-39.907 Y-3.035 F3600.000
G1 F1500
G1 X-32.220 Y-37.007 E22.40631
G1 X-31.687 Y-38.647 E22.45700
G1 X-31.272 Y-39.449 E22.48353
G1 X-30.660 Y-40.062 E22.50900
G1 X-29.264 Y-41.076 E22.55969
G1 X-28.494 Y-41.469 E22.58511
G1 X-27.667 Y-41.615 E22.60977
G1 X31.145 Y-43.019 E24.33863
G1 X31.557 Y-43.004 E24.35073
G1 X31.901 Y-42.960 E24.36094
G1 X33.322 Y-42.689 E24.40344
G1 X33.659 Y-42.603 E24.41365
G1 X34.145 Y-42.422 E24.42890
G1 X35.454 Y-41.806 E24.47141
G1 X35.903 Y-41.546 E24.48666
G1 X36.184 Y-41.342 E24.49687
G1 X37.299 Y-40.420 E24.53938
G1 X37.552 Y-40.183 E24.54958
G1 X37.891 Y-39.789 E24.56484
G1 X38.741 Y-38.619 E24.60734
G1 X38.927 Y-38.326 E24.61755
G1 X39.158 Y-37.861 E24.63281
G1 X39.690 Y-36.516 E24.67531
G1 X39.798 Y-36.186 E24.68552
G1 X39.906 Y-35.678 E24.70077
G1 X40.087 Y-34.243 E24.74328
G1 X40.109 Y-33.900 E24.75339
G1 X40.148 Y-0.820 E25.72555
G1 X39.878 Y33.700 E26.74002
G1 X39.857 Y34.025 E26.74959
G1 X39.675 Y35.460 E26.79210
G1 X39.567 Y35.967 E26.80735
G1 X39.460 Y36.298 E26.81756
G1 X38.928 Y37.642 E26.86006
G1 X38.780 Y37.957 E26.87028
G1 X38.511 Y38.401 E26.88553
G1 X37.661 Y39.571 E26.92803
G1 X37.439 Y39.839 E26.93824
G1 X37.068 Y40.202 E26.95350
G1 X35.954 Y41.124 E26.99600
G1 X35.673 Y41.328 E27.00621
G1 X35.223 Y41.587 E27.02146
G1 X33.915 Y42.203 E27.06397
G1 X33.428 Y42.384 E27.07922
G1 X33.092 Y42.470 E27.08943
G1 X31.671 Y42.741 E27.13193
G1 X31.155 Y42.796 E27.14718
G1 X-31.402 Y43.020 E28.98559
G1 X-31.735 Y43.000 E28.99541
G1 X-32.239 Y42.919 E29.01041
G1 X-33.637 Y42.574 E29.05272
G1 X-33.956 Y42.475 E29.06254
G1 X-34.426 Y42.275 E29.07755
G1 X-35.701 Y41.606 E29.11985
G1 X-35.987 Y41.433 E29.12968
G1 X-36.395 Y41.127 E29.14468
G1 X-37.473 Y40.172 E29.18699
G1 X-37.826 Y39.803 E29.20199
G1 X-38.032 Y39.540 E29.21182
G1 X-38.850 Y38.356 E29.25412
G1 X-39.023 Y38.069 E29.26395
G1 X-39.242 Y37.608 E29.27895
G1 X-39.753 Y36.262 E29.32126
G1 X-39.852 Y35.943 E29.33107
G1 X-39.955 Y35.443 E29.34608
G1 X-40.128 Y34.014 E29.38839
G1 X-40.148 Y33.680 E29.39821
G1 X-40.148 Y-0.996 E30.41728
G1 X-40.128 Y-1.330 E30.42710
G1 X-39.914 Y-2.991 E30.47632
G1 X-39.562 Y-2.957 F3600.000
G1 F1500
G1 X-31.884 Y-36.898 E31.49895
G1 X-31.351 Y-38.538 E31.54964
G1 X-30.986 Y-39.241 E31.57292
G1 X-30.452 Y-39.776 E31.59514
G1 X-29.056 Y-40.790 E31.64583
G1 X-28.384 Y-41.132 E31.66800
G1 X-27.659 Y-41.262 E31.68966
G1 X31.154 Y-42.666 E33.41852
G1 X31.534 Y-42.651 E33.42971
G1 X31.835 Y-42.613 E33.43862
G1 X33.256 Y-42.342 E33.48112
G1 X33.549 Y-42.266 E33.49003
G1 X33.994 Y-42.102 E33.50398
G1 X35.303 Y-41.486 E33.54648
G1 X35.714 Y-41.248 E33.56043
G1 X35.959 Y-41.070 E33.56934
G1 X37.073 Y-40.148 E33.61184
G1 X37.294 Y-39.941 E33.62074
G1 X37.605 Y-39.582 E33.63470
G1 X38.455 Y-38.412 E33.67720
G1 X38.618 Y-38.156 E33.68611
G1 X38.829 Y-37.731 E33.70006
G1 X39.362 Y-36.386 E33.74256
G1 X39.455 Y-36.098 E33.75146
G1 X39.555 Y-35.634 E33.76541
G1 X39.736 Y-34.199 E33.80792
G1 X39.755 Y-33.899 E33.81674
G1 X39.795 Y-0.820 E34.78888
G1 X39.525 Y33.697 E35.80327
G1 X39.506 Y33.980 E35.81162
G1 X39.325 Y35.415 E35.85413
G1 X39.225 Y35.879 E35.86807
G1 X39.131 Y36.168 E35.87698
G1 X38.599 Y37.512 E35.91949
G1 X38.470 Y37.787 E35.92839
G1 X38.225 Y38.193 E35.94234
G1 X37.375 Y39.363 E35.98484
G1 X37.182 Y39.597 E35.99375
G1 X36.843 Y39.929 E36.00770
G1 X35.729 Y40.851 E36.05020
G1 X35.338 Y41.121 E36.06415
G1 X35.073 Y41.267 E36.07306
G1 X33.764 Y41.883 E36.11556
G1 X33.319 Y42.048 E36.12951
G1 X33.025 Y42.123 E36.13842
G1 X31.605 Y42.394 E36.18092
G1 X31.133 Y42.443 E36.19486
G1 X-31.402 Y42.667 E38.03262
G1 X-31.693 Y42.649 E38.04119
G1 X-32.155 Y42.575 E38.05494
G1 X-33.552 Y42.231 E38.09724
G1 X-33.831 Y42.144 E38.10581
G1 X-34.262 Y41.962 E38.11956
G1 X-35.536 Y41.293 E38.16187
G1 X-35.786 Y41.142 E38.17044
G1 X-36.161 Y40.862 E38.18419
G1 X-37.238 Y39.907 E38.22650
G1 X-37.562 Y39.569 E38.24025
G1 X-37.741 Y39.340 E38.24882
G1 X-38.559 Y38.155 E38.29112
G1 X-38.710 Y37.905 E38.29969
G1 X-38.912 Y37.483 E38.31344
G1 X-39.422 Y36.137 E38.35575
G1 X-39.509 Y35.859 E38.36431
G1 X-39.604 Y35.400 E38.37807
G1 X-39.777 Y33.971 E38.42037
G1 X-39.795 Y33.680 E38.42894
G1 X-39.795 Y-0.996 E39.44801
G1 X-39.777 Y-1.287 E39.45658
G1 X-39.570 Y-2.913 E39.50474
G1 X-39.217 Y-2.879 F3600.000
G1 F1500
G1 X-31.548 Y-36.788 E40.52642
G1 X-31.015 Y-38.429 E40.57711
G1 X-30.700 Y-39.034 E40.59715
G1 X-30.244 Y-39.490 E40.61611
G1 X-28.849 Y-40.504 E40.66680
G1 X-28.275 Y-40.796 E40.68572
G1 X-27.650 Y-40.909 E40.70437
G1 X31.162 Y-42.312 E42.43323
G1 X31.512 Y-42.298 E42.44353
G1 X31.769 Y-42.266 E42.45113
G1 X33.189 Y-41.995 E42.49363
G1 X33.440 Y-41.930 E42.50124
G1 X33.844 Y-41.782 E42.51388
G1 X35.153 Y-41.166 E42.55638
G1 X35.524 Y-40.950 E42.56903
G1 X35.734 Y-40.797 E42.57663
G1 X36.848 Y-39.876 E42.61913
G1 X37.036 Y-39.699 E42.62673
G1 X37.319 Y-39.374 E42.63938
G1 X38.169 Y-38.204 E42.68189
G1 X38.308 Y-37.985 E42.68949
G1 X38.501 Y-37.601 E42.70213
G1 X39.033 Y-36.256 E42.74464
G1 X39.113 Y-36.010 E42.75224
G1 X39.204 Y-35.590 E42.76488
G1 X39.386 Y-34.155 E42.80739
G1 X39.402 Y-33.899 E42.81492
G1 X39.441 Y-0.820 E43.78705
G1 X39.171 Y33.694 E44.80135
G1 X38.974 Y35.371 E44.85098
G1 X38.883 Y35.791 E44.86362
G1 X38.803 Y36.038 E44.87122
G1 X38.270 Y37.382 E44.91373
G1 X38.160 Y37.616 E44.92133
G1 X37.939 Y37.985 E44.93397
G1 X37.089 Y39.155 E44.97648
G1 X36.924 Y39.355 E44.98408
G1 X36.618 Y39.657 E44.99673
G1 X35.503 Y40.579 E45.03923
G1 X35.149 Y40.823 E45.05187
G1 X34.922 Y40.948 E45.05948
G1 X33.614 Y41.563 E45.10198
G1 X33.210 Y41.712 E45.11462
G1 X32.959 Y41.776 E45.12223
G1 X31.538 Y42.047 E45.16473
G1 X31.111 Y42.090 E45.17737
G1 X-31.402 Y42.313 E47.01447
G1 X-31.650 Y42.298 E47.02178
G1 X-32.070 Y42.232 E47.03428
G1 X-33.468 Y41.888 E47.07659
G1 X-33.705 Y41.814 E47.08390
G1 X-34.097 Y41.649 E47.09640
G1 X-35.372 Y40.980 E47.13871
G1 X-35.585 Y40.851 E47.14602
G1 X-35.926 Y40.597 E47.15852
G1 X-37.004 Y39.643 E47.20082
G1 X-37.297 Y39.335 E47.21332
G1 X-37.450 Y39.139 E47.22064
G1 X-38.268 Y37.954 E47.26294
G1 X-38.397 Y37.741 E47.27026
G1 X-38.581 Y37.358 E47.28275
G1 X-39.092 Y36.012 E47.32506
G1 X-39.166 Y35.774 E47.33237
G1 X-39.253 Y35.358 E47.34487
G1 X-39.426 Y33.929 E47.38718
G1 X-39.441 Y33.680 E47.39449
G1 X-39.441 Y-0.996 E48.41356
G1 X-39.426 Y-1.245 E48.42087
G1 X-39.225 Y-2.835 E48.46798
G1 X-38.873 Y-2.802 F3600.000
G1 F1500
G1 X-31.254 Y-36.528 E49.48410
G1 X-30.679 Y-38.320 E49.53940
G1 X-30.437 Y-38.795 E49.55508
G1 X-30.036 Y-39.204 E49.57190
G1 X-28.641 Y-40.218 E49.62259
G1 X-28.166 Y-40.460 E49.63827
G1 X-27.642 Y-40.555 E49.65391
G1 X31.171 Y-41.959 E51.38277
G1 X31.703 Y-41.919 E51.39845
G1 X33.331 Y-41.594 E51.44724
G1 X33.693 Y-41.462 E51.45858
G1 X35.002 Y-40.846 E51.50108
G1 X35.335 Y-40.651 E51.51242
G1 X35.508 Y-40.525 E51.51872
G1 X36.779 Y-39.457 E51.56751
G1 X37.033 Y-39.166 E51.57886
G1 X37.998 Y-37.815 E51.62765
G1 X38.172 Y-37.471 E51.63899
G1 X38.771 Y-35.922 E51.68778
G1 X38.854 Y-35.545 E51.69912
G1 X39.048 Y-33.899 E51.74785
G1 X39.088 Y-0.820 E52.71997
G1 X38.818 Y33.691 E53.73419
G1 X38.623 Y35.327 E53.78259
G1 X38.540 Y35.703 E53.79393
G1 X38.474 Y35.907 E53.80023
G1 X37.851 Y37.446 E53.84903
G1 X37.653 Y37.778 E53.86037
G1 X36.803 Y38.948 E53.90287
G1 X36.549 Y39.238 E53.91421
G1 X35.278 Y40.307 E53.96300
G1 X34.960 Y40.525 E53.97434
G1 X33.463 Y41.244 E54.02313
G1 X33.101 Y41.376 E54.03447
G1 X31.472 Y41.700 E54.08326
G1 X31.088 Y41.738 E54.09460
G1 X-31.402 Y41.960 E55.93105
G1 X-31.985 Y41.889 E55.94833
G1 X-33.383 Y41.545 E55.99064
G1 X-33.933 Y41.336 E56.00793
G1 X-35.208 Y40.667 E56.05023
G1 X-35.692 Y40.333 E56.06752
G1 X-36.770 Y39.378 E56.10983
G1 X-37.032 Y39.100 E56.12107
G1 X-37.977 Y37.753 E56.16943
G1 X-38.251 Y37.232 E56.18671
G1 X-38.823 Y35.690 E56.23507
G1 X-38.902 Y35.315 E56.24631
G1 X-39.076 Y33.886 E56.28862
G1 X-39.088 Y-0.996 E57.31374
G1 X-38.880 Y-2.757 E57.36584
G1 X-38.528 Y-2.724 F3600.000
G1 F1500
G1 X-30.909 Y-36.450 E58.38196
G1 X-30.343 Y-38.210 E58.43630
G1 X-30.151 Y-38.587 E58.44874
G1 X-29.829 Y-38.918 E58.46231
G1 X-28.433 Y-39.932 E58.51300
G1 X-28.056 Y-40.124 E58.52543
G1 X-27.633 Y-40.202 E58.53806
G1 X31.179 Y-41.606 E60.26692
G1 X31.636 Y-41.571 E60.28040
G1 X33.222 Y-41.258 E60.32789
G1 X33.543 Y-41.142 E60.33793
G1 X34.852 Y-40.527 E60.38043
G1 X35.283 Y-40.253 E60.39545
G1 X36.521 Y-39.215 E60.44293
G1 X36.747 Y-38.958 E60.45297
G1 X37.688 Y-37.645 E60.50046
G1 X37.844 Y-37.341 E60.51050
G1 X38.428 Y-35.834 E60.55798
G1 X38.503 Y-35.501 E60.56802
G1 X38.695 Y-33.898 E60.61546
G1 X38.735 Y-0.820 E61.58757
G1 X38.465 Y33.688 E62.60171
G1 X38.273 Y35.282 E62.64889
G1 X38.198 Y35.616 E62.65893
G1 X37.541 Y37.276 E62.71140
G1 X37.367 Y37.570 E62.72144
G1 X36.517 Y38.740 E62.76394
G1 X36.291 Y38.996 E62.77398
G1 X35.053 Y40.034 E62.82147
G1 X34.770 Y40.226 E62.83150
G1 X33.313 Y40.924 E62.87899
G1 X32.991 Y41.039 E62.88903
G1 X31.406 Y41.353 E62.93652
G1 X31.066 Y41.385 E62.94655
G1 X-31.402 Y41.607 E64.78235
G1 X-31.901 Y41.546 E64.79713
G1 X-33.455 Y41.153 E64.84423
G1 X-33.769 Y41.023 E64.85422
G1 X-35.044 Y40.354 E64.89653
G1 X-35.458 Y40.068 E64.91131
G1 X-36.651 Y38.998 E64.95841
G1 X-36.869 Y38.737 E64.96841
G1 X-37.771 Y37.412 E65.01551
G1 X-37.920 Y37.107 E65.02550
G1 X-38.479 Y35.605 E65.07260
G1 X-38.551 Y35.273 E65.08260
G1 X-38.725 Y33.844 E65.12490
G1 X-38.735 Y-0.996 E66.14877
G1 X-38.535 Y-2.679 E66.19857
G1 E63.19857 F2400.00000
G92 E0
G1 X4.518 Y9.346 F3600.000
G1 E3.00000 F2400.00000
G1 F1500
G1 X-0.777 Y12.404 E3.17969
G1 X-1.251 Y12.130 E3.19578
G1 X-0.568 Y11.527 E3.22255
G1 X-0.036 Y10.911 E3.24648
G1 X0.219 Y10.552 E3.25942
G1 X0.626 Y9.847 E3.28335
G1 X0.947 Y9.084 E3.30767
G1 X1.164 Y8.305 E3.33144
G1 X1.244 Y7.866 E3.34454
G1 X1.311 Y7.068 E3.36809
G1 X1.306 Y6.627 E3.38103
G1 X1.221 Y5.817 E3.40497
G1 X1.032 Y5.012 E3.42929
G1 X0.750 Y4.253 E3.45306
G1 X0.557 Y3.852 E3.46615
G1 X0.135 Y3.155 E3.49009
G1 X-0.368 Y2.521 E3.51387
G1 X-0.676 Y2.199 E3.52696
G1 X-1.292 Y1.667 E3.55090
G1 X-1.982 Y1.209 E3.57523
G1 X-2.723 Y0.841 E3.59955
G1 X-3.505 Y0.569 E3.62387
G1 X-4.301 Y0.399 E3.64780
G1 X-4.726 Y0.350 E3.66037
G1 X-5.158 Y0.328 E3.67307
G1 X-5.966 Y0.362 E3.69685
G1 X-6.782 Y0.500 E3.72116
G1 X-7.574 Y0.739 E3.74549
G1 X-8.319 Y1.071 E3.76943
G1 X-8.707 Y1.290 E3.78253
G1 X-9.371 Y1.752 E3.80630
G1 X-9.976 Y2.296 E3.83023
G1 X-10.274 Y2.621 E3.84317
G1 X-10.758 Y3.259 E3.86671
G1 X-10.990 Y3.633 E3.87965
G1 X-11.352 Y4.362 E3.90359
G1 X-11.620 Y5.132 E3.92752
G1 X-11.725 Y5.559 E3.94046
G1 X-11.796 Y6.042 E3.95479
G1 X-12.279 Y5.763 E3.97117
G1 X-12.279 Y-7.519 E4.36149
G1 X-11.796 Y-7.797 E4.37786
G1 X-11.725 Y-7.315 E4.39219
G1 X-11.620 Y-6.887 E4.40513
G1 X-11.357 Y-6.131 E4.42868
G1 X-11.173 Y-5.730 E4.44162
G1 X-10.766 Y-5.025 E4.46555
G1 X-10.274 Y-4.376 E4.48949
G1 X-9.976 Y-4.052 E4.50243
G1 X-9.371 Y-3.507 E4.52636
G1 X-8.691 Y-3.035 E4.55068
G1 X-7.969 Y-2.658 E4.57462
G1 X-7.562 Y-2.491 E4.58756
G1 X-6.784 Y-2.257 E4.61142
