; generated by Slic3r 1.3.0 on 2024-05-29 at 08:40:34

; external perimeters extrusion width = 0.33mm (1.72mm^3/s)
; perimeters extrusion width = 0.40mm (2.83mm^3/s)
; infill extrusion width = 0.38mm (2.66mm^3/s)
; solid infill extrusion width = 0.40mm (2.12mm^3/s)
; top infill extrusion width = 0.40mm (2.12mm^3/s)

M190 S60 ; set bed temperature and wait for it to be reached
M104 S245 ; set temperature
G28 ; 
G1 Z5 F5000 ; 

; Filament gcode

M109 S245 ; set temperature and wait for it to be reached
G21 ; set units to millimeters
G90 ; use absolute coordinates
M82 ; use absolute distances for extrusion
G92 E0
M106 S127.5
G1 Z-0.050 F3600.000
G1 E-3.00000 F2400.00000
G92 E0
G1 X15.507 Y-20.233 F3600.000
G1 E3.00000 F2400.00000
G1 F1500
G1 X17.015 Y-20.279 E3.04431
G1 X18.026 Y-20.247 E3.07404
G1 X19.295 Y-20.135 E3.11148
G1 X20.812 Y-19.895 E3.15663
G1 X22.054 Y-19.609 E3.19407
G1 X23.275 Y-19.246 E3.23151
G1 X24.226 Y-18.903 E3.26123
G1 X25.636 Y-18.293 E3.30638
G1 X26.768 Y-17.707 E3.34382
G1 X27.638 Y-17.192 E3.37355
G1 X28.697 Y-16.483 E3.41099
G1 X29.708 Y-15.709 E3.44843
G1 X30.861 Y-14.693 E3.49358
G1 X31.756 Y-13.786 E3.53102
G1 X32.425 Y-13.027 E3.56074
G1 X33.212 Y-12.026 E3.59818
G1 X34.076 Y-10.755 E3.64333
G1 X34.717 Y-9.654 E3.68077
G1 X35.176 Y-8.753 E3.71050
G1 X35.690 Y-7.587 E3.74794
G1 X36.210 Y-6.142 E3.79309
G1 X36.492 Y-5.170 E3.82281
G1 X36.778 Y-3.929 E3.86025
G1 X36.986 Y-2.672 E3.89769
G1 X37.130 Y-1.142 E3.94284
G1 X37.162 Y-0.131 E3.97257
G1 X37.130 Y1.142 E4.01001
G1 X37.019 Y2.411 E4.04745
G1 X36.778 Y3.929 E4.09260
G1 X36.558 Y4.916 E4.12232
G1 X36.210 Y6.142 E4.15976
G1 X35.786 Y7.343 E4.19720
G1 X35.176 Y8.753 E4.24235
G1 X34.717 Y9.654 E4.27208
G1 X34.076 Y10.755 E4.30952
G1 X33.366 Y11.813 E4.34696
G1 X32.425 Y13.027 E4.39211
G1 X31.756 Y13.786 E4.42183
G1 X30.932 Y14.621 E4.45630
G1 X29.911 Y15.541 E4.49671
G1 X28.697 Y16.483 E4.54186
G1 X27.860 Y17.052 E4.57158
G1 X26.768 Y17.707 E4.60902
G1 X25.636 Y18.293 E4.64646
G1 X24.226 Y18.903 E4.69162
G1 X23.025 Y19.327 E4.72905
G1 X21.799 Y19.674 E4.76649
G1 X20.554 Y19.944 E4.80393
G1 X19.295 Y20.135 E4.84137
G1 X18.026 Y20.247 E4.87881
G1 X16.752 Y20.279 E4.91625
G1 X15.508 Y20.233 E4.95285
G1 X-21.599 Y16.983 E6.04751
G1 X-22.726 Y16.846 E6.08086
G1 X-23.779 Y16.649 E6.11233
G1 X-24.691 Y16.422 E6.13995
G1 X-25.709 Y16.104 E6.17130
G1 X-26.338 Y15.871 E6.19101
G1 X-27.203 Y15.504 E6.21863
G1 X-28.163 Y15.029 E6.25010
G1 X-29.087 Y14.496 E6.28146
G1 X-29.651 Y14.131 E6.30121
G1 X-30.519 Y13.506 E6.33263
G1 X-31.346 Y12.826 E6.36409
G1 X-32.036 Y12.187 E6.39173
G1 X-32.775 Y11.418 E6.42308
G1 X-33.215 Y10.910 E6.44283
G1 X-33.874 Y10.067 E6.47427
G1 X-34.408 Y9.293 E6.50191
G1 X-34.963 Y8.378 E6.53336
G1 X-35.279 Y7.791 E6.55296
G1 X-35.686 Y6.944 E6.58057
G1 X-35.944 Y6.331 E6.60011
G1 X-36.311 Y5.326 E6.63157
G1 X-36.580 Y4.423 E6.65926
G1 X-36.740 Y3.775 E6.67885
G1 X-36.923 Y2.854 E6.70647
G1 X-37.022 Y2.194 E6.72606
G1 X-37.117 Y1.258 E6.75370
G1 X-37.153 Y0.593 E6.77328
G1 X-37.157 Y-0.474 E6.80465
G1 X-37.105 Y-1.411 E6.83224
G1 X-37.037 Y-2.079 E6.85195
G1 X-36.896 Y-3.009 E6.87960
G1 X-36.766 Y-3.662 E6.89917
G1 X-36.539 Y-4.574 E6.92679
G1 X-36.347 Y-5.212 E6.94638
G1 X-36.035 Y-6.099 E6.97400
G1 X-35.785 Y-6.715 E6.99354
G1 X-35.391 Y-7.570 E7.02121
G1 X-35.084 Y-8.160 E7.04076
G1 X-34.610 Y-8.974 E7.06843
G1 X-34.249 Y-9.534 E7.08801
G1 X-33.623 Y-10.401 E7.11943
G1 X-33.028 Y-11.131 E7.14710
G1 X-32.583 Y-11.627 E7.16670
G1 X-31.924 Y-12.296 E7.19431
G1 X-31.429 Y-12.753 E7.21408
G1 X-30.613 Y-13.433 E7.24531
G1 X-29.855 Y-13.992 E7.27300
G1 X-29.303 Y-14.360 E7.29248
G1 X-28.495 Y-14.846 E7.32021
G1 X-27.912 Y-15.160 E7.33964
G1 X-27.060 Y-15.569 E7.36742
G1 X-26.446 Y-15.828 E7.38701
G1 X-25.564 Y-16.153 E7.41464
G1 X-24.928 Y-16.354 E7.43423
G1 X-23.892 Y-16.624 E7.46570
G1 X-22.970 Y-16.807 E7.49331
G1 X-22.311 Y-16.905 E7.51290
G1 X-21.785 Y-16.965 E7.52845
G1 X15.463 Y-20.229 E8.62728
G1 X15.538 Y-19.881 F3600.000
G1 F1500
G1 X17.004 Y-19.926 E8.67036
G1 X18.254 Y-19.879 E8.70715
G1 X19.261 Y-19.783 E8.73687
G1 X20.735 Y-19.550 E8.78072
G1 X21.955 Y-19.270 E8.81751
G1 X23.155 Y-18.913 E8.85429
G1 X24.107 Y-18.571 E8.88402
G1 X25.476 Y-17.978 E8.92787
G1 X26.588 Y-17.403 E8.96465
G1 X27.458 Y-16.888 E8.99438
G1 X28.498 Y-16.191 E9.03117
G1 X29.492 Y-15.430 E9.06795
G1 X30.611 Y-14.443 E9.11180
G1 X31.491 Y-13.552 E9.14859
G1 X32.160 Y-12.794 E9.17831
G1 X32.933 Y-11.809 E9.21510
G1 X33.643 Y-10.778 E9.25188
G1 X34.402 Y-9.494 E9.29573
G1 X34.861 Y-8.593 E9.32546
G1 X35.365 Y-7.447 E9.36224
G1 X35.871 Y-6.043 E9.40609
G1 X36.153 Y-5.072 E9.43582
G1 X36.433 Y-3.852 E9.47260
G1 X36.637 Y-2.617 E9.50939
G1 X36.777 Y-1.131 E9.55324
G1 X36.809 Y-0.120 E9.58296
G1 X36.777 Y1.131 E9.61975
G1 X36.667 Y2.378 E9.65654
G1 X36.433 Y3.852 E9.70039
G1 X36.213 Y4.839 E9.73011
G1 X35.871 Y6.043 E9.76690
G1 X35.454 Y7.223 E9.80368
G1 X34.861 Y8.593 E9.84753
G1 X34.402 Y9.494 E9.87726
G1 X33.771 Y10.575 E9.91404
G1 X33.074 Y11.615 E9.95083
G1 X32.160 Y12.794 E9.99468
G1 X31.491 Y13.552 E10.02440
G1 X30.682 Y14.371 E10.05822
G1 X29.677 Y15.276 E10.09797
G1 X28.498 Y16.191 E10.14182
G1 X27.661 Y16.759 E10.17154
G1 X26.588 Y17.403 E10.20833
G1 X25.476 Y17.978 E10.24512
G1 X24.330 Y18.482 E10.28190
G1 X23.155 Y18.913 E10.31869
G1 X21.955 Y19.270 E10.35548
G1 X20.735 Y19.550 E10.39226
G1 X19.261 Y19.783 E10.43611
G1 X18.014 Y19.894 E10.47290
G1 X16.763 Y19.926 E10.50969
G1 X15.538 Y19.881 E10.54570
G1 X-21.568 Y16.631 E11.64036
G1 X-22.668 Y16.498 E11.67290
G1 X-23.699 Y16.305 E11.70373
G1 X-24.600 Y16.080 E11.73102
G1 X-25.597 Y15.768 E11.76173
G1 X-26.211 Y15.542 E11.78096
G1 X-27.169 Y15.131 E11.81160
G1 X-28.105 Y14.658 E11.84242
G1 X-28.908 Y14.191 E11.86971
G1 X-29.782 Y13.611 E11.90053
G1 X-30.300 Y13.228 E11.91946
G1 X-31.110 Y12.563 E11.95026
G1 X-31.877 Y11.848 E11.98109
G1 X-32.518 Y11.175 E12.00841
G1 X-33.195 Y10.374 E12.03922
G1 X-33.586 Y9.862 E12.05816
G1 X-34.179 Y8.997 E12.08897
G1 X-34.716 Y8.096 E12.11980
G1 X-35.144 Y7.271 E12.14709
G1 X-35.413 Y6.686 E12.16603
G1 X-35.761 Y5.825 E12.19332
G1 X-35.974 Y5.218 E12.21223
G1 X-36.240 Y4.327 E12.23956
G1 X-36.395 Y3.701 E12.25850
G1 X-36.594 Y2.677 E12.28918
G1 X-36.718 Y1.751 E12.31661
G1 X-36.774 Y1.108 E12.33558
G1 X-36.810 Y0.064 E12.36630
G1 X-36.788 Y-0.867 E12.39366
G1 X-36.742 Y-1.507 E12.41250
G1 X-36.632 Y-2.433 E12.43992
G1 X-36.527 Y-3.064 E12.45871
G1 X-36.330 Y-3.976 E12.48612
G1 X-36.165 Y-4.599 E12.50506
G1 X-35.884 Y-5.484 E12.53236
G1 X-35.658 Y-6.093 E12.55146
G1 X-35.248 Y-7.052 E12.58212
G1 X-34.832 Y-7.883 E12.60941
G1 X-34.517 Y-8.445 E12.62835
G1 X-34.025 Y-9.233 E12.65564
G1 X-33.658 Y-9.763 E12.67458
G1 X-33.094 Y-10.501 E12.70187
G1 X-32.679 Y-10.994 E12.72082
G1 X-32.048 Y-11.675 E12.74811
G1 X-31.590 Y-12.126 E12.76699
G1 X-30.897 Y-12.746 E12.79434
G1 X-30.398 Y-13.152 E12.81321
G1 X-29.649 Y-13.704 E12.84057
G1 X-29.108 Y-14.065 E12.85969
G1 X-28.214 Y-14.599 E12.89029
G1 X-27.388 Y-15.027 E12.91763
G1 X-26.803 Y-15.296 E12.93656
G1 X-25.941 Y-15.645 E12.96387
G1 X-25.333 Y-15.858 E12.98280
G1 X-24.444 Y-16.123 E13.01009
G1 X-23.818 Y-16.278 E13.02903
G1 X-22.907 Y-16.459 E13.05632
G1 X-22.270 Y-16.554 E13.07525
G1 X-21.755 Y-16.613 E13.09050
G1 X15.493 Y-19.877 E14.18933
G1 X15.569 Y-19.529 F3600.000
G1 F1500
G1 X16.992 Y-19.572 E14.23117
G1 X18.003 Y-19.541 E14.26090
G1 X19.228 Y-19.432 E14.29703
G1 X20.658 Y-19.205 E14.33958
G1 X21.856 Y-18.930 E14.37571
G1 X23.130 Y-18.546 E14.41481
G1 X24.190 Y-18.158 E14.44798
G1 X25.118 Y-17.756 E14.47770
G1 X26.408 Y-17.099 E14.52025
G1 X27.463 Y-16.467 E14.55638
G1 X28.299 Y-15.898 E14.58610
G1 X29.275 Y-15.150 E14.62224
G1 X30.361 Y-14.193 E14.66478
G1 X31.076 Y-13.478 E14.69451
G1 X31.894 Y-12.560 E14.73064
G1 X32.782 Y-11.416 E14.77318
G1 X33.467 Y-10.395 E14.80932
G1 X33.982 Y-9.525 E14.83904
G1 X34.546 Y-8.432 E14.87518
G1 X35.121 Y-7.104 E14.91772
G1 X35.464 Y-6.152 E14.94745
G1 X35.814 Y-4.973 E14.98358
G1 X36.129 Y-3.560 E15.02613
G1 X36.288 Y-2.561 E15.05585
G1 X36.410 Y-1.338 E15.09198
G1 X36.456 Y-0.109 E15.12812
G1 X36.410 Y1.338 E15.17066
G1 X36.315 Y2.345 E15.20039
G1 X36.145 Y3.460 E15.23355
G1 X35.868 Y4.762 E15.27265
G1 X35.464 Y6.152 E15.31520
G1 X35.121 Y7.104 E15.34492
G1 X34.639 Y8.235 E15.38105
G1 X33.982 Y9.525 E15.42360
G1 X33.350 Y10.579 E15.45973
G1 X32.653 Y11.593 E15.49587
G1 X32.034 Y12.392 E15.52559
G1 X31.226 Y13.319 E15.56173
G1 X30.202 Y14.342 E15.60427
G1 X29.443 Y15.011 E15.63399
G1 X28.476 Y15.770 E15.67013
G1 X27.279 Y16.584 E15.71267
G1 X26.217 Y17.204 E15.74881
G1 X25.118 Y17.756 E15.78494
G1 X23.987 Y18.238 E15.82108
G1 X22.828 Y18.648 E15.85721
G1 X21.645 Y18.985 E15.89335
G1 X20.444 Y19.246 E15.92948
G1 X19.228 Y19.432 E15.96561
G1 X18.003 Y19.541 E16.00175
G1 X16.774 Y19.572 E16.03788
G1 X15.569 Y19.529 E16.07332
G1 X-21.538 Y16.279 E17.16798
G1 X-22.609 Y16.149 E17.19970
G1 X-23.512 Y15.984 E17.22667
G1 X-24.509 Y15.739 E17.25684
G1 X-25.489 Y15.432 E17.28702
G1 X-26.078 Y15.214 E17.30547
G1 X-27.016 Y14.812 E17.33547
G1 X-27.932 Y14.350 E17.36563
G1 X-28.726 Y13.889 E17.39260
G1 X-29.581 Y13.321 E17.42276
G1 X-30.081 Y12.951 E17.44104
G1 X-30.874 Y12.300 E17.47120
G1 X-31.625 Y11.600 E17.50137
G1 X-32.259 Y10.935 E17.52836
G1 X-32.921 Y10.151 E17.55852
G1 X-33.299 Y9.656 E17.57681
G1 X-33.879 Y8.810 E17.60696
G1 X-34.405 Y7.928 E17.63714
G1 X-34.827 Y7.114 E17.66411
G1 X-35.087 Y6.548 E17.68240
G1 X-35.431 Y5.698 E17.70936
G1 X-35.638 Y5.109 E17.72768
G1 X-35.927 Y4.127 E17.75777
G1 X-36.133 Y3.236 E17.78466
G1 X-36.245 Y2.624 E17.80294
G1 X-36.367 Y1.710 E17.83003
G1 X-36.421 Y1.089 E17.84836
G1 X-36.457 Y0.066 E17.87843
G1 X-36.435 Y-0.853 E17.90546
G1 X-36.391 Y-1.471 E17.92366
G1 X-36.282 Y-2.386 E17.95074
G1 X-36.180 Y-2.995 E17.96889
G1 X-35.986 Y-3.896 E17.99596
G1 X-35.826 Y-4.497 E18.01425
G1 X-35.549 Y-5.372 E18.04122
G1 X-35.331 Y-5.961 E18.05969
G1 X-34.929 Y-6.899 E18.08967
G1 X-34.518 Y-7.720 E18.11664
G1 X-34.214 Y-8.263 E18.13493
G1 X-33.728 Y-9.041 E18.16189
G1 X-33.374 Y-9.552 E18.18017
G1 X-32.817 Y-10.282 E18.20714
G1 X-32.416 Y-10.758 E18.22544
G1 X-31.793 Y-11.431 E18.25240
G1 X-31.350 Y-11.866 E18.27064
G1 X-30.665 Y-12.479 E18.29765
G1 X-30.184 Y-12.871 E18.31588
G1 X-29.444 Y-13.417 E18.34291
G1 X-28.926 Y-13.763 E18.36122
G1 X-28.046 Y-14.287 E18.39132
G1 X-27.230 Y-14.711 E18.41833
G1 X-26.665 Y-14.971 E18.43662
G1 X-25.814 Y-15.315 E18.46359
G1 X-25.227 Y-15.521 E18.48187
G1 X-24.348 Y-15.783 E18.50884
G1 X-23.744 Y-15.933 E18.52713
G1 X-22.844 Y-16.111 E18.55409
G1 X-22.229 Y-16.203 E18.57237
G1 X-21.724 Y-16.261 E18.58730
G1 X15.524 Y-19.525 E19.68613
G1 X15.600 Y-19.177 F3600.000
G1 F1500
G1 X16.981 Y-19.219 E19.72675
G1 X17.992 Y-19.187 E19.75647
G1 X19.195 Y-19.080 E19.79195
G1 X20.388 Y-18.897 E19.82744
G1 X21.758 Y-18.591 E19.86867
G1 X22.916 Y-18.248 E19.90416
G1 X23.867 Y-17.905 E19.93388
G1 X25.155 Y-17.348 E19.97512
G1 X26.228 Y-16.795 E20.01060
G1 X27.099 Y-16.280 E20.04033
G1 X28.101 Y-15.606 E20.07581
G1 X29.058 Y-14.871 E20.11129
G1 X30.111 Y-13.943 E20.15253
G1 X30.826 Y-13.228 E20.18226
G1 X31.629 Y-12.326 E20.21774
G1 X32.489 Y-11.217 E20.25898
G1 X33.163 Y-10.215 E20.29446
G1 X33.678 Y-9.345 E20.32419
G1 X34.232 Y-8.272 E20.35967
G1 X34.789 Y-6.984 E20.40091
G1 X35.131 Y-6.032 E20.43063
G1 X35.474 Y-4.874 E20.46611
G1 X35.780 Y-3.505 E20.50735
G1 X35.939 Y-2.506 E20.53708
G1 X36.058 Y-1.305 E20.57256
G1 X36.102 Y-0.098 E20.60804
G1 X36.058 Y1.305 E20.64928
G1 X35.963 Y2.312 E20.67901
G1 X35.796 Y3.405 E20.71151
G1 X35.523 Y4.685 E20.74997
G1 X35.131 Y6.032 E20.79121
G1 X34.717 Y7.166 E20.82669
G1 X34.231 Y8.272 E20.86217
G1 X33.772 Y9.173 E20.89189
G1 X33.163 Y10.215 E20.92737
G1 X32.374 Y11.376 E20.96862
G1 X31.754 Y12.175 E20.99834
G1 X30.960 Y13.085 E21.03382
G1 X29.968 Y14.077 E21.07506
G1 X29.210 Y14.746 E21.10479
G1 X28.259 Y15.491 E21.14027
G1 X27.099 Y16.280 E21.18151
G1 X26.056 Y16.889 E21.21699
G1 X24.978 Y17.432 E21.25247
G1 X23.867 Y17.905 E21.28795
G1 X22.729 Y18.309 E21.32344
G1 X21.568 Y18.640 E21.35892
G1 X20.388 Y18.897 E21.39440
G1 X19.195 Y19.080 E21.42988
G1 X17.992 Y19.187 E21.46537
G1 X16.785 Y19.219 E21.50085
G1 X15.600 Y19.177 E21.53570
G1 X-21.507 Y15.927 E22.63036
G1 X-22.551 Y15.800 E22.66128
G1 X-23.539 Y15.616 E22.69080
G1 X-24.418 Y15.397 E22.71744
G1 X-25.377 Y15.097 E22.74696
G1 X-26.314 Y14.737 E22.77648
G1 X-27.227 Y14.319 E22.80598
G1 X-27.760 Y14.042 E22.82362
G1 X-28.626 Y13.534 E22.85313
G1 X-29.457 Y12.974 E22.88258
G1 X-30.254 Y12.362 E22.91210
G1 X-30.940 Y11.766 E22.93880
G1 X-31.374 Y11.351 E22.95645
G1 X-32.064 Y10.623 E22.98595
G1 X-32.647 Y9.928 E23.01259
G1 X-33.246 Y9.122 E23.04211
G1 X-33.792 Y8.280 E23.07162
G1 X-34.285 Y7.405 E23.10113
G1 X-34.553 Y6.867 E23.11877
G1 X-34.955 Y5.950 E23.14822
G1 X-35.269 Y5.097 E23.17493
G1 X-35.450 Y4.525 E23.19254
G1 X-35.682 Y3.648 E23.21919
G1 X-35.808 Y3.062 E23.23684
G1 X-35.956 Y2.167 E23.26347
G1 X-36.026 Y1.572 E23.28109
G1 X-36.090 Y0.666 E23.30777
G1 X-36.103 Y0.069 E23.32533
G1 X-36.082 Y-0.839 E23.35202
G1 X-36.039 Y-1.439 E23.36969
G1 X-35.917 Y-2.432 E23.39911
G1 X-35.754 Y-3.326 E23.42581
G1 X-35.618 Y-3.911 E23.44345
G1 X-35.371 Y-4.783 E23.47008
G1 X-35.181 Y-5.352 E23.48772
G1 X-34.816 Y-6.286 E23.51720
G1 X-34.435 Y-7.111 E23.54388
G1 X-34.159 Y-7.642 E23.56149
G1 X-33.702 Y-8.427 E23.58816
G1 X-33.377 Y-8.930 E23.60579
G1 X-32.849 Y-9.668 E23.63243
G1 X-32.478 Y-10.138 E23.65006
G1 X-31.883 Y-10.823 E23.67670
G1 X-31.468 Y-11.257 E23.69434
G1 X-30.812 Y-11.882 E23.72097
G1 X-30.048 Y-12.528 E23.75037
G1 X-29.570 Y-12.892 E23.76804
G1 X-28.822 Y-13.409 E23.79477
G1 X-28.312 Y-13.726 E23.81240
G1 X-27.521 Y-14.169 E23.83905
G1 X-26.984 Y-14.437 E23.85667
G1 X-26.155 Y-14.803 E23.88332
G1 X-25.595 Y-15.019 E23.90095
G1 X-24.735 Y-15.305 E23.92759
G1 X-24.157 Y-15.468 E23.94523
G1 X-23.274 Y-15.672 E23.97187
G1 X-22.687 Y-15.779 E23.98940
G1 X-21.785 Y-15.900 E24.01615
G1 X15.555 Y-19.173 E25.11770
G1 X15.631 Y-18.825 F3600.000
G1 F1500
G1 X16.970 Y-18.866 E25.15708
G1 X18.155 Y-18.823 E25.19191
G1 X19.162 Y-18.728 E25.22164
G1 X20.504 Y-18.515 E25.26157
G1 X21.659 Y-18.251 E25.29640
G1 X22.891 Y-17.881 E25.33420
G1 X23.909 Y-17.509 E25.36606
G1 X24.837 Y-17.107 E25.39578
G1 X26.048 Y-16.490 E25.43572
G1 X26.919 Y-15.975 E25.46544
G1 X27.902 Y-15.314 E25.50027
G1 X28.842 Y-14.592 E25.53510
G1 X29.861 Y-13.693 E25.57504
G1 X30.576 Y-12.978 E25.60476
G1 X31.364 Y-12.092 E25.63959
G1 X32.197 Y-11.019 E25.67953
G1 X32.859 Y-10.035 E25.71436
G1 X33.374 Y-9.165 E25.74408
G1 X33.917 Y-8.111 E25.77891
G1 X34.456 Y-6.864 E25.81885
G1 X34.799 Y-5.912 E25.84857
G1 X35.135 Y-4.776 E25.88340
G1 X35.431 Y-3.450 E25.92334
G1 X35.611 Y-2.278 E25.95817
G1 X35.717 Y-1.098 E25.99300
G1 X35.749 Y-0.087 E26.02272
G1 X35.717 Y1.098 E26.05755
G1 X35.611 Y2.278 E26.09238
G1 X35.399 Y3.620 E26.13232
G1 X35.178 Y4.608 E26.16204
G1 X34.853 Y5.747 E26.19687
G1 X34.392 Y7.026 E26.23681
G1 X33.991 Y7.954 E26.26653
G1 X33.457 Y9.012 E26.30136
G1 X32.766 Y10.182 E26.34130
G1 X32.095 Y11.159 E26.37613
G1 X31.475 Y11.959 E26.40585
G1 X30.695 Y12.851 E26.44068
G1 X29.734 Y13.812 E26.48062
G1 X28.842 Y14.592 E26.51545
G1 X28.043 Y15.212 E26.54517
G1 X27.065 Y15.882 E26.58000
G1 X25.896 Y16.574 E26.61993
G1 X24.837 Y17.107 E26.65476
G1 X23.747 Y17.573 E26.68959
G1 X22.631 Y17.969 E26.72442
G1 X21.491 Y18.295 E26.75925
G1 X20.333 Y18.548 E26.79409
G1 X19.162 Y18.728 E26.82891
G1 X17.981 Y18.834 E26.86375
G1 X16.796 Y18.866 E26.89858
G1 X15.631 Y18.825 E26.93285
G1 X-21.476 Y15.575 E28.02751
G1 X-22.493 Y15.452 E28.05761
G1 X-23.374 Y15.290 E28.08393
G1 X-24.327 Y15.056 E28.11279
G1 X-25.265 Y14.762 E28.14166
G1 X-26.181 Y14.409 E28.17052
G1 X-27.074 Y14.000 E28.19938
G1 X-27.587 Y13.733 E28.21636
G1 X-28.434 Y13.237 E28.24523
G1 X-29.247 Y12.690 E28.27403
G1 X-30.026 Y12.092 E28.30289
G1 X-30.704 Y11.503 E28.32926
G1 X-31.405 Y10.816 E28.35812
G1 X-31.801 Y10.387 E28.37529
G1 X-32.427 Y9.637 E28.40397
