; generated by Slic3r 1.3.0 on 2024-05-30 at 12:10:00

; external perimeters extrusion width = 0.33mm (1.72mm^3/s)
; perimeters extrusion width = 0.40mm (2.83mm^3/s)
; infill extrusion width = 0.38mm (2.66mm^3/s)
; solid infill extrusion width = 0.40mm (2.12mm^3/s)
; top infill extrusion width = 0.40mm (2.12mm^3/s)

M190 S60 ; set bed temperature and wait for it to be reached
M104 S245 ; set temperature
G28 ; 
G1 Z5 F5000 ; 

; Filament gcode

M109 S245 ; set temperature and wait for it to be reached
G21 ; set units to millimeters
G90 ; use absolute coordinates
M82 ; use absolute distances for extrusion
G92 E0
M106 S127.5
G1 Z-0.050 F3600.000
G1 E-3.00000 F2400.00000
G92 E0
G1 X-16.324 Y13.114 F3600.000
G1 E3.00000 F2400.00000
G1 F1500
G1 X-18.326 Y11.046 E3.08459
G1 X-19.007 Y9.748 E3.12764
G1 X-19.601 Y8.409 E3.17070
G1 X-19.996 Y7.359 E3.20368
G1 X-20.412 Y6.027 E3.24467
G1 X-20.776 Y4.536 E3.28979
G1 X-21.070 Y2.752 E3.34292
G1 X-21.180 Y1.635 E3.37590
G1 X-21.240 Y0.171 E3.41896
G1 X-21.180 Y-1.635 E3.47208
G1 X-21.070 Y-2.752 E3.50506
G1 X-20.854 Y-4.130 E3.54606
G1 X-20.521 Y-5.629 E3.59117
G1 X-19.996 Y-7.359 E3.64430
G1 X-19.470 Y-8.726 E3.68736
G1 X-19.007 Y-9.748 E3.72034
G1 X-18.326 Y-11.046 E3.76339
G1 X-16.324 Y-13.114 E3.84798
G1 X-1.472 Y-21.689 E4.35198
G1 X1.320 Y-22.388 E4.43656
G1 X2.442 Y-22.352 E4.46955
G1 X3.901 Y-22.219 E4.51260
G1 X5.348 Y-21.992 E4.55566
G1 X6.778 Y-21.670 E4.59872
G1 X8.508 Y-21.145 E4.65184
G1 X9.875 Y-20.619 E4.69490
G1 X11.205 Y-20.004 E4.73795
G1 X12.492 Y-19.303 E4.78101
G1 X13.730 Y-18.520 E4.82407
G1 X14.914 Y-17.657 E4.86712
G1 X15.782 Y-16.946 E4.90010
G1 X17.101 Y-15.710 E4.95323
G1 X18.094 Y-14.633 E4.99629
G1 X19.015 Y-13.493 E5.03934
G1 X19.669 Y-12.581 E5.07233
G1 X20.452 Y-11.343 E5.11538
G1 X21.242 Y-8.575 E5.19997
G1 X21.242 Y8.575 E5.70397
G1 X20.452 Y11.343 E5.78856
G1 X19.669 Y12.581 E5.83161
G1 X18.806 Y13.765 E5.87467
G1 X18.094 Y14.633 E5.90765
G1 X17.101 Y15.710 E5.95070
G1 X15.782 Y16.945 E6.00383
G1 X14.642 Y17.866 E6.04689
G1 X13.385 Y18.748 E6.09200
G1 X12.194 Y19.475 E6.13300
G1 X11.205 Y20.004 E6.16598
G1 X9.558 Y20.750 E6.21910
G1 X8.183 Y21.255 E6.26216
G1 X6.778 Y21.670 E6.30522
G1 X5.348 Y21.992 E6.34827
G1 X3.901 Y22.219 E6.39133
G1 X2.784 Y22.329 E6.42431
G1 X1.320 Y22.388 E6.46737
G1 X-1.472 Y21.689 E6.55195
G1 X-16.285 Y13.136 E7.05463
G1 X-16.147 Y12.808 F3600.000
G1 F1500
G1 X-18.014 Y10.879 E7.13351
G1 X-18.685 Y9.602 E7.17589
G1 X-19.148 Y8.580 E7.20887
G1 X-19.665 Y7.234 E7.25125
G1 X-20.094 Y5.858 E7.29363
G1 X-20.494 Y4.142 E7.34539
G1 X-20.677 Y3.035 E7.37837
G1 X-20.822 Y1.671 E7.41869
G1 X-20.886 Y0.160 E7.46313
G1 X-20.829 Y-1.601 E7.51489
G1 X-20.719 Y-2.718 E7.54787
G1 X-20.505 Y-4.073 E7.58819
G1 X-20.177 Y-5.549 E7.63262
G1 X-19.665 Y-7.234 E7.68439
G1 X-19.148 Y-8.580 E7.72677
G1 X-18.685 Y-9.602 E7.75975
G1 X-18.014 Y-10.879 E7.80213
G1 X-16.147 Y-12.808 E7.88101
G1 X-1.295 Y-21.383 E8.38501
G1 X1.309 Y-22.035 E8.46389
G1 X2.430 Y-21.998 E8.49688
G1 X3.866 Y-21.867 E8.53925
G1 X5.291 Y-21.643 E8.58163
G1 X6.697 Y-21.326 E8.62400
G1 X8.383 Y-20.814 E8.67577
G1 X9.729 Y-20.297 E8.71815
G1 X11.038 Y-19.692 E8.76053
G1 X12.305 Y-19.003 E8.80290
G1 X13.524 Y-18.233 E8.84528
G1 X14.690 Y-17.384 E8.88766
G1 X15.557 Y-16.672 E8.92064
G1 X16.617 Y-15.694 E8.96301
G1 X17.562 Y-14.700 E9.00333
G1 X17.821 Y-14.409 E9.01479
G1 X18.728 Y-13.287 E9.05716
G1 X19.382 Y-12.375 E9.09015
G1 X20.152 Y-11.156 E9.13252
G1 X20.889 Y-8.575 E9.21141
G1 X20.889 Y8.575 E9.71541
G1 X20.152 Y11.156 E9.79429
G1 X19.559 Y12.109 E9.82727
G1 X18.728 Y13.287 E9.86965
G1 X17.821 Y14.409 E9.91202
G1 X16.617 Y15.694 E9.96379
G1 X15.557 Y16.672 E10.00617
G1 X14.436 Y17.579 E10.04854
G1 X13.258 Y18.410 E10.09092
G1 X12.305 Y19.003 E10.12390
G1 X11.038 Y19.692 E10.16628
G1 X9.729 Y20.297 E10.20865
G1 X8.080 Y20.917 E10.26042
G1 X6.697 Y21.326 E10.30280
G1 X5.291 Y21.643 E10.34518
G1 X3.866 Y21.867 E10.38755
G1 X2.750 Y21.977 E10.42053
G1 X1.309 Y22.035 E10.46291
G1 X-1.295 Y21.383 E10.54179
G1 X-16.108 Y12.830 E11.04447
G1 X-15.971 Y12.502 F3600.000
G1 F1500
G1 X-17.702 Y10.712 E11.11765
G1 X-18.363 Y9.457 E11.15935
G1 X-18.826 Y8.434 E11.19233
G1 X-19.335 Y7.110 E11.23403
G1 X-19.756 Y5.755 E11.27572
G1 X-20.145 Y4.084 E11.32613
G1 X-20.328 Y2.977 E11.35911
G1 X-20.470 Y1.636 E11.39875
G1 X-20.533 Y0.148 E11.44251
G1 X-20.477 Y-1.566 E11.49292
G1 X-20.367 Y-2.683 E11.52590
G1 X-20.157 Y-4.015 E11.56554
G1 X-19.833 Y-5.468 E11.60929
G1 X-19.335 Y-7.110 E11.65970
G1 X-18.826 Y-8.434 E11.70140
G1 X-18.363 Y-9.457 E11.73438
G1 X-17.702 Y-10.712 E11.77607
G1 X-15.971 Y-12.502 E11.84925
G1 X-1.118 Y-21.077 E12.35325
G1 X1.297 Y-21.682 E12.42643
G1 X2.419 Y-21.645 E12.45941
G1 X3.832 Y-21.516 E12.50111
G1 X5.233 Y-21.294 E12.54281
G1 X6.617 Y-20.981 E12.58450
G1 X8.259 Y-20.484 E12.63492
G1 X9.583 Y-19.975 E12.67661
G1 X10.872 Y-19.380 E12.71831
G1 X12.118 Y-18.703 E12.76001
G1 X13.318 Y-17.945 E12.80170
G1 X14.466 Y-17.111 E12.84340
G1 X15.333 Y-16.399 E12.87638
G1 X16.375 Y-15.436 E12.91808
G1 X17.304 Y-14.459 E12.95771
G1 X17.548 Y-14.184 E12.96849
G1 X18.441 Y-13.081 E13.01019
G1 X19.094 Y-12.169 E13.04317
G1 X19.852 Y-10.969 E13.08487
G1 X20.535 Y-8.575 E13.15805
G1 X20.535 Y8.575 E13.66205
G1 X19.852 Y10.969 E13.73523
G1 X19.259 Y11.922 E13.76821
G1 X18.441 Y13.081 E13.80991
G1 X17.548 Y14.184 E13.85160
G1 X16.585 Y15.226 E13.89330
G1 X15.556 Y16.203 E13.93500
G1 X14.230 Y17.292 E13.98541
G1 X13.012 Y18.147 E14.02916
G1 X11.861 Y18.851 E14.06880
G1 X10.872 Y19.380 E14.10178
G1 X9.309 Y20.088 E14.15219
G1 X7.978 Y20.579 E14.19389
G1 X6.617 Y20.981 E14.23558
G1 X5.233 Y21.294 E14.27728
G1 X3.832 Y21.516 E14.31898
G1 X2.715 Y21.626 E14.35196
G1 X1.297 Y21.682 E14.39366
G1 X-1.118 Y21.077 E14.46683
G1 X-15.932 Y12.524 E14.96951
G1 X-15.794 Y12.196 F3600.000
G1 F1500
G1 X-17.391 Y10.546 E15.03699
G1 X-18.041 Y9.311 E15.07800
G1 X-18.504 Y8.288 E15.11099
G1 X-19.004 Y6.985 E15.15200
G1 X-19.418 Y5.652 E15.19302
G1 X-19.797 Y4.027 E15.24207
G1 X-19.979 Y2.920 E15.27505
G1 X-20.118 Y1.601 E15.31401
G1 X-20.180 Y0.137 E15.35709
G1 X-20.125 Y-1.531 E15.40614
G1 X-20.015 Y-2.648 E15.43912
G1 X-19.808 Y-3.958 E15.47808
G1 X-19.488 Y-5.388 E15.52115
G1 X-19.004 Y-6.985 E15.57020
G1 X-18.504 Y-8.288 E15.61122
G1 X-18.041 Y-9.311 E15.64420
G1 X-17.391 Y-10.546 E15.68522
G1 X-15.794 Y-12.196 E15.75269
G1 X-0.942 Y-20.771 E16.25669
G1 X1.286 Y-21.329 E16.32417
G1 X2.407 Y-21.292 E16.35715
G1 X3.797 Y-21.164 E16.39817
G1 X5.176 Y-20.945 E16.43919
G1 X6.537 Y-20.637 E16.48020
G1 X8.134 Y-20.153 E16.52926
G1 X9.437 Y-19.653 E16.57027
G1 X10.705 Y-19.069 E16.61129
G1 X11.932 Y-18.403 E16.65231
G1 X13.112 Y-17.658 E16.69332
G1 X14.241 Y-16.838 E16.73434
G1 X15.109 Y-16.126 E16.76732
G1 X16.327 Y-14.985 E16.81638
G1 X17.275 Y-13.960 E16.85739
G1 X18.153 Y-12.876 E16.89841
G1 X18.807 Y-11.963 E16.93139
G1 X19.552 Y-10.783 E16.97241
G1 X20.182 Y-8.575 E17.03989
G1 X20.182 Y8.575 E17.54389
G1 X19.552 Y10.783 E17.61136
G1 X18.959 Y11.736 E17.64434
G1 X18.153 Y12.876 E17.68536
G1 X17.275 Y13.960 E17.72638
G1 X16.327 Y14.985 E17.76739
G1 X15.109 Y16.126 E17.81645
G1 X14.024 Y17.004 E17.85746
G1 X12.885 Y17.810 E17.89848
G1 X11.932 Y18.403 E17.93146
G1 X10.705 Y19.069 E17.97248
G1 X9.437 Y19.653 E18.01350
G1 X7.875 Y20.241 E18.06255
G1 X6.537 Y20.637 E18.10357
G1 X5.176 Y20.945 E18.14458
G1 X3.797 Y21.164 E18.18560
G1 X2.680 Y21.274 E18.21858
G1 X1.286 Y21.329 E18.25960
G1 X-0.942 Y20.771 E18.32708
G1 X-15.755 Y12.218 E18.82975
G1 X-15.617 Y11.890 F3600.000
G1 F1500
G1 X-17.079 Y10.379 E18.89152
G1 X-17.719 Y9.165 E18.93186
G1 X-18.182 Y8.143 E18.96484
G1 X-18.673 Y6.861 E19.00518
G1 X-19.079 Y5.550 E19.04552
G1 X-19.448 Y3.969 E19.09321
G1 X-19.631 Y2.862 E19.12619
G1 X-19.767 Y1.567 E19.16447
G1 X-19.827 Y0.125 E19.20687
G1 X-19.773 Y-1.497 E19.25456
G1 X-19.663 Y-2.614 E19.28754
G1 X-19.459 Y-3.900 E19.32582
G1 X-19.144 Y-5.308 E19.36821
G1 X-18.673 Y-6.861 E19.41591
G1 X-18.182 Y-8.143 E19.45625
G1 X-17.719 Y-9.165 E19.48923
G1 X-17.079 Y-10.379 E19.52957
G1 X-15.617 Y-11.890 E19.59134
G1 X-0.765 Y-20.465 E20.09534
G1 X1.274 Y-20.975 E20.15711
G1 X2.396 Y-20.939 E20.19009
G1 X3.763 Y-20.812 E20.23043
G1 X5.118 Y-20.597 E20.27077
G1 X6.457 Y-20.293 E20.31110
G1 X7.773 Y-19.902 E20.35144
G1 X9.060 Y-19.427 E20.39178
G1 X10.600 Y-18.724 E20.44153
G1 X11.745 Y-18.103 E20.47981
G1 X12.906 Y-17.371 E20.52014
G1 X14.017 Y-16.565 E20.56048
G1 X15.073 Y-15.688 E20.60082
G1 X15.892 Y-14.920 E20.63380
G1 X16.836 Y-13.924 E20.67414
G1 X17.713 Y-12.868 E20.71448
G1 X18.520 Y-11.757 E20.75482
G1 X19.251 Y-10.596 E20.79515
G1 X19.829 Y-8.575 E20.85693
G1 X19.829 Y8.575 E21.36093
G1 X19.251 Y10.596 E21.42270
G1 X18.520 Y11.757 E21.46303
G1 X17.713 Y12.868 E21.50337
G1 X16.836 Y13.924 E21.54371
G1 X15.892 Y14.920 E21.58405
G1 X15.073 Y15.688 E21.61703
G1 X14.017 Y16.565 E21.65737
G1 X12.906 Y17.371 E21.69771
G1 X11.745 Y18.103 E21.73804
G1 X10.538 Y18.757 E21.77838
G1 X9.060 Y19.427 E21.82608
G1 X7.773 Y19.902 E21.86641
G1 X6.457 Y20.293 E21.90675
G1 X5.118 Y20.597 E21.94709
G1 X3.763 Y20.812 E21.98743
G1 X2.646 Y20.922 E22.02041
G1 X1.274 Y20.975 E22.06075
G1 X-0.765 Y20.465 E22.12252
G1 X-15.578 Y11.912 E22.62520
G1 X-15.441 Y11.584 F3600.000
G1 F1500
G1 X-16.767 Y10.213 E22.68126
G1 X-17.397 Y9.019 E22.72092
G1 X-17.860 Y7.997 E22.75390
G1 X-18.342 Y6.736 E22.79356
G1 X-18.741 Y5.447 E22.83322
G1 X-19.099 Y3.912 E22.87956
G1 X-19.282 Y2.804 E22.91254
G1 X-19.415 Y1.532 E22.95013
G1 X-19.473 Y0.114 E22.99185
G1 X-19.422 Y-1.462 E23.03819
G1 X-19.312 Y-2.579 E23.07117
G1 X-19.111 Y-3.842 E23.10876
G1 X-18.800 Y-5.228 E23.15048
G1 X-18.342 Y-6.736 E23.19682
G1 X-17.860 Y-7.997 E23.23647
G1 X-17.397 Y-9.019 E23.26945
G1 X-16.767 Y-10.213 E23.30911
G1 X-15.441 Y-11.584 E23.36518
G1 X-0.588 Y-20.159 E23.86918
G1 X1.262 Y-20.622 E23.92525
G1 X2.384 Y-20.585 E23.95823
G1 X3.728 Y-20.461 E23.99789
G1 X5.061 Y-20.248 E24.03755
G1 X6.376 Y-19.949 E24.07721
G1 X7.670 Y-19.564 E24.11686
G1 X8.936 Y-19.096 E24.15652
G1 X10.372 Y-18.445 E24.20286
G1 X11.558 Y-17.802 E24.24252
G1 X12.700 Y-17.084 E24.28217
G1 X13.793 Y-16.291 E24.32183
G1 X14.660 Y-15.579 E24.35481
G1 X15.651 Y-14.662 E24.39447
G1 X16.578 Y-13.683 E24.43413
G1 X17.440 Y-12.644 E24.47379
G1 X18.232 Y-11.552 E24.51345
G1 X18.951 Y-10.410 E24.55311
G1 X19.475 Y-8.575 E24.60917
G1 X19.475 Y8.575 E25.11317
G1 X18.951 Y10.410 E25.16924
G1 X18.232 Y11.552 E25.20890
G1 X17.440 Y12.644 E25.24856
G1 X16.578 Y13.683 E25.28822
G1 X15.651 Y14.662 E25.32788
G1 X14.606 Y15.624 E25.36959
G1 X13.613 Y16.430 E25.40719
G1 X12.700 Y17.084 E25.44017
G1 X11.558 Y17.802 E25.47983
G1 X10.168 Y18.546 E25.52617
G1 X8.936 Y19.096 E25.56582
G1 X7.670 Y19.564 E25.60548
G1 X6.376 Y19.949 E25.64514
G1 X5.061 Y20.248 E25.68480
G1 X3.728 Y20.461 E25.72446
G1 X2.611 Y20.571 E25.75744
G1 X1.262 Y20.622 E25.79710
G1 X-0.588 Y20.159 E25.85317
G1 X-15.402 Y11.606 E26.35584
G1 X-15.264 Y11.277 F3600.000
G1 F1500
G1 X-16.456 Y10.046 E26.40621
G1 X-17.075 Y8.873 E26.44519
G1 X-17.538 Y7.851 E26.47817
G1 X-18.012 Y6.612 E26.51715
G1 X-18.403 Y5.345 E26.55613
G1 X-18.751 Y3.854 E26.60110
G1 X-18.933 Y2.747 E26.63408
G1 X-19.063 Y1.497 E26.67100
G1 X-19.120 Y0.102 E26.71204
G1 X-19.083 Y-1.224 E26.75102
G1 X-18.933 Y-2.747 E26.79599
G1 X-18.751 Y-3.854 E26.82898
G1 X-18.456 Y-5.147 E26.86795
G1 X-18.077 Y-6.419 E26.90693
G1 X-17.538 Y-7.851 E26.95191
G1 X-17.075 Y-8.873 E26.98489
G1 X-16.456 Y-10.046 E27.02387
G1 X-15.264 Y-11.277 E27.07423
G1 X-0.411 Y-19.852 E27.57823
G1 X1.251 Y-20.269 E27.62859
G1 X2.373 Y-20.232 E27.66158
G1 X3.693 Y-20.109 E27.70056
G1 X5.003 Y-19.899 E27.73953
G1 X6.296 Y-19.605 E27.77851
G1 X7.761 Y-19.160 E27.82349
G1 X9.000 Y-18.687 E27.86247
G1 X10.205 Y-18.133 E27.90145
G1 X11.372 Y-17.502 E27.94043
G1 X12.495 Y-16.796 E27.97941
G1 X13.569 Y-16.018 E28.01839
G1 X14.590 Y-15.172 E28.05737
G1 X15.409 Y-14.404 E28.09035
G1 X16.320 Y-13.441 E28.12933
G1 X17.167 Y-12.420 E28.16831
G1 X17.945 Y-11.346 E28.20728
G1 X18.651 Y-10.223 E28.24626
G1 X19.122 Y-8.575 E28.29663
G1 X19.122 Y8.575 E28.80063
G1 X18.651 Y10.223 E28.85099
G1 X17.945 Y11.346 E28.88997
G1 X17.167 Y12.420 E28.92895
G1 X16.320 Y13.441 E28.96793
G1 X15.409 Y14.404 E29.00691
G1 X14.436 Y15.306 E29.04589
G1 X13.569 Y16.018 E29.07887
G1 X12.495 Y16.796 E29.11785
G1 X11.372 Y17.502 E29.15683
G1 X10.205 Y18.133 E29.19580
G1 X8.811 Y18.765 E29.24078
G1 X7.567 Y19.226 E29.27976
G1 X6.296 Y19.605 E29.31874
G1 X5.003 Y19.899 E29.35772
G1 X3.693 Y20.109 E29.39670
G1 X2.576 Y20.219 E29.42968
G1 X1.251 Y20.269 E29.46866
G1 X-0.411 Y19.852 E29.51902
G1 X-15.225 Y11.300 E30.02170
G1 X-15.087 Y10.971 F3600.000
G1 F1500
G1 X-16.144 Y9.879 E30.06636
G1 X-16.673 Y8.890 E30.09934
G1 X-17.216 Y7.705 E30.13764
G1 X-17.739 Y6.316 E30.18126
G1 X-18.112 Y5.067 E30.21956
G1 X-18.367 Y3.974 E30.25254
G1 X-18.585 Y2.689 E30.29084
G1 X-18.718 Y1.393 E30.32914
G1 X-18.767 Y0.090 E30.36744
G1 X-18.730 Y-1.212 E30.40574
G1 X-18.585 Y-2.689 E30.44936
G1 X-18.402 Y-3.797 E30.48234
G1 X-18.112 Y-5.067 E30.52064
G1 X-17.739 Y-6.316 E30.55894
G1 X-17.216 Y-7.705 E30.60255
G1 X-16.753 Y-8.727 E30.63553
G1 X-16.144 Y-9.879 E30.67383
G1 X-15.087 Y-10.971 E30.71849
G1 X-0.235 Y-19.546 E31.22249
G1 X1.239 Y-19.916 E31.26715
G1 X2.361 Y-19.879 E31.30013
G1 X3.659 Y-19.757 E31.33843
G1 X4.945 Y-19.551 E31.37673
G1 X6.216 Y-19.260 E31.41503
G1 X7.465 Y-18.888 E31.45333
G1 X8.687 Y-18.434 E31.49163
G1 X10.100 Y-17.789 E31.53731
G1 X11.185 Y-17.202 E31.57355
G1 X12.289 Y-16.509 E31.61185
G1 X13.345 Y-15.745 E31.65015
G1 X14.348 Y-14.914 E31.68845
G1 X15.295 Y-14.018 E31.72675
G1 X16.182 Y-13.063 E31.76505
G1 X16.894 Y-12.196 E31.79803
G1 X17.658 Y-11.140 E31.83633
G1 X18.351 Y-10.036 E31.87463
G1 X18.768 Y-8.575 E31.91929
G1 X18.768 Y8.575 E32.42329
G1 X18.351 Y10.036 E32.46794
G1 X17.658 Y11.140 E32.50624
G1 X16.894 Y12.196 E32.54454
G1 X16.063 Y13.199 E32.58284
G1 X15.167 Y14.147 E32.62114
G1 X14.158 Y15.078 E32.66150
G1 X13.201 Y15.855 E32.69774
G1 X12.289 Y16.509 E32.73072
G1 X11.185 Y17.202 E32.76902
G1 X10.039 Y17.822 E32.80732
G1 X8.854 Y18.365 E32.84562
G1 X7.465 Y18.888 E32.88924
G1 X6.216 Y19.260 E32.92754
G1 X4.945 Y19.551 E32.96584
G1 X3.659 Y19.757 E33.00414
G1 X2.542 Y19.867 E33.03712
G1 X1.239 Y19.916 E33.07542
G1 X-0.235 Y19.546 E33.12008
G1 X-15.048 Y10.994 E33.62276
G1 X-14.910 Y10.665 F3600.000
G1 F1500
G1 X-15.832 Y9.713 E33.66171
G1 X-16.361 Y8.723 E33.69469
G1 X-16.894 Y7.559 E33.73231
G1 X-17.401 Y6.213 E33.77457
G1 X-17.767 Y4.987 E33.81219
G1 X-18.022 Y3.894 E33.84517
G1 X-18.236 Y2.632 E33.88279
G1 X-18.367 Y1.358 E33.92041
G1 X-18.414 Y0.079 E33.95804
G1 X-18.377 Y-1.201 E33.99565
G1 X-18.236 Y-2.632 E34.03791
G1 X-18.053 Y-3.739 E34.07090
G1 X-17.767 Y-4.987 E34.10851
G1 X-17.401 Y-6.213 E34.14614
G1 X-16.894 Y-7.559 E34.18839
G1 X-16.431 Y-8.581 E34.22138
G1 X-15.832 Y-9.713 E34.25900
G1 X-14.910 Y-10.665 E34.29795
G1 X-0.058 Y-19.240 E34.80195
G1 X1.228 Y-19.562 E34.84090
G1 X2.507 Y-19.515 E34.87853
G1 X3.781 Y-19.385 E34.91615
G1 X5.043 Y-19.171 E34.95377
G1 X6.288 Y-18.875 E34.99139
G1 X7.512 Y-18.499 E35.02901
G1 X8.708 Y-18.043 E35.06663
G1 X9.730 Y-17.580 E35.09961
G1 X10.862 Y-16.981 E35.13723
G1 X11.951 Y-16.309 E35.17485
G1 X12.995 Y-15.568 E35.21247
G1 X13.988 Y-14.760 E35.25009
G1 X14.926 Y-13.889 E35.28771
G1 X15.909 Y-12.839 E35.32997
G1 X16.717 Y-11.846 E35.36759
G1 X17.458 Y-10.803 E35.40521
G1 X18.051 Y-9.850 E35.43819
G1 X18.415 Y-8.575 E35.47715
G1 X18.415 Y8.575 E35.98115
G1 X18.051 Y9.850 E36.02010
G1 X17.458 Y10.803 E36.05308
G1 X16.758 Y11.789 E36.08864
G1 X15.909 Y12.839 E36.12832
G1 X15.037 Y13.777 E36.16594
G1 X14.107 Y14.656 E36.20356
G1 X13.120 Y15.472 E36.24118
G1 X11.951 Y16.309 E36.28344
G1 X10.862 Y16.981 E36.32106
G1 X9.872 Y17.510 E36.35404
G1 X8.708 Y18.043 E36.39166
G1 X7.512 Y18.499 E36.42928
G1 X6.288 Y18.875 E36.46690
G1 X5.043 Y19.171 E36.50452
G1 X3.781 Y19.385 E36.54215
G1 X2.507 Y19.515 E36.57977
G1 X1.228 Y19.562 E36.61739
G1 X-0.058 Y19.240 E36.65634
