; generated by Slic3r 1.3.0 on 2024-06-02 at 14:07:53

; external perimeters extrusion width = 0.33mm (1.72mm^3/s)
; perimeters extrusion width = 0.40mm (2.83mm^3/s)
; infill extrusion width = 0.38mm (2.66mm^3/s)
; solid infill extrusion width = 0.40mm (2.12mm^3/s)
; top infill extrusion width = 0.40mm (2.12mm^3/s)

M190 S60 ; set bed temperature and wait for it to be reached
M104 S245 ; set temperature
G28 ; 
G1 Z5 F5000 ; 

; Filament gcode

M109 S245 ; set temperature and wait for it to be reached
G21 ; set units to millimeters
G90 ; use absolute coordinates
M82 ; use absolute distances for extrusion
G92 E0
M106 S127.5
G1 Z-0.050 F3600.000
G1 E-3.00000 F2400.00000
G92 E0
G1 X6.356 Y16.569 F3600.000
G1 E3.00000 F2400.00000
G1 F1500
G1 X5.306 Y16.934 E3.03266
G1 X4.235 Y17.233 E3.06532
G1 X3.145 Y17.465 E3.09810
G1 X2.409 Y17.582 E3.11997
G1 X0.930 Y17.722 E3.16365
G1 X0.187 Y17.745 E3.18549
G1 X-0.928 Y17.722 E3.21826
G1 X-2.409 Y17.582 E3.26199
G1 X-3.142 Y17.466 E3.28378
G1 X-4.232 Y17.234 E3.31654
G1 X-5.661 Y16.819 E3.36028
G1 X-6.705 Y16.430 E3.39302
G1 X-7.386 Y16.136 E3.41482
G1 X-8.712 Y15.460 E3.45856
G1 X-9.351 Y15.083 E3.48035
G1 X-10.279 Y14.466 E3.51311
G1 X-11.455 Y13.554 E3.55685
G1 X-12.011 Y13.063 E3.57863
G1 X-12.808 Y12.284 E3.61139
G1 X-13.792 Y11.167 E3.65513
G1 X-14.466 Y10.279 E3.68789
G1 X-14.883 Y9.666 E3.70968
G1 X-15.640 Y8.385 E3.75341
G1 X-16.136 Y7.386 E3.78618
G1 X-16.568 Y6.359 E3.81894
G1 X-16.819 Y5.661 E3.84072
G1 X-17.141 Y4.594 E3.87348
G1 X-17.466 Y3.142 E3.91722
G1 X-17.582 Y2.408 E3.93905
G1 X-17.698 Y1.301 E3.97177
G1 X-17.745 Y-0.187 E4.01551
G1 X-17.698 Y-1.301 E4.04827
G1 X-17.628 Y-2.040 E4.07009
G1 X-17.465 Y-3.145 E4.10290
G1 X-17.235 Y-4.229 E4.13548
G1 X-16.819 Y-5.661 E4.17931
G1 X-16.568 Y-6.359 E4.20110
G1 X-16.136 Y-7.386 E4.23386
G1 X-15.460 Y-8.712 E4.27760
G1 X-14.883 Y-9.666 E4.31036
G1 X-14.465 Y-10.280 E4.33217
G1 X-13.791 Y-11.168 E4.36493
G1 X-13.063 Y-12.011 E4.39767
G1 X-12.011 Y-13.063 E4.44140
G1 X-11.168 Y-13.791 E4.47414
G1 X-10.581 Y-14.246 E4.49595
G1 X-9.351 Y-15.083 E4.53969
G1 X-8.712 Y-15.460 E4.56148
G1 X-7.725 Y-15.977 E4.59424
G1 X-6.359 Y-16.568 E4.63797
G1 X-5.307 Y-16.934 E4.67069
G1 X-4.594 Y-17.141 E4.69252
G1 X-3.145 Y-17.465 E4.73617
G1 X-2.040 Y-17.628 E4.76898
G1 X-1.301 Y-17.698 E4.79081
G1 X0.190 Y-17.745 E4.83464
G1 X1.301 Y-17.698 E4.86730
G1 X2.408 Y-17.582 E4.90002
G1 X3.142 Y-17.466 E4.92185
G1 X4.232 Y-17.234 E4.95461
G1 X5.661 Y-16.819 E4.99835
G1 X6.359 Y-16.568 E5.02014
G1 X7.386 Y-16.136 E5.05290
G1 X8.712 Y-15.460 E5.09663
G1 X9.351 Y-15.083 E5.11842
G1 X10.279 Y-14.466 E5.15118
G1 X11.454 Y-13.554 E5.19489
G1 X12.011 Y-13.063 E5.21670
G1 X12.808 Y-12.284 E5.24947
G1 X13.792 Y-11.167 E5.29320
G1 X14.246 Y-10.581 E5.31499
G1 X14.883 Y-9.666 E5.34775
G1 X15.460 Y-8.712 E5.38051
G1 X15.975 Y-7.727 E5.41318
G1 X16.568 Y-6.359 E5.45701
G1 X16.819 Y-5.661 E5.47880
G1 X17.141 Y-4.594 E5.51156
G1 X17.466 Y-3.142 E5.55529
G1 X17.582 Y-2.409 E5.57708
G1 X17.698 Y-1.301 E5.60984
G1 X17.745 Y-0.187 E5.64260
G1 X17.722 Y0.924 E5.67527
G1 X17.582 Y2.409 E5.71910
G1 X17.465 Y3.145 E5.74098
G1 X17.233 Y4.235 E5.77375
G1 X16.819 Y5.661 E5.81739
G1 X16.567 Y6.361 E5.83924
G1 X16.136 Y7.386 E5.87193
G1 X15.460 Y8.712 E5.91567
G1 X15.082 Y9.352 E5.93752
G1 X14.465 Y10.280 E5.97025
G1 X13.554 Y11.455 E6.01396
G1 X13.063 Y12.011 E6.03574
G1 X12.284 Y12.808 E6.06850
G1 X11.168 Y13.791 E6.11220
G1 X10.280 Y14.465 E6.14497
G1 X9.666 Y14.883 E6.16679
G1 X8.386 Y15.640 E6.21050
G1 X7.387 Y16.135 E6.24326
G1 X6.397 Y16.552 E6.27482
G1 X6.236 Y16.236 F3600.000
G1 F1500
G1 X5.207 Y16.595 E6.30684
G1 X4.158 Y16.888 E6.33885
G1 X3.089 Y17.116 E6.37097
G1 X2.354 Y17.233 E6.39284
G1 X0.919 Y17.368 E6.43522
G1 X0.176 Y17.392 E6.45706
G1 X-0.917 Y17.369 E6.48917
G1 X-2.354 Y17.233 E6.53160
G1 X-3.086 Y17.117 E6.55339
G1 X-4.155 Y16.889 E6.58550
G1 X-5.541 Y16.486 E6.62793
G1 X-6.565 Y16.106 E6.66002
G1 X-7.246 Y15.811 E6.68182
G1 X-8.532 Y15.156 E6.72425
G1 X-9.467 Y14.590 E6.75636
G1 X-10.080 Y14.174 E6.77815
G1 X-11.221 Y13.289 E6.82058
G1 X-11.777 Y12.798 E6.84237
G1 X-12.558 Y12.034 E6.87448
G1 X-13.513 Y10.951 E6.91691
G1 X-14.174 Y10.080 E6.94902
G1 X-14.590 Y9.467 E6.97080
G1 X-15.325 Y8.225 E7.01324
G1 X-15.811 Y7.246 E7.04535
G1 X-16.235 Y6.239 E7.07746
G1 X-16.595 Y5.207 E7.10957
G1 X-16.802 Y4.495 E7.13135
G1 X-17.117 Y3.086 E7.17378
G1 X-17.233 Y2.353 E7.19561
G1 X-17.346 Y1.267 E7.22768
G1 X-17.392 Y0.173 E7.25988
G1 X-17.369 Y-0.917 E7.29190
G1 X-17.233 Y-2.354 E7.33433
G1 X-17.116 Y-3.089 E7.35620
G1 X-16.889 Y-4.156 E7.38827
G1 X-16.486 Y-5.541 E7.43066
G1 X-16.235 Y-6.239 E7.45245
G1 X-15.811 Y-7.246 E7.48455
G1 X-15.156 Y-8.533 E7.52699
G1 X-14.590 Y-9.467 E7.55910
G1 X-14.173 Y-10.081 E7.58091
G1 X-13.512 Y-10.951 E7.61301
G1 X-12.798 Y-11.777 E7.64510
G1 X-11.778 Y-12.798 E7.68752
G1 X-10.951 Y-13.512 E7.71962
G1 X-10.365 Y-13.967 E7.74143
G1 X-9.171 Y-14.779 E7.78386
G1 X-8.533 Y-15.156 E7.80564
G1 X-7.564 Y-15.662 E7.83775
G1 X-6.239 Y-16.235 E7.88018
G1 X-5.209 Y-16.595 E7.91226
G1 X-4.495 Y-16.802 E7.93408
G1 X-3.089 Y-17.116 E7.97643
G1 X-2.007 Y-17.277 E8.00859
G1 X-1.267 Y-17.346 E8.03041
G1 X0.179 Y-17.392 E8.07294
G1 X1.267 Y-17.346 E8.10495
G1 X2.353 Y-17.233 E8.13702
G1 X3.086 Y-17.117 E8.15885
G1 X4.155 Y-16.889 E8.19096
G1 X5.542 Y-16.486 E8.23339
G1 X6.239 Y-16.235 E8.25517
G1 X7.246 Y-15.811 E8.28728
G1 X8.532 Y-15.156 E8.32971
G1 X9.171 Y-14.779 E8.35150
G1 X10.080 Y-14.174 E8.38361
G1 X11.221 Y-13.289 E8.42602
G1 X11.777 Y-12.798 E8.44783
G1 X12.558 Y-12.034 E8.47994
G1 X13.513 Y-10.951 E8.52237
G1 X13.967 Y-10.365 E8.54415
G1 X14.590 Y-9.467 E8.57627
G1 X15.156 Y-8.532 E8.60838
G1 X15.660 Y-7.567 E8.64039
G1 X16.235 Y-6.239 E8.68292
G1 X16.486 Y-5.541 E8.70470
G1 X16.802 Y-4.495 E8.73681
G1 X17.117 Y-3.086 E8.77924
G1 X17.233 Y-2.354 E8.80103
G1 X17.346 Y-1.267 E8.83314
G1 X17.392 Y0.176 E8.87557
G1 X17.368 Y0.919 E8.89741
G1 X17.276 Y2.008 E8.92955
G1 X17.116 Y3.089 E8.96166
G1 X16.890 Y4.152 E8.99359
G1 X16.486 Y5.541 E9.03612
G1 X16.234 Y6.241 E9.05797
G1 X15.811 Y7.246 E9.09001
G1 X15.156 Y8.533 E9.13245
G1 X14.778 Y9.172 E9.15429
G1 X14.173 Y10.081 E9.18637
G1 X13.289 Y11.221 E9.22877
G1 X12.558 Y12.034 E9.26088
G1 X12.034 Y12.558 E9.28267
G1 X10.952 Y13.512 E9.32506
G1 X10.081 Y14.173 E9.35718
G1 X9.467 Y14.590 E9.37900
G1 X8.225 Y15.325 E9.42141
G1 X7.247 Y15.811 E9.45351
G1 X6.278 Y16.220 E9.48443
G1 X6.116 Y15.904 F3600.000
G1 F1500
G1 X5.109 Y16.256 E9.51578
G1 X4.081 Y16.544 E9.54715
G1 X3.034 Y16.767 E9.57862
G1 X2.299 Y16.884 E9.60048
G1 X0.907 Y17.015 E9.64156
G1 X0.165 Y17.039 E9.66340
G1 X-0.906 Y17.015 E9.69485
G1 X-2.299 Y16.884 E9.73598
G1 X-3.031 Y16.768 E9.75777
G1 X-4.078 Y16.544 E9.78923
G1 X-5.422 Y16.154 E9.83035
G1 X-6.425 Y15.782 E9.86179
G1 X-7.106 Y15.487 E9.88360
G1 X-8.353 Y14.852 E9.92472
G1 X-9.269 Y14.298 E9.95618
G1 X-9.882 Y13.881 E9.97797
G1 X-10.988 Y13.023 E10.01909
G1 X-11.784 Y12.308 E10.05055
G1 X-12.308 Y11.784 E10.07234
G1 X-13.233 Y10.734 E10.11346
G1 X-13.881 Y9.882 E10.14492
G1 X-14.298 Y9.269 E10.16671
G1 X-15.010 Y8.064 E10.20783
G1 X-15.487 Y7.106 E10.23929
G1 X-15.903 Y6.119 E10.27075
G1 X-16.154 Y5.422 E10.29253
G1 X-16.462 Y4.397 E10.32399
G1 X-16.768 Y3.031 E10.36512
G1 X-16.884 Y2.297 E10.38695
G1 X-16.995 Y1.234 E10.41837
G1 X-17.039 Y-0.165 E10.45949
G1 X-16.995 Y-1.234 E10.49095
G1 X-16.925 Y-1.973 E10.51277
G1 X-16.767 Y-3.034 E10.54427
G1 X-16.545 Y-4.075 E10.57555
G1 X-16.154 Y-5.422 E10.61678
G1 X-15.903 Y-6.119 E10.63857
G1 X-15.487 Y-7.106 E10.67002
G1 X-14.852 Y-8.353 E10.71115
G1 X-14.298 Y-9.269 E10.74261
G1 X-13.881 Y-9.883 E10.76441
G1 X-13.233 Y-10.735 E10.79587
G1 X-12.533 Y-11.544 E10.82731
G1 X-11.544 Y-12.533 E10.86842
G1 X-10.735 Y-13.233 E10.89987
G1 X-10.148 Y-13.688 E10.92168
G1 X-8.991 Y-14.474 E10.96280
G1 X-8.353 Y-14.852 E10.98459
G1 X-7.404 Y-15.347 E11.01605
G1 X-6.119 Y-15.903 E11.05717
G1 X-5.110 Y-16.255 E11.08859
G1 X-4.397 Y-16.462 E11.11042
G1 X-3.034 Y-16.767 E11.15147
G1 X-1.973 Y-16.925 E11.18297
G1 X-1.234 Y-16.995 E11.20479
G1 X0.165 Y-17.039 E11.24593
G1 X1.234 Y-16.995 E11.27737
G1 X2.297 Y-16.884 E11.30879
G1 X3.031 Y-16.768 E11.33062
G1 X4.078 Y-16.544 E11.36207
G1 X5.422 Y-16.154 E11.40320
G1 X6.119 Y-15.903 E11.42499
G1 X7.106 Y-15.487 E11.45644
G1 X8.353 Y-14.852 E11.49757
G1 X8.991 Y-14.474 E11.51936
G1 X9.882 Y-13.881 E11.55081
G1 X10.990 Y-13.022 E11.59202
G1 X11.784 Y-12.308 E11.62340
G1 X12.533 Y-11.544 E11.65486
G1 X13.023 Y-10.988 E11.67664
G1 X13.688 Y-10.148 E11.70810
G1 X14.474 Y-8.991 E11.74923
G1 X14.852 Y-8.353 E11.77102
G1 X15.347 Y-7.404 E11.80247
G1 X15.903 Y-6.119 E11.84360
G1 X16.154 Y-5.422 E11.86538
G1 X16.462 Y-4.397 E11.89684
G1 X16.768 Y-3.031 E11.93797
G1 X16.884 Y-2.299 E11.95975
G1 X16.995 Y-1.234 E11.99121
G1 X17.039 Y0.165 E12.03234
G1 X17.015 Y0.907 E12.05418
G1 X16.925 Y1.975 E12.08566
G1 X16.767 Y3.034 E12.11712
G1 X16.545 Y4.075 E12.14840
G1 X16.154 Y5.422 E12.18963
G1 X15.902 Y6.121 E12.21147
G1 X15.487 Y7.106 E12.24287
G1 X14.852 Y8.353 E12.28400
G1 X14.473 Y8.992 E12.30583
G1 X13.881 Y9.883 E12.33726
G1 X13.023 Y10.988 E12.37837
G1 X12.533 Y11.544 E12.40015
G1 X11.784 Y12.308 E12.43161
G1 X10.735 Y13.233 E12.47270
G1 X9.883 Y13.881 E12.50417
G1 X9.269 Y14.298 E12.52598
G1 X8.065 Y15.010 E12.56709
G1 X7.106 Y15.487 E12.59854
G1 X6.158 Y15.887 E12.62880
G1 X5.996 Y15.571 F3600.000
G1 F1500
G1 X5.010 Y15.916 E12.65951
G1 X4.004 Y16.199 E12.69023
G1 X2.978 Y16.418 E12.72104
G1 X2.244 Y16.534 E12.74290
G1 X0.896 Y16.662 E12.78268
G1 X0.154 Y16.685 E12.80451
G1 X-0.894 Y16.662 E12.83532
G1 X-2.244 Y16.534 E12.87514
G1 X-2.976 Y16.419 E12.89692
G1 X-4.001 Y16.199 E12.92773
G1 X-5.302 Y15.821 E12.96755
G1 X-6.284 Y15.457 E12.99834
G1 X-6.965 Y15.163 E13.02014
G1 X-8.173 Y14.548 E13.05996
G1 X-8.811 Y14.170 E13.08175
G1 X-9.683 Y13.589 E13.11256
G1 X-10.754 Y12.758 E13.15238
G1 X-11.310 Y12.268 E13.17417
G1 X-12.058 Y11.534 E13.20497
G1 X-12.954 Y10.517 E13.24479
G1 X-13.589 Y9.683 E13.27560
G1 X-14.006 Y9.070 E13.29738
G1 X-14.695 Y7.904 E13.33721
G1 X-15.163 Y6.965 E13.36801
G1 X-15.570 Y6.000 E13.39882
G1 X-15.916 Y5.010 E13.42962
G1 X-16.123 Y4.298 E13.45141
G1 X-16.419 Y2.976 E13.49123
G1 X-16.535 Y2.242 E13.51306
G1 X-16.643 Y1.201 E13.54383
G1 X-16.685 Y0.151 E13.57471
G1 X-16.662 Y-0.894 E13.60543
G1 X-16.534 Y-2.244 E13.64526
G1 X-16.418 Y-2.978 E13.66712
G1 X-16.199 Y-4.002 E13.69788
G1 X-15.821 Y-5.302 E13.73767
G1 X-15.570 Y-6.000 E13.75946
G1 X-15.163 Y-6.965 E13.79026
G1 X-14.547 Y-8.173 E13.83008
G1 X-14.006 Y-9.070 E13.86089
G1 X-13.589 Y-9.684 E13.88270
G1 X-12.954 Y-10.518 E13.91350
G1 X-12.268 Y-11.310 E13.94429
G1 X-11.310 Y-12.268 E13.98410
G1 X-10.518 Y-12.954 E14.01490
G1 X-9.932 Y-13.408 E14.03670
G1 X-8.811 Y-14.170 E14.07652
G1 X-8.173 Y-14.547 E14.09831
G1 X-7.243 Y-15.032 E14.12911
G1 X-6.000 Y-15.570 E14.16893
G1 X-5.011 Y-15.916 E14.19971
G1 X-4.298 Y-16.123 E14.22153
G1 X-2.978 Y-16.418 E14.26128
G1 X-1.940 Y-16.573 E14.29212
G1 X-1.201 Y-16.643 E14.31394
G1 X0.157 Y-16.685 E14.35386
G1 X1.201 Y-16.643 E14.38457
G1 X2.242 Y-16.535 E14.41534
G1 X2.976 Y-16.419 E14.43716
G1 X4.001 Y-16.199 E14.46797
G1 X5.302 Y-15.821 E14.50779
G1 X6.000 Y-15.570 E14.52957
G1 X6.965 Y-15.163 E14.56038
G1 X8.173 Y-14.548 E14.60020
G1 X8.811 Y-14.170 E14.62199
G1 X9.683 Y-13.589 E14.65279
G1 X10.753 Y-12.759 E14.69259
G1 X11.310 Y-12.268 E14.71440
G1 X12.058 Y-11.534 E14.74521
G1 X12.954 Y-10.517 E14.78503
G1 X13.408 Y-9.932 E14.80682
G1 X14.006 Y-9.070 E14.83762
G1 X14.548 Y-8.173 E14.86843
G1 X15.030 Y-7.246 E14.89914
G1 X15.570 Y-6.000 E14.93906
G1 X15.821 Y-5.302 E14.96084
G1 X16.123 Y-4.298 E14.99165
G1 X16.419 Y-2.976 E15.03147
G1 X16.534 Y-2.244 E15.05325
G1 X16.643 Y-1.201 E15.08406
G1 X16.685 Y-0.154 E15.11486
G1 X16.662 Y0.893 E15.14562
G1 X16.534 Y2.244 E15.18549
G1 X16.418 Y2.978 E15.20735
G1 X16.199 Y4.004 E15.23817
G1 X15.821 Y5.302 E15.27791
G1 X15.569 Y6.001 E15.29975
G1 X15.163 Y6.965 E15.33050
G1 X14.547 Y8.173 E15.37032
G1 X14.169 Y8.812 E15.39216
G1 X13.589 Y9.684 E15.42293
G1 X12.758 Y10.754 E15.46274
G1 X12.268 Y11.310 E15.48452
G1 X11.534 Y12.058 E15.51533
G1 X10.518 Y12.953 E15.55512
G1 X9.684 Y13.589 E15.58593
G1 X9.070 Y14.006 E15.60774
G1 X7.904 Y14.695 E15.64755
G1 X6.966 Y15.162 E15.67835
G1 X6.038 Y15.555 E15.70795
G1 X5.877 Y15.239 F3600.000
G1 F1500
G1 X4.911 Y15.577 E15.73800
G1 X3.926 Y15.854 E15.76808
G1 X2.923 Y16.069 E15.79824
G1 X2.188 Y16.185 E15.82010
G1 X0.885 Y16.309 E15.85857
G1 X0.142 Y16.332 E15.88040
G1 X-0.883 Y16.309 E15.91055
G1 X-2.188 Y16.185 E15.94907
G1 X-2.920 Y16.069 E15.97086
G1 X-3.924 Y15.854 E16.00101
G1 X-5.182 Y15.489 E16.03953
G1 X-6.144 Y15.133 E16.06967
G1 X-6.825 Y14.838 E16.09147
G1 X-7.993 Y14.243 E16.12998
G1 X-8.631 Y13.866 E16.15177
G1 X-9.485 Y13.297 E16.18192
G1 X-10.520 Y12.493 E16.22044
G1 X-11.284 Y11.808 E16.25060
G1 X-12.003 Y11.076 E16.28075
G1 X-12.494 Y10.520 E16.30256
G1 X-13.129 Y9.715 E16.33269
G1 X-13.866 Y8.631 E16.37121
G1 X-14.243 Y7.993 E16.39299
G1 X-14.717 Y7.083 E16.42315
G1 X-15.238 Y5.880 E16.46166
G1 X-15.489 Y5.182 E16.48345
G1 X-15.784 Y4.200 E16.51360
G1 X-16.069 Y2.920 E16.55212
G1 X-16.186 Y2.187 E16.57394
G1 X-16.291 Y1.168 E16.60406
G1 X-16.332 Y-0.142 E16.64258
G1 X-16.291 Y-1.168 E16.67273
G1 X-16.221 Y-1.907 E16.69455
G1 X-16.069 Y-2.923 E16.72474
G1 X-15.855 Y-3.921 E16.75475
G1 X-15.489 Y-5.182 E16.79334
G1 X-15.238 Y-5.880 E16.81513
G1 X-14.838 Y-6.825 E16.84528
G1 X-14.243 Y-7.993 E16.88380
G1 X-13.713 Y-8.871 E16.91395
G1 X-13.296 Y-9.485 E16.93576
G1 X-12.674 Y-10.301 E16.96591
G1 X-12.003 Y-11.076 E16.99604
G1 X-11.076 Y-12.003 E17.03455
G1 X-10.301 Y-12.674 E17.06470
G1 X-9.715 Y-13.129 E17.08650
G1 X-8.631 Y-13.866 E17.12502
G1 X-7.993 Y-14.243 E17.14680
G1 X-7.083 Y-14.717 E17.17696
G1 X-5.880 Y-15.238 E17.21547
G1 X-4.912 Y-15.576 E17.24560
G1 X-4.200 Y-15.784 E17.26741
G1 X-2.923 Y-16.069 E17.30586
G1 X-1.907 Y-16.221 E17.33606
G1 X-1.168 Y-16.291 E17.35787
G1 X0.143 Y-16.332 E17.39642
G1 X1.168 Y-16.291 E17.42654
G1 X2.187 Y-16.186 E17.45666
G1 X2.920 Y-16.069 E17.47848
G1 X3.924 Y-15.854 E17.50863
G1 X5.182 Y-15.489 E17.54715
G1 X5.880 Y-15.238 E17.56894
G1 X6.825 Y-14.838 E17.59909
G1 X7.993 Y-14.243 E17.63761
G1 X8.631 Y-13.866 E17.65940
G1 X9.485 Y-13.297 E17.68955
G1 X10.520 Y-12.494 E17.72805
G1 X11.076 Y-12.003 E17.74985
G1 X11.808 Y-11.284 E17.78001
G1 X12.675 Y-10.301 E17.81852
G1 X13.297 Y-9.485 E17.84868
G1 X13.713 Y-8.871 E17.87046
G1 X14.243 Y-7.993 E17.90062
G1 X14.716 Y-7.086 E17.93067
G1 X15.238 Y-5.880 E17.96929
G1 X15.489 Y-5.182 E17.99107
G1 X15.784 Y-4.200 E18.02123
G1 X16.069 Y-2.920 E18.05974
G1 X16.185 Y-2.188 E18.08153
G1 X16.291 Y-1.168 E18.11168
G1 X16.332 Y-0.142 E18.14184
G1 X16.309 Y0.880 E18.17189
G1 X16.185 Y2.188 E18.21051
G1 X16.069 Y2.923 E18.23236
G1 X15.854 Y3.926 E18.26252
G1 X15.489 Y5.182 E18.30096
G1 X15.237 Y5.881 E18.32280
G1 X14.838 Y6.825 E18.35290
G1 X14.243 Y7.993 E18.39142
G1 X13.865 Y8.632 E18.41325
G1 X13.296 Y9.485 E18.44338
G1 X12.493 Y10.520 E18.48188
G1 X12.003 Y11.076 E18.50366
G1 X11.284 Y11.808 E18.53382
G1 X10.301 Y12.674 E18.57231
G1 X9.485 Y13.296 E18.60247
G1 X8.871 Y13.713 E18.62427
G1 X7.744 Y14.380 E18.66278
G1 X6.826 Y14.838 E18.69293
G1 X5.919 Y15.222 E18.72188
G1 X5.757 Y14.906 F3600.000
G1 F1500
G1 X4.813 Y15.237 E18.75128
G1 X3.849 Y15.509 E18.78071
G1 X2.867 Y15.720 E18.81022
G1 X2.133 Y15.836 E18.83207
G1 X0.874 Y15.955 E18.86924
G1 X0.131 Y15.979 E18.89106
G1 X-0.872 Y15.956 E18.92057
G1 X-2.133 Y15.836 E18.95778
G1 X-2.865 Y15.720 E18.97956
G1 X-3.847 Y15.509 E19.00907
G1 X-5.063 Y15.156 E19.04628
G1 X-6.004 Y14.809 E19.07577
G1 X-6.685 Y14.514 E19.09757
G1 X-7.813 Y13.939 E19.13478
G1 X-8.673 Y13.421 E19.16428
G1 X-9.286 Y13.004 E19.18607
G1 X-10.286 Y12.228 E19.22328
G1 X-10.843 Y11.738 E19.24507
G1 X-11.558 Y11.034 E19.27457
G1 X-12.396 Y10.084 E19.31178
G1 X-13.004 Y9.286 E19.34128
G1 X-13.421 Y8.673 E19.36307
G1 X-14.066 Y7.583 E19.40028
